(Project nrf51822-holes-outline)
(Created by Estlcam version 11 build 11.118)
(Machining time about 00:12:28 hours)

(Required tools:)
(End 1.000mm)
G21
G90
G94
M03 S24000.0
G00 Z20.000


(No. 1 Hole: Hole 4)
G00 X15.766 Y15.777
G00 Z0.500
G01 Z-0.400 F120 S24000.0
G02 X16.875 Y19.863 I1.7337 J1.7230 F400
G02 X19.859 Y16.860 I0.6254 J-2.3629
G02 X15.766 Y15.777 I-2.3590 J0.6399
G01 Z-0.800 F120
G02 X16.875 Y19.863 I1.7337 J1.7230 F400
G02 X19.859 Y16.860 I0.6254 J-2.3629
G02 X15.766 Y15.777 I-2.3590 J0.6399
G01 Z-1.200 F120
G02 X16.875 Y19.863 I1.7337 J1.7230 F400
G02 X19.859 Y16.860 I0.6254 J-2.3629
G02 X15.766 Y15.777 I-2.3590 J0.6399
G01 Z-1.600 F120
G02 X16.875 Y19.863 I1.7337 J1.7230 F400
G02 X19.859 Y16.860 I0.6254 J-2.3629
G02 X15.766 Y15.777 I-2.3590 J0.6399
G01 Z-2.000 F120
G02 X16.875 Y19.863 I1.7337 J1.7230 F400
G02 X19.859 Y16.860 I0.6254 J-2.3629
G02 X15.766 Y15.777 I-2.3590 J0.6399
G01 Z-2.400 F120
G02 X16.875 Y19.863 I1.7337 J1.7230 F400
G02 X19.859 Y16.860 I0.6254 J-2.3629
G02 X15.766 Y15.777 I-2.3590 J0.6399
G01 Z-2.800 F120
G02 X16.875 Y19.863 I1.7337 J1.7230 F400
G02 X19.859 Y16.860 I0.6254 J-2.3629
G02 X15.766 Y15.777 I-2.3590 J0.6399
G01 Z-3.200 F120
G02 X16.875 Y19.863 I1.7337 J1.7230 F400
G02 X19.859 Y16.860 I0.6254 J-2.3629
G02 X15.766 Y15.777 I-2.3590 J0.6399
G01 Z-3.500 F120
G02 X16.875 Y19.863 I1.7337 J1.7230 F400
G02 X19.859 Y16.860 I0.6254 J-2.3629
G02 X15.766 Y15.777 I-2.3590 J0.6399
G00 Z20.000


(No. 2 Helical drill: Helical drill 2)
G00 X4.495 Y4.000 Z20.000
G00 Z0.500
G02 X3.753 Y3.571 Z0.367 I-0.4950 J0.0000 F120
G02 Y4.429 Z0.233 I0.2475 J0.4287
G02 X4.495 Y4.000 Z0.100 I0.2475 J-0.4287
G02 X3.753 Y3.571 Z0.067 I-0.4950 J0.0000
G02 Y4.429 Z0.033 I0.2475 J0.4287
G02 X4.495 Y4.000 Z0.000 I0.2475 J-0.4287
G02 X3.753 Y3.571 I-0.4950 J0.0000
G02 Y4.429 I0.2475 J0.4287
G02 X4.495 Y4.000 I0.2475 J-0.4287
G02 X3.753 Y3.571 Z-0.133 I-0.4950 J0.0000
G02 Y4.429 Z-0.267 I0.2475 J0.4287
G02 X4.495 Y4.000 Z-0.400 I0.2475 J-0.4287
G02 X3.753 Y3.571 I-0.4950 J0.0000
G02 Y4.429 I0.2475 J0.4287
G02 X4.495 Y4.000 I0.2475 J-0.4287
G02 X4.483 Y3.800 I-0.4994 J-0.0697 F400
G02 X4.389 Y3.611 I-0.5139 J0.1374
G02 X4.221 Y3.466 I-0.4419 J0.3433
G02 X4.000 Y3.395 I-0.2876 J0.5120
G02 X3.758 Y3.416 I-0.0698 J0.6110
G02 X3.533 Y3.533 I0.1800 J0.6169
G02 X3.365 Y3.737 I0.4220 J0.5207
G02 X3.285 Y4.000 I0.6148 J0.3302
G02 X3.314 Y4.284 I0.7221 J0.0698
G02 X3.456 Y4.544 I0.7195 J-0.2225
G02 X3.695 Y4.737 I0.5992 J-0.5005
G02 X4.000 Y4.825 I0.3727 J-0.7173
G02 X4.326 Y4.788 I0.0698 J-0.8330
G02 X4.622 Y4.622 I-0.2649 J-0.8219
G02 X4.838 Y4.347 I-0.5788 J-0.6775
G02 X4.935 Y4.000 I-0.8196 J-0.4150
G02 X4.889 Y3.632 I-0.9436 J-0.0698
G02 X4.700 Y3.300 I-0.9240 J0.3073
G02 X4.389 Y3.060 I-0.7557 J0.6570
G02 X4.000 Y2.955 I-0.4573 J0.9217
G02 X3.590 Y3.009 I-0.0697 J1.0542
G02 X3.240 Y3.240 I0.4051 J0.9944
G02 X3.007 Y3.589 I0.7601 J0.7601
G02 X2.925 Y4.000 I0.9932 J0.4114
G02 X3.007 Y4.411 I1.0750 J0.0000
G02 X3.240 Y4.760 I0.9932 J-0.4114
G02 X3.589 Y4.993 I0.7601 J-0.7601
G02 X4.000 Y5.075 I0.4114 J-0.9932
G02 X4.411 Y4.993 I0.0000 J-1.0750
G02 X4.760 Y4.760 I-0.4114 J-0.9932
G02 X4.993 Y4.411 I-0.7601 J-0.7601
G02 X5.075 Y4.000 I-0.9932 J-0.4114
G02 X3.463 Y3.069 I-1.0750 J0.0000
G02 Y4.931 I0.5375 J0.9310
G02 X5.075 Y4.000 I0.5375 J-0.9310
G02 X3.505 I-0.7850 J0.0000
G02 X4.495 I0.4950 J0.0000
G02 X3.753 Y3.571 Z-0.533 I-0.4950 J0.0000 F120
G02 Y4.429 Z-0.667 I0.2475 J0.4287
G02 X4.495 Y4.000 Z-0.800 I0.2475 J-0.4287
G02 X3.753 Y3.571 I-0.4950 J0.0000
G02 Y4.429 I0.2475 J0.4287
G02 X4.495 Y4.000 I0.2475 J-0.4287
G02 X4.483 Y3.800 I-0.4994 J-0.0697 F400
G02 X4.389 Y3.611 I-0.5139 J0.1374
G02 X4.221 Y3.466 I-0.4419 J0.3433
G02 X4.000 Y3.395 I-0.2876 J0.5120
G02 X3.758 Y3.416 I-0.0698 J0.6110
G02 X3.533 Y3.533 I0.1800 J0.6169
G02 X3.365 Y3.737 I0.4220 J0.5207
G02 X3.285 Y4.000 I0.6148 J0.3302
G02 X3.314 Y4.284 I0.7221 J0.0698
G02 X3.456 Y4.544 I0.7195 J-0.2225
G02 X3.695 Y4.737 I0.5992 J-0.5005
G02 X4.000 Y4.825 I0.3727 J-0.7173
G02 X4.326 Y4.788 I0.0698 J-0.8330
G02 X4.622 Y4.622 I-0.2649 J-0.8219
G02 X4.838 Y4.347 I-0.5788 J-0.6775
G02 X4.935 Y4.000 I-0.8196 J-0.4150
G02 X4.889 Y3.632 I-0.9436 J-0.0698
G02 X4.700 Y3.300 I-0.9240 J0.3073
G02 X4.389 Y3.060 I-0.7557 J0.6570
G02 X4.000 Y2.955 I-0.4573 J0.9217
G02 X3.590 Y3.009 I-0.0697 J1.0542
G02 X3.240 Y3.240 I0.4051 J0.9944
G02 X3.007 Y3.589 I0.7601 J0.7601
G02 X2.925 Y4.000 I0.9932 J0.4114
G02 X3.007 Y4.411 I1.0750 J0.0000
G02 X3.240 Y4.760 I0.9932 J-0.4114
G02 X3.589 Y4.993 I0.7601 J-0.7601
G02 X4.000 Y5.075 I0.4114 J-0.9932
G02 X4.411 Y4.993 I0.0000 J-1.0750
G02 X4.760 Y4.760 I-0.4114 J-0.9932
G02 X4.993 Y4.411 I-0.7601 J-0.7601
G02 X5.075 Y4.000 I-0.9932 J-0.4114
G02 X3.463 Y3.069 I-1.0750 J0.0000
G02 Y4.931 I0.5375 J0.9310
G02 X5.075 Y4.000 I0.5375 J-0.9310
G02 X3.505 I-0.7850 J0.0000
G02 X4.495 I0.4950 J0.0000
G02 X3.753 Y3.571 Z-0.933 I-0.4950 J0.0000 F120
G02 Y4.429 Z-1.067 I0.2475 J0.4287
G02 X4.495 Y4.000 Z-1.200 I0.2475 J-0.4287
G02 X3.753 Y3.571 I-0.4950 J0.0000
G02 Y4.429 I0.2475 J0.4287
G02 X4.495 Y4.000 I0.2475 J-0.4287
G02 X4.483 Y3.800 I-0.4994 J-0.0697 F400
G02 X4.389 Y3.611 I-0.5139 J0.1374
G02 X4.221 Y3.466 I-0.4419 J0.3433
G02 X4.000 Y3.395 I-0.2876 J0.5120
G02 X3.758 Y3.416 I-0.0698 J0.6110
G02 X3.533 Y3.533 I0.1800 J0.6169
G02 X3.365 Y3.737 I0.4220 J0.5207
G02 X3.285 Y4.000 I0.6148 J0.3302
G02 X3.314 Y4.284 I0.7221 J0.0698
G02 X3.456 Y4.544 I0.7195 J-0.2225
G02 X3.695 Y4.737 I0.5992 J-0.5005
G02 X4.000 Y4.825 I0.3727 J-0.7173
G02 X4.326 Y4.788 I0.0698 J-0.8330
G02 X4.622 Y4.622 I-0.2649 J-0.8219
G02 X4.838 Y4.347 I-0.5788 J-0.6775
G02 X4.935 Y4.000 I-0.8196 J-0.4150
G02 X4.889 Y3.632 I-0.9436 J-0.0698
G02 X4.700 Y3.300 I-0.9240 J0.3073
G02 X4.389 Y3.060 I-0.7557 J0.6570
G02 X4.000 Y2.955 I-0.4573 J0.9217
G02 X3.590 Y3.009 I-0.0697 J1.0542
G02 X3.240 Y3.240 I0.4051 J0.9944
G02 X3.007 Y3.589 I0.7601 J0.7601
G02 X2.925 Y4.000 I0.9932 J0.4114
G02 X3.007 Y4.411 I1.0750 J0.0000
G02 X3.240 Y4.760 I0.9932 J-0.4114
G02 X3.589 Y4.993 I0.7601 J-0.7601
G02 X4.000 Y5.075 I0.4114 J-0.9932
G02 X4.411 Y4.993 I0.0000 J-1.0750
G02 X4.760 Y4.760 I-0.4114 J-0.9932
G02 X4.993 Y4.411 I-0.7601 J-0.7601
G02 X5.075 Y4.000 I-0.9932 J-0.4114
G02 X3.463 Y3.069 I-1.0750 J0.0000
G02 Y4.931 I0.5375 J0.9310
G02 X5.075 Y4.000 I0.5375 J-0.9310
G02 X3.505 I-0.7850 J0.0000
G02 X4.495 I0.4950 J0.0000
G02 X3.753 Y3.571 Z-1.333 I-0.4950 J0.0000 F120
G02 Y4.429 Z-1.467 I0.2475 J0.4287
G02 X4.495 Y4.000 Z-1.600 I0.2475 J-0.4287
G02 X3.753 Y3.571 I-0.4950 J0.0000
G02 Y4.429 I0.2475 J0.4287
G02 X4.495 Y4.000 I0.2475 J-0.4287
G02 X4.483 Y3.800 I-0.4994 J-0.0697 F400
G02 X4.389 Y3.611 I-0.5139 J0.1374
G02 X4.221 Y3.466 I-0.4419 J0.3433
G02 X4.000 Y3.395 I-0.2876 J0.5120
G02 X3.758 Y3.416 I-0.0698 J0.6110
G02 X3.533 Y3.533 I0.1800 J0.6169
G02 X3.365 Y3.737 I0.4220 J0.5207
G02 X3.285 Y4.000 I0.6148 J0.3302
G02 X3.314 Y4.284 I0.7221 J0.0698
G02 X3.456 Y4.544 I0.7195 J-0.2225
G02 X3.695 Y4.737 I0.5992 J-0.5005
G02 X4.000 Y4.825 I0.3727 J-0.7173
G02 X4.326 Y4.788 I0.0698 J-0.8330
G02 X4.622 Y4.622 I-0.2649 J-0.8219
G02 X4.838 Y4.347 I-0.5788 J-0.6775
G02 X4.935 Y4.000 I-0.8196 J-0.4150
G02 X4.889 Y3.632 I-0.9436 J-0.0698
G02 X4.700 Y3.300 I-0.9240 J0.3073
G02 X4.389 Y3.060 I-0.7557 J0.6570
G02 X4.000 Y2.955 I-0.4573 J0.9217
G02 X3.590 Y3.009 I-0.0697 J1.0542
G02 X3.240 Y3.240 I0.4051 J0.9944
G02 X3.007 Y3.589 I0.7601 J0.7601
G02 X2.925 Y4.000 I0.9932 J0.4114
G02 X3.007 Y4.411 I1.0750 J0.0000
G02 X3.240 Y4.760 I0.9932 J-0.4114
G02 X3.589 Y4.993 I0.7601 J-0.7601
G02 X4.000 Y5.075 I0.4114 J-0.9932
G02 X4.411 Y4.993 I0.0000 J-1.0750
G02 X4.760 Y4.760 I-0.4114 J-0.9932
G02 X4.993 Y4.411 I-0.7601 J-0.7601
G02 X5.075 Y4.000 I-0.9932 J-0.4114
G02 X3.463 Y3.069 I-1.0750 J0.0000
G02 Y4.931 I0.5375 J0.9310
G02 X5.075 Y4.000 I0.5375 J-0.9310
G02 X3.505 I-0.7850 J0.0000
G02 X4.495 I0.4950 J0.0000
G02 X3.753 Y3.571 Z-1.733 I-0.4950 J0.0000 F120
G02 Y4.429 Z-1.867 I0.2475 J0.4287
G02 X4.495 Y4.000 Z-2.000 I0.2475 J-0.4287
G02 X3.753 Y3.571 I-0.4950 J0.0000
G02 Y4.429 I0.2475 J0.4287
G02 X4.495 Y4.000 I0.2475 J-0.4287
G02 X4.483 Y3.800 I-0.4994 J-0.0697 F400
G02 X4.389 Y3.611 I-0.5139 J0.1374
G02 X4.221 Y3.466 I-0.4419 J0.3433
G02 X4.000 Y3.395 I-0.2876 J0.5120
G02 X3.758 Y3.416 I-0.0698 J0.6110
G02 X3.533 Y3.533 I0.1800 J0.6169
G02 X3.365 Y3.737 I0.4220 J0.5207
G02 X3.285 Y4.000 I0.6148 J0.3302
G02 X3.314 Y4.284 I0.7221 J0.0698
G02 X3.456 Y4.544 I0.7195 J-0.2225
G02 X3.695 Y4.737 I0.5992 J-0.5005
G02 X4.000 Y4.825 I0.3727 J-0.7173
G02 X4.326 Y4.788 I0.0698 J-0.8330
G02 X4.622 Y4.622 I-0.2649 J-0.8219
G02 X4.838 Y4.347 I-0.5788 J-0.6775
G02 X4.935 Y4.000 I-0.8196 J-0.4150
G02 X4.889 Y3.632 I-0.9436 J-0.0698
G02 X4.700 Y3.300 I-0.9240 J0.3073
G02 X4.389 Y3.060 I-0.7557 J0.6570
G02 X4.000 Y2.955 I-0.4573 J0.9217
G02 X3.590 Y3.009 I-0.0697 J1.0542
G02 X3.240 Y3.240 I0.4051 J0.9944
G02 X3.007 Y3.589 I0.7601 J0.7601
G02 X2.925 Y4.000 I0.9932 J0.4114
G02 X3.007 Y4.411 I1.0750 J0.0000
G02 X3.240 Y4.760 I0.9932 J-0.4114
G02 X3.589 Y4.993 I0.7601 J-0.7601
G02 X4.000 Y5.075 I0.4114 J-0.9932
G02 X4.411 Y4.993 I0.0000 J-1.0750
G02 X4.760 Y4.760 I-0.4114 J-0.9932
G02 X4.993 Y4.411 I-0.7601 J-0.7601
G02 X5.075 Y4.000 I-0.9932 J-0.4114
G02 X3.463 Y3.069 I-1.0750 J0.0000
G02 Y4.931 I0.5375 J0.9310
G02 X5.075 Y4.000 I0.5375 J-0.9310
G02 X3.505 I-0.7850 J0.0000
G02 X4.495 I0.4950 J0.0000
G02 X3.753 Y3.571 Z-2.133 I-0.4950 J0.0000 F120
G02 Y4.429 Z-2.267 I0.2475 J0.4287
G02 X4.495 Y4.000 Z-2.400 I0.2475 J-0.4287
G02 X3.753 Y3.571 I-0.4950 J0.0000
G02 Y4.429 I0.2475 J0.4287
G02 X4.495 Y4.000 I0.2475 J-0.4287
G02 X4.483 Y3.800 I-0.4994 J-0.0697 F400
G02 X4.389 Y3.611 I-0.5139 J0.1374
G02 X4.221 Y3.466 I-0.4419 J0.3433
G02 X4.000 Y3.395 I-0.2876 J0.5120
G02 X3.758 Y3.416 I-0.0698 J0.6110
G02 X3.533 Y3.533 I0.1800 J0.6169
G02 X3.365 Y3.737 I0.4220 J0.5207
G02 X3.285 Y4.000 I0.6148 J0.3302
G02 X3.314 Y4.284 I0.7221 J0.0698
G02 X3.456 Y4.544 I0.7195 J-0.2225
G02 X3.695 Y4.737 I0.5992 J-0.5005
G02 X4.000 Y4.825 I0.3727 J-0.7173
G02 X4.326 Y4.788 I0.0698 J-0.8330
G02 X4.622 Y4.622 I-0.2649 J-0.8219
G02 X4.838 Y4.347 I-0.5788 J-0.6775
G02 X4.935 Y4.000 I-0.8196 J-0.4150
G02 X4.889 Y3.632 I-0.9436 J-0.0698
G02 X4.700 Y3.300 I-0.9240 J0.3073
G02 X4.389 Y3.060 I-0.7557 J0.6570
G02 X4.000 Y2.955 I-0.4573 J0.9217
G02 X3.590 Y3.009 I-0.0697 J1.0542
G02 X3.240 Y3.240 I0.4051 J0.9944
G02 X3.007 Y3.589 I0.7601 J0.7601
G02 X2.925 Y4.000 I0.9932 J0.4114
G02 X3.007 Y4.411 I1.0750 J0.0000
G02 X3.240 Y4.760 I0.9932 J-0.4114
G02 X3.589 Y4.993 I0.7601 J-0.7601
G02 X4.000 Y5.075 I0.4114 J-0.9932
G02 X4.411 Y4.993 I0.0000 J-1.0750
G02 X4.760 Y4.760 I-0.4114 J-0.9932
G02 X4.993 Y4.411 I-0.7601 J-0.7601
G02 X5.075 Y4.000 I-0.9932 J-0.4114
G02 X3.463 Y3.069 I-1.0750 J0.0000
G02 Y4.931 I0.5375 J0.9310
G02 X5.075 Y4.000 I0.5375 J-0.9310
G02 X3.505 I-0.7850 J0.0000
G02 X4.495 I0.4950 J0.0000
G02 X3.753 Y3.571 Z-2.533 I-0.4950 J0.0000 F120
G02 Y4.429 Z-2.667 I0.2475 J0.4287
G02 X4.495 Y4.000 Z-2.800 I0.2475 J-0.4287
G02 X3.753 Y3.571 I-0.4950 J0.0000
G02 Y4.429 I0.2475 J0.4287
G02 X4.495 Y4.000 I0.2475 J-0.4287
G02 X4.483 Y3.800 I-0.4994 J-0.0697 F400
G02 X4.389 Y3.611 I-0.5139 J0.1374
G02 X4.221 Y3.466 I-0.4419 J0.3433
G02 X4.000 Y3.395 I-0.2876 J0.5120
G02 X3.758 Y3.416 I-0.0698 J0.6110
G02 X3.533 Y3.533 I0.1800 J0.6169
G02 X3.365 Y3.737 I0.4220 J0.5207
G02 X3.285 Y4.000 I0.6148 J0.3302
G02 X3.314 Y4.284 I0.7221 J0.0698
G02 X3.456 Y4.544 I0.7195 J-0.2225
G02 X3.695 Y4.737 I0.5992 J-0.5005
G02 X4.000 Y4.825 I0.3727 J-0.7173
G02 X4.326 Y4.788 I0.0698 J-0.8330
G02 X4.622 Y4.622 I-0.2649 J-0.8219
G02 X4.838 Y4.347 I-0.5788 J-0.6775
G02 X4.935 Y4.000 I-0.8196 J-0.4150
G02 X4.889 Y3.632 I-0.9436 J-0.0698
G02 X4.700 Y3.300 I-0.9240 J0.3073
G02 X4.389 Y3.060 I-0.7557 J0.6570
G02 X4.000 Y2.955 I-0.4573 J0.9217
G02 X3.590 Y3.009 I-0.0697 J1.0542
G02 X3.240 Y3.240 I0.4051 J0.9944
G02 X3.007 Y3.589 I0.7601 J0.7601
G02 X2.925 Y4.000 I0.9932 J0.4114
G02 X3.007 Y4.411 I1.0750 J0.0000
G02 X3.240 Y4.760 I0.9932 J-0.4114
G02 X3.589 Y4.993 I0.7601 J-0.7601
G02 X4.000 Y5.075 I0.4114 J-0.9932
G02 X4.411 Y4.993 I0.0000 J-1.0750
G02 X4.760 Y4.760 I-0.4114 J-0.9932
G02 X4.993 Y4.411 I-0.7601 J-0.7601
G02 X5.075 Y4.000 I-0.9932 J-0.4114
G02 X3.463 Y3.069 I-1.0750 J0.0000
G02 Y4.931 I0.5375 J0.9310
G02 X5.075 Y4.000 I0.5375 J-0.9310
G02 X3.505 I-0.7850 J0.0000
G02 X4.495 I0.4950 J0.0000
G02 X3.753 Y3.571 Z-2.933 I-0.4950 J0.0000 F120
G02 Y4.429 Z-3.067 I0.2475 J0.4287
G02 X4.495 Y4.000 Z-3.200 I0.2475 J-0.4287
G02 X3.753 Y3.571 I-0.4950 J0.0000
G02 Y4.429 I0.2475 J0.4287
G02 X4.495 Y4.000 I0.2475 J-0.4287
G02 X4.483 Y3.800 I-0.4994 J-0.0697 F400
G02 X4.389 Y3.611 I-0.5139 J0.1374
G02 X4.221 Y3.466 I-0.4419 J0.3433
G02 X4.000 Y3.395 I-0.2876 J0.5120
G02 X3.758 Y3.416 I-0.0698 J0.6110
G02 X3.533 Y3.533 I0.1800 J0.6169
G02 X3.365 Y3.737 I0.4220 J0.5207
G02 X3.285 Y4.000 I0.6148 J0.3302
G02 X3.314 Y4.284 I0.7221 J0.0698
G02 X3.456 Y4.544 I0.7195 J-0.2225
G02 X3.695 Y4.737 I0.5992 J-0.5005
G02 X4.000 Y4.825 I0.3727 J-0.7173
G02 X4.326 Y4.788 I0.0698 J-0.8330
G02 X4.622 Y4.622 I-0.2649 J-0.8219
G02 X4.838 Y4.347 I-0.5788 J-0.6775
G02 X4.935 Y4.000 I-0.8196 J-0.4150
G02 X4.889 Y3.632 I-0.9436 J-0.0698
G02 X4.700 Y3.300 I-0.9240 J0.3073
G02 X4.389 Y3.060 I-0.7557 J0.6570
G02 X4.000 Y2.955 I-0.4573 J0.9217
G02 X3.590 Y3.009 I-0.0697 J1.0542
G02 X3.240 Y3.240 I0.4051 J0.9944
G02 X3.007 Y3.589 I0.7601 J0.7601
G02 X2.925 Y4.000 I0.9932 J0.4114
G02 X3.007 Y4.411 I1.0750 J0.0000
G02 X3.240 Y4.760 I0.9932 J-0.4114
G02 X3.589 Y4.993 I0.7601 J-0.7601
G02 X4.000 Y5.075 I0.4114 J-0.9932
G02 X4.411 Y4.993 I0.0000 J-1.0750
G02 X4.760 Y4.760 I-0.4114 J-0.9932
G02 X4.993 Y4.411 I-0.7601 J-0.7601
G02 X5.075 Y4.000 I-0.9932 J-0.4114
G02 X3.463 Y3.069 I-1.0750 J0.0000
G02 Y4.931 I0.5375 J0.9310
G02 X5.075 Y4.000 I0.5375 J-0.9310
G02 X3.505 I-0.7850 J0.0000
G02 X4.495 I0.4950 J0.0000
G02 X3.753 Y3.571 Z-3.300 I-0.4950 J0.0000 F120
G02 Y4.429 Z-3.400 I0.2475 J0.4287
G02 X4.495 Y4.000 Z-3.500 I0.2475 J-0.4287
G02 X3.753 Y3.571 I-0.4950 J0.0000
G02 Y4.429 I0.2475 J0.4287
G02 X4.495 Y4.000 I0.2475 J-0.4287
G02 X4.483 Y3.800 I-0.4994 J-0.0697 F400
G02 X4.389 Y3.611 I-0.5139 J0.1374
G02 X4.221 Y3.466 I-0.4419 J0.3433
G02 X4.000 Y3.395 I-0.2876 J0.5120
G02 X3.758 Y3.416 I-0.0698 J0.6110
G02 X3.533 Y3.533 I0.1800 J0.6169
G02 X3.365 Y3.737 I0.4220 J0.5207
G02 X3.285 Y4.000 I0.6148 J0.3302
G02 X3.314 Y4.284 I0.7221 J0.0698
G02 X3.456 Y4.544 I0.7195 J-0.2225
G02 X3.695 Y4.737 I0.5992 J-0.5005
G02 X4.000 Y4.825 I0.3727 J-0.7173
G02 X4.326 Y4.788 I0.0698 J-0.8330
G02 X4.622 Y4.622 I-0.2649 J-0.8219
G02 X4.838 Y4.347 I-0.5788 J-0.6775
G02 X4.935 Y4.000 I-0.8196 J-0.4150
G02 X4.889 Y3.632 I-0.9436 J-0.0698
G02 X4.700 Y3.300 I-0.9240 J0.3073
G02 X4.389 Y3.060 I-0.7557 J0.6570
G02 X4.000 Y2.955 I-0.4573 J0.9217
G02 X3.590 Y3.009 I-0.0697 J1.0542
G02 X3.240 Y3.240 I0.4051 J0.9944
G02 X3.007 Y3.589 I0.7601 J0.7601
G02 X2.925 Y4.000 I0.9932 J0.4114
G02 X3.007 Y4.411 I1.0750 J0.0000
G02 X3.240 Y4.760 I0.9932 J-0.4114
G02 X3.589 Y4.993 I0.7601 J-0.7601
G02 X4.000 Y5.075 I0.4114 J-0.9932
G02 X4.411 Y4.993 I0.0000 J-1.0750
G02 X4.760 Y4.760 I-0.4114 J-0.9932
G02 X4.993 Y4.411 I-0.7601 J-0.7601
G02 X5.075 Y4.000 I-0.9932 J-0.4114
G02 X3.463 Y3.069 I-1.0750 J0.0000
G02 Y4.931 I0.5375 J0.9310
G02 X5.075 Y4.000 I0.5375 J-0.9310
G02 X4.525 Y3.450 Z-3.000 I-0.5500 J0.0000 F120
G00 Z20.000


(No. 3 Helical drill: Helical drill 3)
G00 X4.495 Y31.000 Z20.000
G00 Z0.500
G02 X3.753 Y30.571 Z0.367 I-0.4950 J0.0000 F120
G02 Y31.429 Z0.233 I0.2475 J0.4287
G02 X4.495 Y31.000 Z0.100 I0.2475 J-0.4287
G02 X3.753 Y30.571 Z0.067 I-0.4950 J0.0000
G02 Y31.429 Z0.033 I0.2475 J0.4287
G02 X4.495 Y31.000 Z0.000 I0.2475 J-0.4287
G02 X3.753 Y30.571 I-0.4950 J0.0000
G02 Y31.429 I0.2475 J0.4287
G02 X4.495 Y31.000 I0.2475 J-0.4287
G02 X3.753 Y30.571 Z-0.133 I-0.4950 J0.0000
G02 Y31.429 Z-0.267 I0.2475 J0.4287
G02 X4.495 Y31.000 Z-0.400 I0.2475 J-0.4287
G02 X3.753 Y30.571 I-0.4950 J0.0000
G02 Y31.429 I0.2475 J0.4287
G02 X4.495 Y31.000 I0.2475 J-0.4287
G02 X4.483 Y30.800 I-0.4994 J-0.0697 F400
G02 X4.389 Y30.611 I-0.5139 J0.1374
G02 X4.221 Y30.466 I-0.4419 J0.3433
G02 X4.000 Y30.395 I-0.2876 J0.5120
G02 X3.758 Y30.416 I-0.0698 J0.6110
G02 X3.533 Y30.533 I0.1800 J0.6169
G02 X3.365 Y30.737 I0.4220 J0.5207
G02 X3.285 Y31.000 I0.6148 J0.3302
G02 X3.314 Y31.284 I0.7221 J0.0698
G02 X3.456 Y31.544 I0.7195 J-0.2225
G02 X3.695 Y31.737 I0.5992 J-0.5005
G02 X4.000 Y31.825 I0.3727 J-0.7173
G02 X4.326 Y31.788 I0.0698 J-0.8330
G02 X4.622 Y31.622 I-0.2649 J-0.8219
G02 X4.838 Y31.347 I-0.5788 J-0.6775
G02 X4.935 Y31.000 I-0.8196 J-0.4150
G02 X4.889 Y30.632 I-0.9436 J-0.0698
G02 X4.700 Y30.300 I-0.9240 J0.3073
G02 X4.389 Y30.060 I-0.7557 J0.6570
G02 X4.000 Y29.955 I-0.4573 J0.9217
G02 X3.590 Y30.009 I-0.0697 J1.0542
G02 X3.240 Y30.240 I0.4051 J0.9944
G02 X3.007 Y30.589 I0.7601 J0.7601
G02 X2.925 Y31.000 I0.9932 J0.4114
G02 X3.007 Y31.411 I1.0750 J0.0000
G02 X3.240 Y31.760 I0.9932 J-0.4114
G02 X3.589 Y31.993 I0.7601 J-0.7601
G02 X4.000 Y32.075 I0.4114 J-0.9932
G02 X4.411 Y31.993 I0.0000 J-1.0750
G02 X4.760 Y31.760 I-0.4114 J-0.9932
G02 X4.993 Y31.411 I-0.7601 J-0.7601
G02 X5.075 Y31.000 I-0.9932 J-0.4114
G02 X3.463 Y30.069 I-1.0750 J0.0000
G02 Y31.931 I0.5375 J0.9310
G02 X5.075 Y31.000 I0.5375 J-0.9310
G02 X3.505 I-0.7850 J0.0000
G02 X4.495 I0.4950 J0.0000
G02 X3.753 Y30.571 Z-0.533 I-0.4950 J0.0000 F120
G02 Y31.429 Z-0.667 I0.2475 J0.4287
G02 X4.495 Y31.000 Z-0.800 I0.2475 J-0.4287
G02 X3.753 Y30.571 I-0.4950 J0.0000
G02 Y31.429 I0.2475 J0.4287
G02 X4.495 Y31.000 I0.2475 J-0.4287
G02 X4.483 Y30.800 I-0.4994 J-0.0697 F400
G02 X4.389 Y30.611 I-0.5139 J0.1374
G02 X4.221 Y30.466 I-0.4419 J0.3433
G02 X4.000 Y30.395 I-0.2876 J0.5120
G02 X3.758 Y30.416 I-0.0698 J0.6110
G02 X3.533 Y30.533 I0.1800 J0.6169
G02 X3.365 Y30.737 I0.4220 J0.5207
G02 X3.285 Y31.000 I0.6148 J0.3302
G02 X3.314 Y31.284 I0.7221 J0.0698
G02 X3.456 Y31.544 I0.7195 J-0.2225
G02 X3.695 Y31.737 I0.5992 J-0.5005
G02 X4.000 Y31.825 I0.3727 J-0.7173
G02 X4.326 Y31.788 I0.0698 J-0.8330
G02 X4.622 Y31.622 I-0.2649 J-0.8219
G02 X4.838 Y31.347 I-0.5788 J-0.6775
G02 X4.935 Y31.000 I-0.8196 J-0.4150
G02 X4.889 Y30.632 I-0.9436 J-0.0698
G02 X4.700 Y30.300 I-0.9240 J0.3073
G02 X4.389 Y30.060 I-0.7557 J0.6570
G02 X4.000 Y29.955 I-0.4573 J0.9217
G02 X3.590 Y30.009 I-0.0697 J1.0542
G02 X3.240 Y30.240 I0.4051 J0.9944
G02 X3.007 Y30.589 I0.7601 J0.7601
G02 X2.925 Y31.000 I0.9932 J0.4114
G02 X3.007 Y31.411 I1.0750 J0.0000
G02 X3.240 Y31.760 I0.9932 J-0.4114
G02 X3.589 Y31.993 I0.7601 J-0.7601
G02 X4.000 Y32.075 I0.4114 J-0.9932
G02 X4.411 Y31.993 I0.0000 J-1.0750
G02 X4.760 Y31.760 I-0.4114 J-0.9932
G02 X4.993 Y31.411 I-0.7601 J-0.7601
G02 X5.075 Y31.000 I-0.9932 J-0.4114
G02 X3.463 Y30.069 I-1.0750 J0.0000
G02 Y31.931 I0.5375 J0.9310
G02 X5.075 Y31.000 I0.5375 J-0.9310
G02 X3.505 I-0.7850 J0.0000
G02 X4.495 I0.4950 J0.0000
G02 X3.753 Y30.571 Z-0.933 I-0.4950 J0.0000 F120
G02 Y31.429 Z-1.067 I0.2475 J0.4287
G02 X4.495 Y31.000 Z-1.200 I0.2475 J-0.4287
G02 X3.753 Y30.571 I-0.4950 J0.0000
G02 Y31.429 I0.2475 J0.4287
G02 X4.495 Y31.000 I0.2475 J-0.4287
G02 X4.483 Y30.800 I-0.4994 J-0.0697 F400
G02 X4.389 Y30.611 I-0.5139 J0.1374
G02 X4.221 Y30.466 I-0.4419 J0.3433
G02 X4.000 Y30.395 I-0.2876 J0.5120
G02 X3.758 Y30.416 I-0.0698 J0.6110
G02 X3.533 Y30.533 I0.1800 J0.6169
G02 X3.365 Y30.737 I0.4220 J0.5207
G02 X3.285 Y31.000 I0.6148 J0.3302
G02 X3.314 Y31.284 I0.7221 J0.0698
G02 X3.456 Y31.544 I0.7195 J-0.2225
G02 X3.695 Y31.737 I0.5992 J-0.5005
G02 X4.000 Y31.825 I0.3727 J-0.7173
G02 X4.326 Y31.788 I0.0698 J-0.8330
G02 X4.622 Y31.622 I-0.2649 J-0.8219
G02 X4.838 Y31.347 I-0.5788 J-0.6775
G02 X4.935 Y31.000 I-0.8196 J-0.4150
G02 X4.889 Y30.632 I-0.9436 J-0.0698
G02 X4.700 Y30.300 I-0.9240 J0.3073
G02 X4.389 Y30.060 I-0.7557 J0.6570
G02 X4.000 Y29.955 I-0.4573 J0.9217
G02 X3.590 Y30.009 I-0.0697 J1.0542
G02 X3.240 Y30.240 I0.4051 J0.9944
G02 X3.007 Y30.589 I0.7601 J0.7601
G02 X2.925 Y31.000 I0.9932 J0.4114
G02 X3.007 Y31.411 I1.0750 J0.0000
G02 X3.240 Y31.760 I0.9932 J-0.4114
G02 X3.589 Y31.993 I0.7601 J-0.7601
G02 X4.000 Y32.075 I0.4114 J-0.9932
G02 X4.411 Y31.993 I0.0000 J-1.0750
G02 X4.760 Y31.760 I-0.4114 J-0.9932
G02 X4.993 Y31.411 I-0.7601 J-0.7601
G02 X5.075 Y31.000 I-0.9932 J-0.4114
G02 X3.463 Y30.069 I-1.0750 J0.0000
G02 Y31.931 I0.5375 J0.9310
G02 X5.075 Y31.000 I0.5375 J-0.9310
G02 X3.505 I-0.7850 J0.0000
G02 X4.495 I0.4950 J0.0000
G02 X3.753 Y30.571 Z-1.333 I-0.4950 J0.0000 F120
G02 Y31.429 Z-1.467 I0.2475 J0.4287
G02 X4.495 Y31.000 Z-1.600 I0.2475 J-0.4287
G02 X3.753 Y30.571 I-0.4950 J0.0000
G02 Y31.429 I0.2475 J0.4287
G02 X4.495 Y31.000 I0.2475 J-0.4287
G02 X4.483 Y30.800 I-0.4994 J-0.0697 F400
G02 X4.389 Y30.611 I-0.5139 J0.1374
G02 X4.221 Y30.466 I-0.4419 J0.3433
G02 X4.000 Y30.395 I-0.2876 J0.5120
G02 X3.758 Y30.416 I-0.0698 J0.6110
G02 X3.533 Y30.533 I0.1800 J0.6169
G02 X3.365 Y30.737 I0.4220 J0.5207
G02 X3.285 Y31.000 I0.6148 J0.3302
G02 X3.314 Y31.284 I0.7221 J0.0698
G02 X3.456 Y31.544 I0.7195 J-0.2225
G02 X3.695 Y31.737 I0.5992 J-0.5005
G02 X4.000 Y31.825 I0.3727 J-0.7173
G02 X4.326 Y31.788 I0.0698 J-0.8330
G02 X4.622 Y31.622 I-0.2649 J-0.8219
G02 X4.838 Y31.347 I-0.5788 J-0.6775
G02 X4.935 Y31.000 I-0.8196 J-0.4150
G02 X4.889 Y30.632 I-0.9436 J-0.0698
G02 X4.700 Y30.300 I-0.9240 J0.3073
G02 X4.389 Y30.060 I-0.7557 J0.6570
G02 X4.000 Y29.955 I-0.4573 J0.9217
G02 X3.590 Y30.009 I-0.0697 J1.0542
G02 X3.240 Y30.240 I0.4051 J0.9944
G02 X3.007 Y30.589 I0.7601 J0.7601
G02 X2.925 Y31.000 I0.9932 J0.4114
G02 X3.007 Y31.411 I1.0750 J0.0000
G02 X3.240 Y31.760 I0.9932 J-0.4114
G02 X3.589 Y31.993 I0.7601 J-0.7601
G02 X4.000 Y32.075 I0.4114 J-0.9932
G02 X4.411 Y31.993 I0.0000 J-1.0750
G02 X4.760 Y31.760 I-0.4114 J-0.9932
G02 X4.993 Y31.411 I-0.7601 J-0.7601
G02 X5.075 Y31.000 I-0.9932 J-0.4114
G02 X3.463 Y30.069 I-1.0750 J0.0000
G02 Y31.931 I0.5375 J0.9310
G02 X5.075 Y31.000 I0.5375 J-0.9310
G02 X3.505 I-0.7850 J0.0000
G02 X4.495 I0.4950 J0.0000
G02 X3.753 Y30.571 Z-1.733 I-0.4950 J0.0000 F120
G02 Y31.429 Z-1.867 I0.2475 J0.4287
G02 X4.495 Y31.000 Z-2.000 I0.2475 J-0.4287
G02 X3.753 Y30.571 I-0.4950 J0.0000
G02 Y31.429 I0.2475 J0.4287
G02 X4.495 Y31.000 I0.2475 J-0.4287
G02 X4.483 Y30.800 I-0.4994 J-0.0697 F400
G02 X4.389 Y30.611 I-0.5139 J0.1374
G02 X4.221 Y30.466 I-0.4419 J0.3433
G02 X4.000 Y30.395 I-0.2876 J0.5120
G02 X3.758 Y30.416 I-0.0698 J0.6110
G02 X3.533 Y30.533 I0.1800 J0.6169
G02 X3.365 Y30.737 I0.4220 J0.5207
G02 X3.285 Y31.000 I0.6148 J0.3302
G02 X3.314 Y31.284 I0.7221 J0.0698
G02 X3.456 Y31.544 I0.7195 J-0.2225
G02 X3.695 Y31.737 I0.5992 J-0.5005
G02 X4.000 Y31.825 I0.3727 J-0.7173
G02 X4.326 Y31.788 I0.0698 J-0.8330
G02 X4.622 Y31.622 I-0.2649 J-0.8219
G02 X4.838 Y31.347 I-0.5788 J-0.6775
G02 X4.935 Y31.000 I-0.8196 J-0.4150
G02 X4.889 Y30.632 I-0.9436 J-0.0698
G02 X4.700 Y30.300 I-0.9240 J0.3073
G02 X4.389 Y30.060 I-0.7557 J0.6570
G02 X4.000 Y29.955 I-0.4573 J0.9217
G02 X3.590 Y30.009 I-0.0697 J1.0542
G02 X3.240 Y30.240 I0.4051 J0.9944
G02 X3.007 Y30.589 I0.7601 J0.7601
G02 X2.925 Y31.000 I0.9932 J0.4114
G02 X3.007 Y31.411 I1.0750 J0.0000
G02 X3.240 Y31.760 I0.9932 J-0.4114
G02 X3.589 Y31.993 I0.7601 J-0.7601
G02 X4.000 Y32.075 I0.4114 J-0.9932
G02 X4.411 Y31.993 I0.0000 J-1.0750
G02 X4.760 Y31.760 I-0.4114 J-0.9932
G02 X4.993 Y31.411 I-0.7601 J-0.7601
G02 X5.075 Y31.000 I-0.9932 J-0.4114
G02 X3.463 Y30.069 I-1.0750 J0.0000
G02 Y31.931 I0.5375 J0.9310
G02 X5.075 Y31.000 I0.5375 J-0.9310
G02 X3.505 I-0.7850 J0.0000
G02 X4.495 I0.4950 J0.0000
G02 X3.753 Y30.571 Z-2.133 I-0.4950 J0.0000 F120
G02 Y31.429 Z-2.267 I0.2475 J0.4287
G02 X4.495 Y31.000 Z-2.400 I0.2475 J-0.4287
G02 X3.753 Y30.571 I-0.4950 J0.0000
G02 Y31.429 I0.2475 J0.4287
G02 X4.495 Y31.000 I0.2475 J-0.4287
G02 X4.483 Y30.800 I-0.4994 J-0.0697 F400
G02 X4.389 Y30.611 I-0.5139 J0.1374
G02 X4.221 Y30.466 I-0.4419 J0.3433
G02 X4.000 Y30.395 I-0.2876 J0.5120
G02 X3.758 Y30.416 I-0.0698 J0.6110
G02 X3.533 Y30.533 I0.1800 J0.6169
G02 X3.365 Y30.737 I0.4220 J0.5207
G02 X3.285 Y31.000 I0.6148 J0.3302
G02 X3.314 Y31.284 I0.7221 J0.0698
G02 X3.456 Y31.544 I0.7195 J-0.2225
G02 X3.695 Y31.737 I0.5992 J-0.5005
G02 X4.000 Y31.825 I0.3727 J-0.7173
G02 X4.326 Y31.788 I0.0698 J-0.8330
G02 X4.622 Y31.622 I-0.2649 J-0.8219
G02 X4.838 Y31.347 I-0.5788 J-0.6775
G02 X4.935 Y31.000 I-0.8196 J-0.4150
G02 X4.889 Y30.632 I-0.9436 J-0.0698
G02 X4.700 Y30.300 I-0.9240 J0.3073
G02 X4.389 Y30.060 I-0.7557 J0.6570
G02 X4.000 Y29.955 I-0.4573 J0.9217
G02 X3.590 Y30.009 I-0.0697 J1.0542
G02 X3.240 Y30.240 I0.4051 J0.9944
G02 X3.007 Y30.589 I0.7601 J0.7601
G02 X2.925 Y31.000 I0.9932 J0.4114
G02 X3.007 Y31.411 I1.0750 J0.0000
G02 X3.240 Y31.760 I0.9932 J-0.4114
G02 X3.589 Y31.993 I0.7601 J-0.7601
G02 X4.000 Y32.075 I0.4114 J-0.9932
G02 X4.411 Y31.993 I0.0000 J-1.0750
G02 X4.760 Y31.760 I-0.4114 J-0.9932
G02 X4.993 Y31.411 I-0.7601 J-0.7601
G02 X5.075 Y31.000 I-0.9932 J-0.4114
G02 X3.463 Y30.069 I-1.0750 J0.0000
G02 Y31.931 I0.5375 J0.9310
G02 X5.075 Y31.000 I0.5375 J-0.9310
G02 X3.505 I-0.7850 J0.0000
G02 X4.495 I0.4950 J0.0000
G02 X3.753 Y30.571 Z-2.533 I-0.4950 J0.0000 F120
G02 Y31.429 Z-2.667 I0.2475 J0.4287
G02 X4.495 Y31.000 Z-2.800 I0.2475 J-0.4287
G02 X3.753 Y30.571 I-0.4950 J0.0000
G02 Y31.429 I0.2475 J0.4287
G02 X4.495 Y31.000 I0.2475 J-0.4287
G02 X4.483 Y30.800 I-0.4994 J-0.0697 F400
G02 X4.389 Y30.611 I-0.5139 J0.1374
G02 X4.221 Y30.466 I-0.4419 J0.3433
G02 X4.000 Y30.395 I-0.2876 J0.5120
G02 X3.758 Y30.416 I-0.0698 J0.6110
G02 X3.533 Y30.533 I0.1800 J0.6169
G02 X3.365 Y30.737 I0.4220 J0.5207
G02 X3.285 Y31.000 I0.6148 J0.3302
G02 X3.314 Y31.284 I0.7221 J0.0698
G02 X3.456 Y31.544 I0.7195 J-0.2225
G02 X3.695 Y31.737 I0.5992 J-0.5005
G02 X4.000 Y31.825 I0.3727 J-0.7173
G02 X4.326 Y31.788 I0.0698 J-0.8330
G02 X4.622 Y31.622 I-0.2649 J-0.8219
G02 X4.838 Y31.347 I-0.5788 J-0.6775
G02 X4.935 Y31.000 I-0.8196 J-0.4150
G02 X4.889 Y30.632 I-0.9436 J-0.0698
G02 X4.700 Y30.300 I-0.9240 J0.3073
G02 X4.389 Y30.060 I-0.7557 J0.6570
G02 X4.000 Y29.955 I-0.4573 J0.9217
G02 X3.590 Y30.009 I-0.0697 J1.0542
G02 X3.240 Y30.240 I0.4051 J0.9944
G02 X3.007 Y30.589 I0.7601 J0.7601
G02 X2.925 Y31.000 I0.9932 J0.4114
G02 X3.007 Y31.411 I1.0750 J0.0000
G02 X3.240 Y31.760 I0.9932 J-0.4114
G02 X3.589 Y31.993 I0.7601 J-0.7601
G02 X4.000 Y32.075 I0.4114 J-0.9932
G02 X4.411 Y31.993 I0.0000 J-1.0750
G02 X4.760 Y31.760 I-0.4114 J-0.9932
G02 X4.993 Y31.411 I-0.7601 J-0.7601
G02 X5.075 Y31.000 I-0.9932 J-0.4114
G02 X3.463 Y30.069 I-1.0750 J0.0000
G02 Y31.931 I0.5375 J0.9310
G02 X5.075 Y31.000 I0.5375 J-0.9310
G02 X3.505 I-0.7850 J0.0000
G02 X4.495 I0.4950 J0.0000
G02 X3.753 Y30.571 Z-2.933 I-0.4950 J0.0000 F120
G02 Y31.429 Z-3.067 I0.2475 J0.4287
G02 X4.495 Y31.000 Z-3.200 I0.2475 J-0.4287
G02 X3.753 Y30.571 I-0.4950 J0.0000
G02 Y31.429 I0.2475 J0.4287
G02 X4.495 Y31.000 I0.2475 J-0.4287
G02 X4.483 Y30.800 I-0.4994 J-0.0697 F400
G02 X4.389 Y30.611 I-0.5139 J0.1374
G02 X4.221 Y30.466 I-0.4419 J0.3433
G02 X4.000 Y30.395 I-0.2876 J0.5120
G02 X3.758 Y30.416 I-0.0698 J0.6110
G02 X3.533 Y30.533 I0.1800 J0.6169
G02 X3.365 Y30.737 I0.4220 J0.5207
G02 X3.285 Y31.000 I0.6148 J0.3302
G02 X3.314 Y31.284 I0.7221 J0.0698
G02 X3.456 Y31.544 I0.7195 J-0.2225
G02 X3.695 Y31.737 I0.5992 J-0.5005
G02 X4.000 Y31.825 I0.3727 J-0.7173
G02 X4.326 Y31.788 I0.0698 J-0.8330
G02 X4.622 Y31.622 I-0.2649 J-0.8219
G02 X4.838 Y31.347 I-0.5788 J-0.6775
G02 X4.935 Y31.000 I-0.8196 J-0.4150
G02 X4.889 Y30.632 I-0.9436 J-0.0698
G02 X4.700 Y30.300 I-0.9240 J0.3073
G02 X4.389 Y30.060 I-0.7557 J0.6570
G02 X4.000 Y29.955 I-0.4573 J0.9217
G02 X3.590 Y30.009 I-0.0697 J1.0542
G02 X3.240 Y30.240 I0.4051 J0.9944
G02 X3.007 Y30.589 I0.7601 J0.7601
G02 X2.925 Y31.000 I0.9932 J0.4114
G02 X3.007 Y31.411 I1.0750 J0.0000
G02 X3.240 Y31.760 I0.9932 J-0.4114
G02 X3.589 Y31.993 I0.7601 J-0.7601
G02 X4.000 Y32.075 I0.4114 J-0.9932
G02 X4.411 Y31.993 I0.0000 J-1.0750
G02 X4.760 Y31.760 I-0.4114 J-0.9932
G02 X4.993 Y31.411 I-0.7601 J-0.7601
G02 X5.075 Y31.000 I-0.9932 J-0.4114
G02 X3.463 Y30.069 I-1.0750 J0.0000
G02 Y31.931 I0.5375 J0.9310
G02 X5.075 Y31.000 I0.5375 J-0.9310
G02 X3.505 I-0.7850 J0.0000
G02 X4.495 I0.4950 J0.0000
G02 X3.753 Y30.571 Z-3.300 I-0.4950 J0.0000 F120
G02 Y31.429 Z-3.400 I0.2475 J0.4287
G02 X4.495 Y31.000 Z-3.500 I0.2475 J-0.4287
G02 X3.753 Y30.571 I-0.4950 J0.0000
G02 Y31.429 I0.2475 J0.4287
G02 X4.495 Y31.000 I0.2475 J-0.4287
G02 X4.483 Y30.800 I-0.4994 J-0.0697 F400
G02 X4.389 Y30.611 I-0.5139 J0.1374
G02 X4.221 Y30.466 I-0.4419 J0.3433
G02 X4.000 Y30.395 I-0.2876 J0.5120
G02 X3.758 Y30.416 I-0.0698 J0.6110
G02 X3.533 Y30.533 I0.1800 J0.6169
G02 X3.365 Y30.737 I0.4220 J0.5207
G02 X3.285 Y31.000 I0.6148 J0.3302
G02 X3.314 Y31.284 I0.7221 J0.0698
G02 X3.456 Y31.544 I0.7195 J-0.2225
G02 X3.695 Y31.737 I0.5992 J-0.5005
G02 X4.000 Y31.825 I0.3727 J-0.7173
G02 X4.326 Y31.788 I0.0698 J-0.8330
G02 X4.622 Y31.622 I-0.2649 J-0.8219
G02 X4.838 Y31.347 I-0.5788 J-0.6775
G02 X4.935 Y31.000 I-0.8196 J-0.4150
G02 X4.889 Y30.632 I-0.9436 J-0.0698
G02 X4.700 Y30.300 I-0.9240 J0.3073
G02 X4.389 Y30.060 I-0.7557 J0.6570
G02 X4.000 Y29.955 I-0.4573 J0.9217
G02 X3.590 Y30.009 I-0.0697 J1.0542
G02 X3.240 Y30.240 I0.4051 J0.9944
G02 X3.007 Y30.589 I0.7601 J0.7601
G02 X2.925 Y31.000 I0.9932 J0.4114
G02 X3.007 Y31.411 I1.0750 J0.0000
G02 X3.240 Y31.760 I0.9932 J-0.4114
G02 X3.589 Y31.993 I0.7601 J-0.7601
G02 X4.000 Y32.075 I0.4114 J-0.9932
G02 X4.411 Y31.993 I0.0000 J-1.0750
G02 X4.760 Y31.760 I-0.4114 J-0.9932
G02 X4.993 Y31.411 I-0.7601 J-0.7601
G02 X5.075 Y31.000 I-0.9932 J-0.4114
G02 X3.463 Y30.069 I-1.0750 J0.0000
G02 Y31.931 I0.5375 J0.9310
G02 X5.075 Y31.000 I0.5375 J-0.9310
G02 X4.525 Y30.450 Z-3.000 I-0.5500 J0.0000 F120
G00 Z20.000


(No. 4 Helical drill: Helical drill 4)
G00 X33.995 Y31.000 Z20.000
G00 Z0.500
G02 X33.252 Y30.571 Z0.367 I-0.4950 J0.0000 F120
G02 Y31.429 Z0.233 I0.2475 J0.4287
G02 X33.995 Y31.000 Z0.100 I0.2475 J-0.4287
G02 X33.252 Y30.571 Z0.067 I-0.4950 J0.0000
G02 Y31.429 Z0.033 I0.2475 J0.4287
G02 X33.995 Y31.000 Z0.000 I0.2475 J-0.4287
G02 X33.252 Y30.571 I-0.4950 J0.0000
G02 Y31.429 I0.2475 J0.4287
G02 X33.995 Y31.000 I0.2475 J-0.4287
G02 X33.252 Y30.571 Z-0.133 I-0.4950 J0.0000
G02 Y31.429 Z-0.267 I0.2475 J0.4287
G02 X33.995 Y31.000 Z-0.400 I0.2475 J-0.4287
G02 X33.252 Y30.571 I-0.4950 J0.0000
G02 Y31.429 I0.2475 J0.4287
G02 X33.995 Y31.000 I0.2475 J-0.4287
G02 X33.983 Y30.800 I-0.4994 J-0.0697 F400
G02 X33.889 Y30.611 I-0.5139 J0.1374
G02 X33.721 Y30.466 I-0.4419 J0.3433
G02 X33.500 Y30.395 I-0.2876 J0.5120
G02 X33.258 Y30.416 I-0.0698 J0.6110
G02 X33.033 Y30.533 I0.1800 J0.6169
G02 X32.865 Y30.737 I0.4220 J0.5207
G02 X32.785 Y31.000 I0.6148 J0.3302
G02 X32.814 Y31.284 I0.7221 J0.0698
G02 X32.956 Y31.544 I0.7195 J-0.2225
G02 X33.195 Y31.737 I0.5992 J-0.5005
G02 X33.500 Y31.825 I0.3727 J-0.7173
G02 X33.826 Y31.788 I0.0698 J-0.8330
G02 X34.122 Y31.622 I-0.2649 J-0.8219
G02 X34.338 Y31.347 I-0.5788 J-0.6775
G02 X34.435 Y31.000 I-0.8196 J-0.4150
G02 X34.389 Y30.632 I-0.9436 J-0.0698
G02 X34.200 Y30.300 I-0.9240 J0.3073
G02 X33.889 Y30.060 I-0.7557 J0.6570
G02 X33.500 Y29.955 I-0.4573 J0.9217
G02 X33.090 Y30.009 I-0.0697 J1.0542
G02 X32.740 Y30.240 I0.4051 J0.9944
G02 X32.507 Y30.589 I0.7601 J0.7601
G02 X32.425 Y31.000 I0.9932 J0.4114
G02 X32.507 Y31.411 I1.0750 J0.0000
G02 X32.740 Y31.760 I0.9932 J-0.4114
G02 X33.089 Y31.993 I0.7601 J-0.7601
G02 X33.500 Y32.075 I0.4114 J-0.9932
G02 X33.911 Y31.993 I0.0000 J-1.0750
G02 X34.260 Y31.760 I-0.4114 J-0.9932
G02 X34.493 Y31.411 I-0.7601 J-0.7601
G02 X34.575 Y31.000 I-0.9932 J-0.4114
G02 X32.962 Y30.069 I-1.0750 J0.0000
G02 Y31.931 I0.5375 J0.9310
G02 X34.575 Y31.000 I0.5375 J-0.9310
G02 X33.005 I-0.7850 J0.0000
G02 X33.995 I0.4950 J0.0000
G02 X33.252 Y30.571 Z-0.533 I-0.4950 J0.0000 F120
G02 Y31.429 Z-0.667 I0.2475 J0.4287
G02 X33.995 Y31.000 Z-0.800 I0.2475 J-0.4287
G02 X33.252 Y30.571 I-0.4950 J0.0000
G02 Y31.429 I0.2475 J0.4287
G02 X33.995 Y31.000 I0.2475 J-0.4287
G02 X33.983 Y30.800 I-0.4994 J-0.0697 F400
G02 X33.889 Y30.611 I-0.5139 J0.1374
G02 X33.721 Y30.466 I-0.4419 J0.3433
G02 X33.500 Y30.395 I-0.2876 J0.5120
G02 X33.258 Y30.416 I-0.0698 J0.6110
G02 X33.033 Y30.533 I0.1800 J0.6169
G02 X32.865 Y30.737 I0.4220 J0.5207
G02 X32.785 Y31.000 I0.6148 J0.3302
G02 X32.814 Y31.284 I0.7221 J0.0698
G02 X32.956 Y31.544 I0.7195 J-0.2225
G02 X33.195 Y31.737 I0.5992 J-0.5005
G02 X33.500 Y31.825 I0.3727 J-0.7173
G02 X33.826 Y31.788 I0.0698 J-0.8330
G02 X34.122 Y31.622 I-0.2649 J-0.8219
G02 X34.338 Y31.347 I-0.5788 J-0.6775
G02 X34.435 Y31.000 I-0.8196 J-0.4150
G02 X34.389 Y30.632 I-0.9436 J-0.0698
G02 X34.200 Y30.300 I-0.9240 J0.3073
G02 X33.889 Y30.060 I-0.7557 J0.6570
G02 X33.500 Y29.955 I-0.4573 J0.9217
G02 X33.090 Y30.009 I-0.0697 J1.0542
G02 X32.740 Y30.240 I0.4051 J0.9944
G02 X32.507 Y30.589 I0.7601 J0.7601
G02 X32.425 Y31.000 I0.9932 J0.4114
G02 X32.507 Y31.411 I1.0750 J0.0000
G02 X32.740 Y31.760 I0.9932 J-0.4114
G02 X33.089 Y31.993 I0.7601 J-0.7601
G02 X33.500 Y32.075 I0.4114 J-0.9932
G02 X33.911 Y31.993 I0.0000 J-1.0750
G02 X34.260 Y31.760 I-0.4114 J-0.9932
G02 X34.493 Y31.411 I-0.7601 J-0.7601
G02 X34.575 Y31.000 I-0.9932 J-0.4114
G02 X32.962 Y30.069 I-1.0750 J0.0000
G02 Y31.931 I0.5375 J0.9310
G02 X34.575 Y31.000 I0.5375 J-0.9310
G02 X33.005 I-0.7850 J0.0000
G02 X33.995 I0.4950 J0.0000
G02 X33.252 Y30.571 Z-0.933 I-0.4950 J0.0000 F120
G02 Y31.429 Z-1.067 I0.2475 J0.4287
G02 X33.995 Y31.000 Z-1.200 I0.2475 J-0.4287
G02 X33.252 Y30.571 I-0.4950 J0.0000
G02 Y31.429 I0.2475 J0.4287
G02 X33.995 Y31.000 I0.2475 J-0.4287
G02 X33.983 Y30.800 I-0.4994 J-0.0697 F400
G02 X33.889 Y30.611 I-0.5139 J0.1374
G02 X33.721 Y30.466 I-0.4419 J0.3433
G02 X33.500 Y30.395 I-0.2876 J0.5120
G02 X33.258 Y30.416 I-0.0698 J0.6110
G02 X33.033 Y30.533 I0.1800 J0.6169
G02 X32.865 Y30.737 I0.4220 J0.5207
G02 X32.785 Y31.000 I0.6148 J0.3302
G02 X32.814 Y31.284 I0.7221 J0.0698
G02 X32.956 Y31.544 I0.7195 J-0.2225
G02 X33.195 Y31.737 I0.5992 J-0.5005
G02 X33.500 Y31.825 I0.3727 J-0.7173
G02 X33.826 Y31.788 I0.0698 J-0.8330
G02 X34.122 Y31.622 I-0.2649 J-0.8219
G02 X34.338 Y31.347 I-0.5788 J-0.6775
G02 X34.435 Y31.000 I-0.8196 J-0.4150
G02 X34.389 Y30.632 I-0.9436 J-0.0698
G02 X34.200 Y30.300 I-0.9240 J0.3073
G02 X33.889 Y30.060 I-0.7557 J0.6570
G02 X33.500 Y29.955 I-0.4573 J0.9217
G02 X33.090 Y30.009 I-0.0697 J1.0542
G02 X32.740 Y30.240 I0.4051 J0.9944
G02 X32.507 Y30.589 I0.7601 J0.7601
G02 X32.425 Y31.000 I0.9932 J0.4114
G02 X32.507 Y31.411 I1.0750 J0.0000
G02 X32.740 Y31.760 I0.9932 J-0.4114
G02 X33.089 Y31.993 I0.7601 J-0.7601
G02 X33.500 Y32.075 I0.4114 J-0.9932
G02 X33.911 Y31.993 I0.0000 J-1.0750
G02 X34.260 Y31.760 I-0.4114 J-0.9932
G02 X34.493 Y31.411 I-0.7601 J-0.7601
G02 X34.575 Y31.000 I-0.9932 J-0.4114
G02 X32.962 Y30.069 I-1.0750 J0.0000
G02 Y31.931 I0.5375 J0.9310
G02 X34.575 Y31.000 I0.5375 J-0.9310
G02 X33.005 I-0.7850 J0.0000
G02 X33.995 I0.4950 J0.0000
G02 X33.252 Y30.571 Z-1.333 I-0.4950 J0.0000 F120
G02 Y31.429 Z-1.467 I0.2475 J0.4287
G02 X33.995 Y31.000 Z-1.600 I0.2475 J-0.4287
G02 X33.252 Y30.571 I-0.4950 J0.0000
G02 Y31.429 I0.2475 J0.4287
G02 X33.995 Y31.000 I0.2475 J-0.4287
G02 X33.983 Y30.800 I-0.4994 J-0.0697 F400
G02 X33.889 Y30.611 I-0.5139 J0.1374
G02 X33.721 Y30.466 I-0.4419 J0.3433
G02 X33.500 Y30.395 I-0.2876 J0.5120
G02 X33.258 Y30.416 I-0.0698 J0.6110
G02 X33.033 Y30.533 I0.1800 J0.6169
G02 X32.865 Y30.737 I0.4220 J0.5207
G02 X32.785 Y31.000 I0.6148 J0.3302
G02 X32.814 Y31.284 I0.7221 J0.0698
G02 X32.956 Y31.544 I0.7195 J-0.2225
G02 X33.195 Y31.737 I0.5992 J-0.5005
G02 X33.500 Y31.825 I0.3727 J-0.7173
G02 X33.826 Y31.788 I0.0698 J-0.8330
G02 X34.122 Y31.622 I-0.2649 J-0.8219
G02 X34.338 Y31.347 I-0.5788 J-0.6775
G02 X34.435 Y31.000 I-0.8196 J-0.4150
G02 X34.389 Y30.632 I-0.9436 J-0.0698
G02 X34.200 Y30.300 I-0.9240 J0.3073
G02 X33.889 Y30.060 I-0.7557 J0.6570
G02 X33.500 Y29.955 I-0.4573 J0.9217
G02 X33.090 Y30.009 I-0.0697 J1.0542
G02 X32.740 Y30.240 I0.4051 J0.9944
G02 X32.507 Y30.589 I0.7601 J0.7601
G02 X32.425 Y31.000 I0.9932 J0.4114
G02 X32.507 Y31.411 I1.0750 J0.0000
G02 X32.740 Y31.760 I0.9932 J-0.4114
G02 X33.089 Y31.993 I0.7601 J-0.7601
G02 X33.500 Y32.075 I0.4114 J-0.9932
G02 X33.911 Y31.993 I0.0000 J-1.0750
G02 X34.260 Y31.760 I-0.4114 J-0.9932
G02 X34.493 Y31.411 I-0.7601 J-0.7601
G02 X34.575 Y31.000 I-0.9932 J-0.4114
G02 X32.962 Y30.069 I-1.0750 J0.0000
G02 Y31.931 I0.5375 J0.9310
G02 X34.575 Y31.000 I0.5375 J-0.9310
G02 X33.005 I-0.7850 J0.0000
G02 X33.995 I0.4950 J0.0000
G02 X33.252 Y30.571 Z-1.733 I-0.4950 J0.0000 F120
G02 Y31.429 Z-1.867 I0.2475 J0.4287
G02 X33.995 Y31.000 Z-2.000 I0.2475 J-0.4287
G02 X33.252 Y30.571 I-0.4950 J0.0000
G02 Y31.429 I0.2475 J0.4287
G02 X33.995 Y31.000 I0.2475 J-0.4287
G02 X33.983 Y30.800 I-0.4994 J-0.0697 F400
G02 X33.889 Y30.611 I-0.5139 J0.1374
G02 X33.721 Y30.466 I-0.4419 J0.3433
G02 X33.500 Y30.395 I-0.2876 J0.5120
G02 X33.258 Y30.416 I-0.0698 J0.6110
G02 X33.033 Y30.533 I0.1800 J0.6169
G02 X32.865 Y30.737 I0.4220 J0.5207
G02 X32.785 Y31.000 I0.6148 J0.3302
G02 X32.814 Y31.284 I0.7221 J0.0698
G02 X32.956 Y31.544 I0.7195 J-0.2225
G02 X33.195 Y31.737 I0.5992 J-0.5005
G02 X33.500 Y31.825 I0.3727 J-0.7173
G02 X33.826 Y31.788 I0.0698 J-0.8330
G02 X34.122 Y31.622 I-0.2649 J-0.8219
G02 X34.338 Y31.347 I-0.5788 J-0.6775
G02 X34.435 Y31.000 I-0.8196 J-0.4150
G02 X34.389 Y30.632 I-0.9436 J-0.0698
G02 X34.200 Y30.300 I-0.9240 J0.3073
G02 X33.889 Y30.060 I-0.7557 J0.6570
G02 X33.500 Y29.955 I-0.4573 J0.9217
G02 X33.090 Y30.009 I-0.0697 J1.0542
G02 X32.740 Y30.240 I0.4051 J0.9944
G02 X32.507 Y30.589 I0.7601 J0.7601
G02 X32.425 Y31.000 I0.9932 J0.4114
G02 X32.507 Y31.411 I1.0750 J0.0000
G02 X32.740 Y31.760 I0.9932 J-0.4114
G02 X33.089 Y31.993 I0.7601 J-0.7601
G02 X33.500 Y32.075 I0.4114 J-0.9932
G02 X33.911 Y31.993 I0.0000 J-1.0750
G02 X34.260 Y31.760 I-0.4114 J-0.9932
G02 X34.493 Y31.411 I-0.7601 J-0.7601
G02 X34.575 Y31.000 I-0.9932 J-0.4114
G02 X32.962 Y30.069 I-1.0750 J0.0000
G02 Y31.931 I0.5375 J0.9310
G02 X34.575 Y31.000 I0.5375 J-0.9310
G02 X33.005 I-0.7850 J0.0000
G02 X33.995 I0.4950 J0.0000
G02 X33.252 Y30.571 Z-2.133 I-0.4950 J0.0000 F120
G02 Y31.429 Z-2.267 I0.2475 J0.4287
G02 X33.995 Y31.000 Z-2.400 I0.2475 J-0.4287
G02 X33.252 Y30.571 I-0.4950 J0.0000
G02 Y31.429 I0.2475 J0.4287
G02 X33.995 Y31.000 I0.2475 J-0.4287
G02 X33.983 Y30.800 I-0.4994 J-0.0697 F400
G02 X33.889 Y30.611 I-0.5139 J0.1374
G02 X33.721 Y30.466 I-0.4419 J0.3433
G02 X33.500 Y30.395 I-0.2876 J0.5120
G02 X33.258 Y30.416 I-0.0698 J0.6110
G02 X33.033 Y30.533 I0.1800 J0.6169
G02 X32.865 Y30.737 I0.4220 J0.5207
G02 X32.785 Y31.000 I0.6148 J0.3302
G02 X32.814 Y31.284 I0.7221 J0.0698
G02 X32.956 Y31.544 I0.7195 J-0.2225
G02 X33.195 Y31.737 I0.5992 J-0.5005
G02 X33.500 Y31.825 I0.3727 J-0.7173
G02 X33.826 Y31.788 I0.0698 J-0.8330
G02 X34.122 Y31.622 I-0.2649 J-0.8219
G02 X34.338 Y31.347 I-0.5788 J-0.6775
G02 X34.435 Y31.000 I-0.8196 J-0.4150
G02 X34.389 Y30.632 I-0.9436 J-0.0698
G02 X34.200 Y30.300 I-0.9240 J0.3073
G02 X33.889 Y30.060 I-0.7557 J0.6570
G02 X33.500 Y29.955 I-0.4573 J0.9217
G02 X33.090 Y30.009 I-0.0697 J1.0542
G02 X32.740 Y30.240 I0.4051 J0.9944
G02 X32.507 Y30.589 I0.7601 J0.7601
G02 X32.425 Y31.000 I0.9932 J0.4114
G02 X32.507 Y31.411 I1.0750 J0.0000
G02 X32.740 Y31.760 I0.9932 J-0.4114
G02 X33.089 Y31.993 I0.7601 J-0.7601
G02 X33.500 Y32.075 I0.4114 J-0.9932
G02 X33.911 Y31.993 I0.0000 J-1.0750
G02 X34.260 Y31.760 I-0.4114 J-0.9932
G02 X34.493 Y31.411 I-0.7601 J-0.7601
G02 X34.575 Y31.000 I-0.9932 J-0.4114
G02 X32.962 Y30.069 I-1.0750 J0.0000
G02 Y31.931 I0.5375 J0.9310
G02 X34.575 Y31.000 I0.5375 J-0.9310
G02 X33.005 I-0.7850 J0.0000
G02 X33.995 I0.4950 J0.0000
G02 X33.252 Y30.571 Z-2.533 I-0.4950 J0.0000 F120
G02 Y31.429 Z-2.667 I0.2475 J0.4287
G02 X33.995 Y31.000 Z-2.800 I0.2475 J-0.4287
G02 X33.252 Y30.571 I-0.4950 J0.0000
G02 Y31.429 I0.2475 J0.4287
G02 X33.995 Y31.000 I0.2475 J-0.4287
G02 X33.983 Y30.800 I-0.4994 J-0.0697 F400
G02 X33.889 Y30.611 I-0.5139 J0.1374
G02 X33.721 Y30.466 I-0.4419 J0.3433
G02 X33.500 Y30.395 I-0.2876 J0.5120
G02 X33.258 Y30.416 I-0.0698 J0.6110
G02 X33.033 Y30.533 I0.1800 J0.6169
G02 X32.865 Y30.737 I0.4220 J0.5207
G02 X32.785 Y31.000 I0.6148 J0.3302
G02 X32.814 Y31.284 I0.7221 J0.0698
G02 X32.956 Y31.544 I0.7195 J-0.2225
G02 X33.195 Y31.737 I0.5992 J-0.5005
G02 X33.500 Y31.825 I0.3727 J-0.7173
G02 X33.826 Y31.788 I0.0698 J-0.8330
G02 X34.122 Y31.622 I-0.2649 J-0.8219
G02 X34.338 Y31.347 I-0.5788 J-0.6775
G02 X34.435 Y31.000 I-0.8196 J-0.4150
G02 X34.389 Y30.632 I-0.9436 J-0.0698
G02 X34.200 Y30.300 I-0.9240 J0.3073
G02 X33.889 Y30.060 I-0.7557 J0.6570
G02 X33.500 Y29.955 I-0.4573 J0.9217
G02 X33.090 Y30.009 I-0.0697 J1.0542
G02 X32.740 Y30.240 I0.4051 J0.9944
G02 X32.507 Y30.589 I0.7601 J0.7601
G02 X32.425 Y31.000 I0.9932 J0.4114
G02 X32.507 Y31.411 I1.0750 J0.0000
G02 X32.740 Y31.760 I0.9932 J-0.4114
G02 X33.089 Y31.993 I0.7601 J-0.7601
G02 X33.500 Y32.075 I0.4114 J-0.9932
G02 X33.911 Y31.993 I0.0000 J-1.0750
G02 X34.260 Y31.760 I-0.4114 J-0.9932
G02 X34.493 Y31.411 I-0.7601 J-0.7601
G02 X34.575 Y31.000 I-0.9932 J-0.4114
G02 X32.962 Y30.069 I-1.0750 J0.0000
G02 Y31.931 I0.5375 J0.9310
G02 X34.575 Y31.000 I0.5375 J-0.9310
G02 X33.005 I-0.7850 J0.0000
G02 X33.995 I0.4950 J0.0000
G02 X33.252 Y30.571 Z-2.933 I-0.4950 J0.0000 F120
G02 Y31.429 Z-3.067 I0.2475 J0.4287
G02 X33.995 Y31.000 Z-3.200 I0.2475 J-0.4287
G02 X33.252 Y30.571 I-0.4950 J0.0000
G02 Y31.429 I0.2475 J0.4287
G02 X33.995 Y31.000 I0.2475 J-0.4287
G02 X33.983 Y30.800 I-0.4994 J-0.0697 F400
G02 X33.889 Y30.611 I-0.5139 J0.1374
G02 X33.721 Y30.466 I-0.4419 J0.3433
G02 X33.500 Y30.395 I-0.2876 J0.5120
G02 X33.258 Y30.416 I-0.0698 J0.6110
G02 X33.033 Y30.533 I0.1800 J0.6169
G02 X32.865 Y30.737 I0.4220 J0.5207
G02 X32.785 Y31.000 I0.6148 J0.3302
G02 X32.814 Y31.284 I0.7221 J0.0698
G02 X32.956 Y31.544 I0.7195 J-0.2225
G02 X33.195 Y31.737 I0.5992 J-0.5005
G02 X33.500 Y31.825 I0.3727 J-0.7173
G02 X33.826 Y31.788 I0.0698 J-0.8330
G02 X34.122 Y31.622 I-0.2649 J-0.8219
G02 X34.338 Y31.347 I-0.5788 J-0.6775
G02 X34.435 Y31.000 I-0.8196 J-0.4150
G02 X34.389 Y30.632 I-0.9436 J-0.0698
G02 X34.200 Y30.300 I-0.9240 J0.3073
G02 X33.889 Y30.060 I-0.7557 J0.6570
G02 X33.500 Y29.955 I-0.4573 J0.9217
G02 X33.090 Y30.009 I-0.0697 J1.0542
G02 X32.740 Y30.240 I0.4051 J0.9944
G02 X32.507 Y30.589 I0.7601 J0.7601
G02 X32.425 Y31.000 I0.9932 J0.4114
G02 X32.507 Y31.411 I1.0750 J0.0000
G02 X32.740 Y31.760 I0.9932 J-0.4114
G02 X33.089 Y31.993 I0.7601 J-0.7601
G02 X33.500 Y32.075 I0.4114 J-0.9932
G02 X33.911 Y31.993 I0.0000 J-1.0750
G02 X34.260 Y31.760 I-0.4114 J-0.9932
G02 X34.493 Y31.411 I-0.7601 J-0.7601
G02 X34.575 Y31.000 I-0.9932 J-0.4114
G02 X32.962 Y30.069 I-1.0750 J0.0000
G02 Y31.931 I0.5375 J0.9310
G02 X34.575 Y31.000 I0.5375 J-0.9310
G02 X33.005 I-0.7850 J0.0000
G02 X33.995 I0.4950 J0.0000
G02 X33.252 Y30.571 Z-3.300 I-0.4950 J0.0000 F120
G02 Y31.429 Z-3.400 I0.2475 J0.4287
G02 X33.995 Y31.000 Z-3.500 I0.2475 J-0.4287
G02 X33.252 Y30.571 I-0.4950 J0.0000
G02 Y31.429 I0.2475 J0.4287
G02 X33.995 Y31.000 I0.2475 J-0.4287
G02 X33.983 Y30.800 I-0.4994 J-0.0697 F400
G02 X33.889 Y30.611 I-0.5139 J0.1374
G02 X33.721 Y30.466 I-0.4419 J0.3433
G02 X33.500 Y30.395 I-0.2876 J0.5120
G02 X33.258 Y30.416 I-0.0698 J0.6110
G02 X33.033 Y30.533 I0.1800 J0.6169
G02 X32.865 Y30.737 I0.4220 J0.5207
G02 X32.785 Y31.000 I0.6148 J0.3302
G02 X32.814 Y31.284 I0.7221 J0.0698
G02 X32.956 Y31.544 I0.7195 J-0.2225
G02 X33.195 Y31.737 I0.5992 J-0.5005
G02 X33.500 Y31.825 I0.3727 J-0.7173
G02 X33.826 Y31.788 I0.0698 J-0.8330
G02 X34.122 Y31.622 I-0.2649 J-0.8219
G02 X34.338 Y31.347 I-0.5788 J-0.6775
G02 X34.435 Y31.000 I-0.8196 J-0.4150
G02 X34.389 Y30.632 I-0.9436 J-0.0698
G02 X34.200 Y30.300 I-0.9240 J0.3073
G02 X33.889 Y30.060 I-0.7557 J0.6570
G02 X33.500 Y29.955 I-0.4573 J0.9217
G02 X33.090 Y30.009 I-0.0697 J1.0542
G02 X32.740 Y30.240 I0.4051 J0.9944
G02 X32.507 Y30.589 I0.7601 J0.7601
G02 X32.425 Y31.000 I0.9932 J0.4114
G02 X32.507 Y31.411 I1.0750 J0.0000
G02 X32.740 Y31.760 I0.9932 J-0.4114
G02 X33.089 Y31.993 I0.7601 J-0.7601
G02 X33.500 Y32.075 I0.4114 J-0.9932
G02 X33.911 Y31.993 I0.0000 J-1.0750
G02 X34.260 Y31.760 I-0.4114 J-0.9932
G02 X34.493 Y31.411 I-0.7601 J-0.7601
G02 X34.575 Y31.000 I-0.9932 J-0.4114
G02 X32.962 Y30.069 I-1.0750 J0.0000
G02 Y31.931 I0.5375 J0.9310
G02 X34.575 Y31.000 I0.5375 J-0.9310
G02 X34.025 Y30.450 Z-3.000 I-0.5500 J0.0000 F120
G00 Z20.000


(No. 5 Helical drill: Helical drill 5)
G00 X33.995 Y4.000 Z20.000
G00 Z0.500
G02 X33.253 Y3.571 Z0.367 I-0.4950 J0.0000 F120
G02 Y4.429 Z0.233 I0.2475 J0.4287
G02 X33.995 Y4.000 Z0.100 I0.2475 J-0.4287
G02 X33.253 Y3.571 Z0.067 I-0.4950 J0.0000
G02 Y4.429 Z0.033 I0.2475 J0.4287
G02 X33.995 Y4.000 Z0.000 I0.2475 J-0.4287
G02 X33.253 Y3.571 I-0.4950 J0.0000
G02 Y4.429 I0.2475 J0.4287
G02 X33.995 Y4.000 I0.2475 J-0.4287
G02 X33.253 Y3.571 Z-0.133 I-0.4950 J0.0000
G02 Y4.429 Z-0.267 I0.2475 J0.4287
G02 X33.995 Y4.000 Z-0.400 I0.2475 J-0.4287
G02 X33.253 Y3.571 I-0.4950 J0.0000
G02 Y4.429 I0.2475 J0.4287
G02 X33.995 Y4.000 I0.2475 J-0.4287
G02 X33.983 Y3.800 I-0.4994 J-0.0697 F400
G02 X33.889 Y3.611 I-0.5139 J0.1374
G02 X33.721 Y3.466 I-0.4419 J0.3433
G02 X33.500 Y3.395 I-0.2876 J0.5120
G02 X33.258 Y3.416 I-0.0698 J0.6110
G02 X33.033 Y3.533 I0.1800 J0.6169
G02 X32.865 Y3.737 I0.4220 J0.5207
G02 X32.785 Y4.000 I0.6148 J0.3302
G02 X32.814 Y4.284 I0.7221 J0.0698
G02 X32.956 Y4.544 I0.7195 J-0.2225
G02 X33.195 Y4.737 I0.5992 J-0.5005
G02 X33.500 Y4.825 I0.3727 J-0.7173
G02 X33.826 Y4.788 I0.0698 J-0.8330
G02 X34.122 Y4.622 I-0.2649 J-0.8219
G02 X34.338 Y4.347 I-0.5788 J-0.6775
G02 X34.435 Y4.000 I-0.8196 J-0.4150
G02 X34.389 Y3.632 I-0.9436 J-0.0698
G02 X34.200 Y3.300 I-0.9240 J0.3073
G02 X33.889 Y3.060 I-0.7557 J0.6570
G02 X33.500 Y2.955 I-0.4573 J0.9217
G02 X33.090 Y3.009 I-0.0697 J1.0542
G02 X32.740 Y3.240 I0.4051 J0.9944
G02 X32.507 Y3.589 I0.7601 J0.7601
G02 X32.425 Y4.000 I0.9932 J0.4114
G02 X32.507 Y4.411 I1.0750 J0.0000
G02 X32.740 Y4.760 I0.9932 J-0.4114
G02 X33.089 Y4.993 I0.7601 J-0.7601
G02 X33.500 Y5.075 I0.4114 J-0.9932
G02 X33.911 Y4.993 I0.0000 J-1.0750
G02 X34.260 Y4.760 I-0.4114 J-0.9932
G02 X34.493 Y4.411 I-0.7601 J-0.7601
G02 X34.575 Y4.000 I-0.9932 J-0.4114
G02 X32.963 Y3.069 I-1.0750 J0.0000
G02 Y4.931 I0.5375 J0.9310
G02 X34.575 Y4.000 I0.5375 J-0.9310
G02 X33.005 I-0.7850 J0.0000
G02 X33.995 I0.4950 J0.0000
G02 X33.253 Y3.571 Z-0.533 I-0.4950 J0.0000 F120
G02 Y4.429 Z-0.667 I0.2475 J0.4287
G02 X33.995 Y4.000 Z-0.800 I0.2475 J-0.4287
G02 X33.253 Y3.571 I-0.4950 J0.0000
G02 Y4.429 I0.2475 J0.4287
G02 X33.995 Y4.000 I0.2475 J-0.4287
G02 X33.983 Y3.800 I-0.4994 J-0.0697 F400
G02 X33.889 Y3.611 I-0.5139 J0.1374
G02 X33.721 Y3.466 I-0.4419 J0.3433
G02 X33.500 Y3.395 I-0.2876 J0.5120
G02 X33.258 Y3.416 I-0.0698 J0.6110
G02 X33.033 Y3.533 I0.1800 J0.6169
G02 X32.865 Y3.737 I0.4220 J0.5207
G02 X32.785 Y4.000 I0.6148 J0.3302
G02 X32.814 Y4.284 I0.7221 J0.0698
G02 X32.956 Y4.544 I0.7195 J-0.2225
G02 X33.195 Y4.737 I0.5992 J-0.5005
G02 X33.500 Y4.825 I0.3727 J-0.7173
G02 X33.826 Y4.788 I0.0698 J-0.8330
G02 X34.122 Y4.622 I-0.2649 J-0.8219
G02 X34.338 Y4.347 I-0.5788 J-0.6775
G02 X34.435 Y4.000 I-0.8196 J-0.4150
G02 X34.389 Y3.632 I-0.9436 J-0.0698
G02 X34.200 Y3.300 I-0.9240 J0.3073
G02 X33.889 Y3.060 I-0.7557 J0.6570
G02 X33.500 Y2.955 I-0.4573 J0.9217
G02 X33.090 Y3.009 I-0.0697 J1.0542
G02 X32.740 Y3.240 I0.4051 J0.9944
G02 X32.507 Y3.589 I0.7601 J0.7601
G02 X32.425 Y4.000 I0.9932 J0.4114
G02 X32.507 Y4.411 I1.0750 J0.0000
G02 X32.740 Y4.760 I0.9932 J-0.4114
G02 X33.089 Y4.993 I0.7601 J-0.7601
G02 X33.500 Y5.075 I0.4114 J-0.9932
G02 X33.911 Y4.993 I0.0000 J-1.0750
G02 X34.260 Y4.760 I-0.4114 J-0.9932
G02 X34.493 Y4.411 I-0.7601 J-0.7601
G02 X34.575 Y4.000 I-0.9932 J-0.4114
G02 X32.963 Y3.069 I-1.0750 J0.0000
G02 Y4.931 I0.5375 J0.9310
G02 X34.575 Y4.000 I0.5375 J-0.9310
G02 X33.005 I-0.7850 J0.0000
G02 X33.995 I0.4950 J0.0000
G02 X33.253 Y3.571 Z-0.933 I-0.4950 J0.0000 F120
G02 Y4.429 Z-1.067 I0.2475 J0.4287
G02 X33.995 Y4.000 Z-1.200 I0.2475 J-0.4287
G02 X33.253 Y3.571 I-0.4950 J0.0000
G02 Y4.429 I0.2475 J0.4287
G02 X33.995 Y4.000 I0.2475 J-0.4287
G02 X33.983 Y3.800 I-0.4994 J-0.0697 F400
G02 X33.889 Y3.611 I-0.5139 J0.1374
G02 X33.721 Y3.466 I-0.4419 J0.3433
G02 X33.500 Y3.395 I-0.2876 J0.5120
G02 X33.258 Y3.416 I-0.0698 J0.6110
G02 X33.033 Y3.533 I0.1800 J0.6169
G02 X32.865 Y3.737 I0.4220 J0.5207
G02 X32.785 Y4.000 I0.6148 J0.3302
G02 X32.814 Y4.284 I0.7221 J0.0698
G02 X32.956 Y4.544 I0.7195 J-0.2225
G02 X33.195 Y4.737 I0.5992 J-0.5005
G02 X33.500 Y4.825 I0.3727 J-0.7173
G02 X33.826 Y4.788 I0.0698 J-0.8330
G02 X34.122 Y4.622 I-0.2649 J-0.8219
G02 X34.338 Y4.347 I-0.5788 J-0.6775
G02 X34.435 Y4.000 I-0.8196 J-0.4150
G02 X34.389 Y3.632 I-0.9436 J-0.0698
G02 X34.200 Y3.300 I-0.9240 J0.3073
G02 X33.889 Y3.060 I-0.7557 J0.6570
G02 X33.500 Y2.955 I-0.4573 J0.9217
G02 X33.090 Y3.009 I-0.0697 J1.0542
G02 X32.740 Y3.240 I0.4051 J0.9944
G02 X32.507 Y3.589 I0.7601 J0.7601
G02 X32.425 Y4.000 I0.9932 J0.4114
G02 X32.507 Y4.411 I1.0750 J0.0000
G02 X32.740 Y4.760 I0.9932 J-0.4114
G02 X33.089 Y4.993 I0.7601 J-0.7601
G02 X33.500 Y5.075 I0.4114 J-0.9932
G02 X33.911 Y4.993 I0.0000 J-1.0750
G02 X34.260 Y4.760 I-0.4114 J-0.9932
G02 X34.493 Y4.411 I-0.7601 J-0.7601
G02 X34.575 Y4.000 I-0.9932 J-0.4114
G02 X32.963 Y3.069 I-1.0750 J0.0000
G02 Y4.931 I0.5375 J0.9310
G02 X34.575 Y4.000 I0.5375 J-0.9310
G02 X33.005 I-0.7850 J0.0000
G02 X33.995 I0.4950 J0.0000
G02 X33.253 Y3.571 Z-1.333 I-0.4950 J0.0000 F120
G02 Y4.429 Z-1.467 I0.2475 J0.4287
G02 X33.995 Y4.000 Z-1.600 I0.2475 J-0.4287
G02 X33.253 Y3.571 I-0.4950 J0.0000
G02 Y4.429 I0.2475 J0.4287
G02 X33.995 Y4.000 I0.2475 J-0.4287
G02 X33.983 Y3.800 I-0.4994 J-0.0697 F400
G02 X33.889 Y3.611 I-0.5139 J0.1374
G02 X33.721 Y3.466 I-0.4419 J0.3433
G02 X33.500 Y3.395 I-0.2876 J0.5120
G02 X33.258 Y3.416 I-0.0698 J0.6110
G02 X33.033 Y3.533 I0.1800 J0.6169
G02 X32.865 Y3.737 I0.4220 J0.5207
G02 X32.785 Y4.000 I0.6148 J0.3302
G02 X32.814 Y4.284 I0.7221 J0.0698
G02 X32.956 Y4.544 I0.7195 J-0.2225
G02 X33.195 Y4.737 I0.5992 J-0.5005
G02 X33.500 Y4.825 I0.3727 J-0.7173
G02 X33.826 Y4.788 I0.0698 J-0.8330
G02 X34.122 Y4.622 I-0.2649 J-0.8219
G02 X34.338 Y4.347 I-0.5788 J-0.6775
G02 X34.435 Y4.000 I-0.8196 J-0.4150
G02 X34.389 Y3.632 I-0.9436 J-0.0698
G02 X34.200 Y3.300 I-0.9240 J0.3073
G02 X33.889 Y3.060 I-0.7557 J0.6570
G02 X33.500 Y2.955 I-0.4573 J0.9217
G02 X33.090 Y3.009 I-0.0697 J1.0542
G02 X32.740 Y3.240 I0.4051 J0.9944
G02 X32.507 Y3.589 I0.7601 J0.7601
G02 X32.425 Y4.000 I0.9932 J0.4114
G02 X32.507 Y4.411 I1.0750 J0.0000
G02 X32.740 Y4.760 I0.9932 J-0.4114
G02 X33.089 Y4.993 I0.7601 J-0.7601
G02 X33.500 Y5.075 I0.4114 J-0.9932
G02 X33.911 Y4.993 I0.0000 J-1.0750
G02 X34.260 Y4.760 I-0.4114 J-0.9932
G02 X34.493 Y4.411 I-0.7601 J-0.7601
G02 X34.575 Y4.000 I-0.9932 J-0.4114
G02 X32.963 Y3.069 I-1.0750 J0.0000
G02 Y4.931 I0.5375 J0.9310
G02 X34.575 Y4.000 I0.5375 J-0.9310
G02 X33.005 I-0.7850 J0.0000
G02 X33.995 I0.4950 J0.0000
G02 X33.253 Y3.571 Z-1.733 I-0.4950 J0.0000 F120
G02 Y4.429 Z-1.867 I0.2475 J0.4287
G02 X33.995 Y4.000 Z-2.000 I0.2475 J-0.4287
G02 X33.253 Y3.571 I-0.4950 J0.0000
G02 Y4.429 I0.2475 J0.4287
G02 X33.995 Y4.000 I0.2475 J-0.4287
G02 X33.983 Y3.800 I-0.4994 J-0.0697 F400
G02 X33.889 Y3.611 I-0.5139 J0.1374
G02 X33.721 Y3.466 I-0.4419 J0.3433
G02 X33.500 Y3.395 I-0.2876 J0.5120
G02 X33.258 Y3.416 I-0.0698 J0.6110
G02 X33.033 Y3.533 I0.1800 J0.6169
G02 X32.865 Y3.737 I0.4220 J0.5207
G02 X32.785 Y4.000 I0.6148 J0.3302
G02 X32.814 Y4.284 I0.7221 J0.0698
G02 X32.956 Y4.544 I0.7195 J-0.2225
G02 X33.195 Y4.737 I0.5992 J-0.5005
G02 X33.500 Y4.825 I0.3727 J-0.7173
G02 X33.826 Y4.788 I0.0698 J-0.8330
G02 X34.122 Y4.622 I-0.2649 J-0.8219
G02 X34.338 Y4.347 I-0.5788 J-0.6775
G02 X34.435 Y4.000 I-0.8196 J-0.4150
G02 X34.389 Y3.632 I-0.9436 J-0.0698
G02 X34.200 Y3.300 I-0.9240 J0.3073
G02 X33.889 Y3.060 I-0.7557 J0.6570
G02 X33.500 Y2.955 I-0.4573 J0.9217
G02 X33.090 Y3.009 I-0.0697 J1.0542
G02 X32.740 Y3.240 I0.4051 J0.9944
G02 X32.507 Y3.589 I0.7601 J0.7601
G02 X32.425 Y4.000 I0.9932 J0.4114
G02 X32.507 Y4.411 I1.0750 J0.0000
G02 X32.740 Y4.760 I0.9932 J-0.4114
G02 X33.089 Y4.993 I0.7601 J-0.7601
G02 X33.500 Y5.075 I0.4114 J-0.9932
G02 X33.911 Y4.993 I0.0000 J-1.0750
G02 X34.260 Y4.760 I-0.4114 J-0.9932
G02 X34.493 Y4.411 I-0.7601 J-0.7601
G02 X34.575 Y4.000 I-0.9932 J-0.4114
G02 X32.963 Y3.069 I-1.0750 J0.0000
G02 Y4.931 I0.5375 J0.9310
G02 X34.575 Y4.000 I0.5375 J-0.9310
G02 X33.005 I-0.7850 J0.0000
G02 X33.995 I0.4950 J0.0000
G02 X33.253 Y3.571 Z-2.133 I-0.4950 J0.0000 F120
G02 Y4.429 Z-2.267 I0.2475 J0.4287
G02 X33.995 Y4.000 Z-2.400 I0.2475 J-0.4287
G02 X33.253 Y3.571 I-0.4950 J0.0000
G02 Y4.429 I0.2475 J0.4287
G02 X33.995 Y4.000 I0.2475 J-0.4287
G02 X33.983 Y3.800 I-0.4994 J-0.0697 F400
G02 X33.889 Y3.611 I-0.5139 J0.1374
G02 X33.721 Y3.466 I-0.4419 J0.3433
G02 X33.500 Y3.395 I-0.2876 J0.5120
G02 X33.258 Y3.416 I-0.0698 J0.6110
G02 X33.033 Y3.533 I0.1800 J0.6169
G02 X32.865 Y3.737 I0.4220 J0.5207
G02 X32.785 Y4.000 I0.6148 J0.3302
G02 X32.814 Y4.284 I0.7221 J0.0698
G02 X32.956 Y4.544 I0.7195 J-0.2225
G02 X33.195 Y4.737 I0.5992 J-0.5005
G02 X33.500 Y4.825 I0.3727 J-0.7173
G02 X33.826 Y4.788 I0.0698 J-0.8330
G02 X34.122 Y4.622 I-0.2649 J-0.8219
G02 X34.338 Y4.347 I-0.5788 J-0.6775
G02 X34.435 Y4.000 I-0.8196 J-0.4150
G02 X34.389 Y3.632 I-0.9436 J-0.0698
G02 X34.200 Y3.300 I-0.9240 J0.3073
G02 X33.889 Y3.060 I-0.7557 J0.6570
G02 X33.500 Y2.955 I-0.4573 J0.9217
G02 X33.090 Y3.009 I-0.0697 J1.0542
G02 X32.740 Y3.240 I0.4051 J0.9944
G02 X32.507 Y3.589 I0.7601 J0.7601
G02 X32.425 Y4.000 I0.9932 J0.4114
G02 X32.507 Y4.411 I1.0750 J0.0000
G02 X32.740 Y4.760 I0.9932 J-0.4114
G02 X33.089 Y4.993 I0.7601 J-0.7601
G02 X33.500 Y5.075 I0.4114 J-0.9932
G02 X33.911 Y4.993 I0.0000 J-1.0750
G02 X34.260 Y4.760 I-0.4114 J-0.9932
G02 X34.493 Y4.411 I-0.7601 J-0.7601
G02 X34.575 Y4.000 I-0.9932 J-0.4114
G02 X32.963 Y3.069 I-1.0750 J0.0000
G02 Y4.931 I0.5375 J0.9310
G02 X34.575 Y4.000 I0.5375 J-0.9310
G02 X33.005 I-0.7850 J0.0000
G02 X33.995 I0.4950 J0.0000
G02 X33.253 Y3.571 Z-2.533 I-0.4950 J0.0000 F120
G02 Y4.429 Z-2.667 I0.2475 J0.4287
G02 X33.995 Y4.000 Z-2.800 I0.2475 J-0.4287
G02 X33.253 Y3.571 I-0.4950 J0.0000
G02 Y4.429 I0.2475 J0.4287
G02 X33.995 Y4.000 I0.2475 J-0.4287
G02 X33.983 Y3.800 I-0.4994 J-0.0697 F400
G02 X33.889 Y3.611 I-0.5139 J0.1374
G02 X33.721 Y3.466 I-0.4419 J0.3433
G02 X33.500 Y3.395 I-0.2876 J0.5120
G02 X33.258 Y3.416 I-0.0698 J0.6110
G02 X33.033 Y3.533 I0.1800 J0.6169
G02 X32.865 Y3.737 I0.4220 J0.5207
G02 X32.785 Y4.000 I0.6148 J0.3302
G02 X32.814 Y4.284 I0.7221 J0.0698
G02 X32.956 Y4.544 I0.7195 J-0.2225
G02 X33.195 Y4.737 I0.5992 J-0.5005
G02 X33.500 Y4.825 I0.3727 J-0.7173
G02 X33.826 Y4.788 I0.0698 J-0.8330
G02 X34.122 Y4.622 I-0.2649 J-0.8219
G02 X34.338 Y4.347 I-0.5788 J-0.6775
G02 X34.435 Y4.000 I-0.8196 J-0.4150
G02 X34.389 Y3.632 I-0.9436 J-0.0698
G02 X34.200 Y3.300 I-0.9240 J0.3073
G02 X33.889 Y3.060 I-0.7557 J0.6570
G02 X33.500 Y2.955 I-0.4573 J0.9217
G02 X33.090 Y3.009 I-0.0697 J1.0542
G02 X32.740 Y3.240 I0.4051 J0.9944
G02 X32.507 Y3.589 I0.7601 J0.7601
G02 X32.425 Y4.000 I0.9932 J0.4114
G02 X32.507 Y4.411 I1.0750 J0.0000
G02 X32.740 Y4.760 I0.9932 J-0.4114
G02 X33.089 Y4.993 I0.7601 J-0.7601
G02 X33.500 Y5.075 I0.4114 J-0.9932
G02 X33.911 Y4.993 I0.0000 J-1.0750
G02 X34.260 Y4.760 I-0.4114 J-0.9932
G02 X34.493 Y4.411 I-0.7601 J-0.7601
G02 X34.575 Y4.000 I-0.9932 J-0.4114
G02 X32.963 Y3.069 I-1.0750 J0.0000
G02 Y4.931 I0.5375 J0.9310
G02 X34.575 Y4.000 I0.5375 J-0.9310
G02 X33.005 I-0.7850 J0.0000
G02 X33.995 I0.4950 J0.0000
G02 X33.253 Y3.571 Z-2.933 I-0.4950 J0.0000 F120
G02 Y4.429 Z-3.067 I0.2475 J0.4287
G02 X33.995 Y4.000 Z-3.200 I0.2475 J-0.4287
G02 X33.253 Y3.571 I-0.4950 J0.0000
G02 Y4.429 I0.2475 J0.4287
G02 X33.995 Y4.000 I0.2475 J-0.4287
G02 X33.983 Y3.800 I-0.4994 J-0.0697 F400
G02 X33.889 Y3.611 I-0.5139 J0.1374
G02 X33.721 Y3.466 I-0.4419 J0.3433
G02 X33.500 Y3.395 I-0.2876 J0.5120
G02 X33.258 Y3.416 I-0.0698 J0.6110
G02 X33.033 Y3.533 I0.1800 J0.6169
G02 X32.865 Y3.737 I0.4220 J0.5207
G02 X32.785 Y4.000 I0.6148 J0.3302
G02 X32.814 Y4.284 I0.7221 J0.0698
G02 X32.956 Y4.544 I0.7195 J-0.2225
G02 X33.195 Y4.737 I0.5992 J-0.5005
G02 X33.500 Y4.825 I0.3727 J-0.7173
G02 X33.826 Y4.788 I0.0698 J-0.8330
G02 X34.122 Y4.622 I-0.2649 J-0.8219
G02 X34.338 Y4.347 I-0.5788 J-0.6775
G02 X34.435 Y4.000 I-0.8196 J-0.4150
G02 X34.389 Y3.632 I-0.9436 J-0.0698
G02 X34.200 Y3.300 I-0.9240 J0.3073
G02 X33.889 Y3.060 I-0.7557 J0.6570
G02 X33.500 Y2.955 I-0.4573 J0.9217
G02 X33.090 Y3.009 I-0.0697 J1.0542
G02 X32.740 Y3.240 I0.4051 J0.9944
G02 X32.507 Y3.589 I0.7601 J0.7601
G02 X32.425 Y4.000 I0.9932 J0.4114
G02 X32.507 Y4.411 I1.0750 J0.0000
G02 X32.740 Y4.760 I0.9932 J-0.4114
G02 X33.089 Y4.993 I0.7601 J-0.7601
G02 X33.500 Y5.075 I0.4114 J-0.9932
G02 X33.911 Y4.993 I0.0000 J-1.0750
G02 X34.260 Y4.760 I-0.4114 J-0.9932
G02 X34.493 Y4.411 I-0.7601 J-0.7601
G02 X34.575 Y4.000 I-0.9932 J-0.4114
G02 X32.963 Y3.069 I-1.0750 J0.0000
G02 Y4.931 I0.5375 J0.9310
G02 X34.575 Y4.000 I0.5375 J-0.9310
G02 X33.005 I-0.7850 J0.0000
G02 X33.995 I0.4950 J0.0000
G02 X33.253 Y3.571 Z-3.300 I-0.4950 J0.0000 F120
G02 Y4.429 Z-3.400 I0.2475 J0.4287
G02 X33.995 Y4.000 Z-3.500 I0.2475 J-0.4287
G02 X33.253 Y3.571 I-0.4950 J0.0000
G02 Y4.429 I0.2475 J0.4287
G02 X33.995 Y4.000 I0.2475 J-0.4287
G02 X33.983 Y3.800 I-0.4994 J-0.0697 F400
G02 X33.889 Y3.611 I-0.5139 J0.1374
G02 X33.721 Y3.466 I-0.4419 J0.3433
G02 X33.500 Y3.395 I-0.2876 J0.5120
G02 X33.258 Y3.416 I-0.0698 J0.6110
G02 X33.033 Y3.533 I0.1800 J0.6169
G02 X32.865 Y3.737 I0.4220 J0.5207
G02 X32.785 Y4.000 I0.6148 J0.3302
G02 X32.814 Y4.284 I0.7221 J0.0698
G02 X32.956 Y4.544 I0.7195 J-0.2225
G02 X33.195 Y4.737 I0.5992 J-0.5005
G02 X33.500 Y4.825 I0.3727 J-0.7173
G02 X33.826 Y4.788 I0.0698 J-0.8330
G02 X34.122 Y4.622 I-0.2649 J-0.8219
G02 X34.338 Y4.347 I-0.5788 J-0.6775
G02 X34.435 Y4.000 I-0.8196 J-0.4150
G02 X34.389 Y3.632 I-0.9436 J-0.0698
G02 X34.200 Y3.300 I-0.9240 J0.3073
G02 X33.889 Y3.060 I-0.7557 J0.6570
G02 X33.500 Y2.955 I-0.4573 J0.9217
G02 X33.090 Y3.009 I-0.0697 J1.0542
G02 X32.740 Y3.240 I0.4051 J0.9944
G02 X32.507 Y3.589 I0.7601 J0.7601
G02 X32.425 Y4.000 I0.9932 J0.4114
G02 X32.507 Y4.411 I1.0750 J0.0000
G02 X32.740 Y4.760 I0.9932 J-0.4114
G02 X33.089 Y4.993 I0.7601 J-0.7601
G02 X33.500 Y5.075 I0.4114 J-0.9932
G02 X33.911 Y4.993 I0.0000 J-1.0750
G02 X34.260 Y4.760 I-0.4114 J-0.9932
G02 X34.493 Y4.411 I-0.7601 J-0.7601
G02 X34.575 Y4.000 I-0.9932 J-0.4114
G02 X32.963 Y3.069 I-1.0750 J0.0000
G02 Y4.931 I0.5375 J0.9310
G02 X34.575 Y4.000 I0.5375 J-0.9310
G02 X34.025 Y3.450 Z-3.000 I-0.5500 J0.0000 F120
G00 Z20.000


(No. 6 Part: Part 1)
G00 X20.310 Y-0.550 Z20.000
G00 Z0.500
G01 Z-0.400 F120
G01 X37.500 F400
G03 X38.050 Y0.020 I-0.0003 J0.5506
G01 Y15.960
G01 Y19.060
G01 Y35.000
G03 X37.480 Y35.550 I-0.5506 J-0.0003
G01 X20.290
G01 X17.190
G01 X0.000
G03 X-0.549 Y35.039 I0.0000 J-0.5500
G01 X-0.550 Y34.980
G01 Y19.040
G01 Y15.940
G01 Y0.000
G03 X-0.507 Y-0.214 I0.5500 J0.0000
G03 X0.020 Y-0.550 I0.5074 J0.2149
G01 X17.210
G01 X20.310
G01 Z-0.800 F120
G01 X37.500 F400
G03 X38.050 Y0.020 I-0.0003 J0.5506
G01 Y15.960
G01 Y19.060
G01 Y35.000
G03 X37.480 Y35.550 I-0.5506 J-0.0003
G01 X20.290
G01 X17.190
G01 X0.000
G03 X-0.549 Y35.039 I0.0000 J-0.5500
G01 X-0.550 Y34.980
G01 Y19.040
G01 Y15.940
G01 Y0.000
G03 X-0.507 Y-0.214 I0.5500 J0.0000
G03 X0.020 Y-0.550 I0.5074 J0.2149
G01 X17.210
G01 X20.310
G01 Z-1.200 F120
G01 X37.500 F400
G03 X38.050 Y0.020 I-0.0003 J0.5506
G01 Y15.960
G01 Y19.060
G01 Y35.000
G03 X37.480 Y35.550 I-0.5506 J-0.0003
G01 X20.290
G01 X17.190
G01 X0.000
G03 X-0.549 Y35.039 I0.0000 J-0.5500
G01 X-0.550 Y34.980
G01 Y19.040
G01 Y15.940
G01 Y0.000
G03 X-0.507 Y-0.214 I0.5500 J0.0000
G03 X0.020 Y-0.550 I0.5074 J0.2149
G01 X17.210
G01 X20.310
G01 Z-1.600 F120
G01 X37.500 F400
G03 X38.050 Y0.020 I-0.0003 J0.5506
G01 Y15.960
G01 Y19.060
G01 Y35.000
G03 X37.480 Y35.550 I-0.5506 J-0.0003
G01 X20.290
G01 X17.190
G01 X0.000
G03 X-0.549 Y35.039 I0.0000 J-0.5500
G01 X-0.550 Y34.980
G01 Y19.040
G01 Y15.940
G01 Y0.000
G03 X-0.507 Y-0.214 I0.5500 J0.0000
G03 X0.020 Y-0.550 I0.5074 J0.2149
G01 X17.210
G01 X20.310
G01 Z-2.000 F120
G01 X37.500 F400
G03 X38.050 Y0.020 I-0.0003 J0.5506
G01 Y15.960
G01 Y19.060
G01 Y35.000
G03 X37.480 Y35.550 I-0.5506 J-0.0003
G01 X20.290
G01 X17.190
G01 X0.000
G03 X-0.549 Y35.039 I0.0000 J-0.5500
G01 X-0.550 Y34.980
G01 Y19.040
G01 Y15.940
G01 Y0.000
G03 X-0.507 Y-0.214 I0.5500 J0.0000
G03 X0.020 Y-0.550 I0.5074 J0.2149
G01 X17.210
G01 X20.310
G01 Z-2.400 F120
G01 X37.500 F400
G03 X38.050 Y0.020 I-0.0003 J0.5506
G01 Y15.960
G00 Z-2.000
G01 Y19.060
G01 Z-2.400 F120
G01 Y35.000 F400
G03 X37.480 Y35.550 I-0.5506 J-0.0003
G01 X20.290
G00 Z-2.000
G01 X17.190
G01 Z-2.400 F120
G01 X0.000 F400
G03 X-0.549 Y35.039 I0.0000 J-0.5500
G01 X-0.550 Y34.980
G01 Y19.040
G00 Z-2.000
G01 Y15.940
G01 Z-2.400 F120
G01 Y0.000 F400
G03 X-0.507 Y-0.214 I0.5500 J0.0000
G03 X0.020 Y-0.550 I0.5074 J0.2149
G01 X17.210
G00 Z-2.000
G01 X20.310
G01 Z-2.800 F120
G01 X37.500 F400
G03 X38.050 Y0.020 I-0.0003 J0.5506
G01 Y15.960
G00 Z-2.000
G01 Y19.060
G01 Z-2.800 F120
G01 Y35.000 F400
G03 X37.480 Y35.550 I-0.5506 J-0.0003
G01 X20.290
G00 Z-2.000
G01 X17.190
G01 Z-2.800 F120
G01 X0.000 F400
G03 X-0.549 Y35.039 I0.0000 J-0.5500
G01 X-0.550 Y34.980
G01 Y19.040
G00 Z-2.000
G01 Y15.940
G01 Z-2.800 F120
G01 Y0.000 F400
G03 X-0.507 Y-0.214 I0.5500 J0.0000
G03 X0.020 Y-0.550 I0.5074 J0.2149
G01 X17.210
G00 Z-2.000
G01 X20.310
G00 Z-2.300
G01 Z-3.200 F120
G01 X37.500 F400
G03 X38.050 Y0.020 I-0.0003 J0.5506
G01 Y15.960
G00 Z-2.000
G01 Y19.060
G00 Z-2.300
G01 Z-3.200 F120
G01 Y35.000 F400
G03 X37.480 Y35.550 I-0.5506 J-0.0003
G01 X20.290
G00 Z-2.000
G01 X17.190
G00 Z-2.300
G01 Z-3.200 F120
G01 X0.000 F400
G03 X-0.549 Y35.039 I0.0000 J-0.5500
G01 X-0.550 Y34.980
G01 Y19.040
G00 Z-2.000
G01 Y15.940
G00 Z-2.300
G01 Z-3.200 F120
G01 Y0.000 F400
G03 X-0.507 Y-0.214 I0.5500 J0.0000
G03 X0.020 Y-0.550 I0.5074 J0.2149
G01 X17.210
G00 Z-2.000
G01 X20.310
G00 Z-2.700
G01 Z-3.500 F120
G01 X37.500 F400
G03 X38.050 Y0.020 I-0.0003 J0.5506
G01 Y15.960
G00 Z-2.000
G01 Y19.060
G00 Z-2.700
G01 Z-3.500 F120
G01 Y35.000 F400
G03 X37.480 Y35.550 I-0.5506 J-0.0003
G01 X20.290
G00 Z-2.000
G01 X17.190
G00 Z-2.700
G01 Z-3.500 F120
G01 X0.000 F400
G03 X-0.549 Y35.039 I0.0000 J-0.5500
G01 X-0.550 Y34.980
G01 Y19.040
G00 Z-2.000
G01 Y15.940
G00 Z-2.700
G01 Z-3.500 F120
G01 Y0.000 F400
G03 X-0.507 Y-0.214 I0.5500 J0.0000
G03 X0.020 Y-0.550 I0.5074 J0.2149
G01 X17.210
G00 Z-2.000
G01 X20.310
G00 Z20.000
G00 X0.000 Y0.000

M05
M30
