(Project nrf51822-holder)
(Created by Estlcam version 11 build 11.118)
(Machining time about 00:36:11 hours)

(Required tools:)
(End 1.000mm)
G21
G90
G94
M03 S24000.0
G00 Z20.000


(No. 1 Hole: Hole 13)
G00 X15.753 Y15.753
G00 Z0.500
G01 Z-0.400 F120 S24000.0
G02 X15.030 Y17.500 I1.7469 J1.7469 F400
G01 X15.114 Y18.139
G02 X16.256 Y19.633 I2.3740 J-0.6323
G01 X16.265 Y19.639
G02 X18.735 Y15.361 I1.2352 J-2.1395
G02 X15.753 Y15.753 I-1.2352 J2.1395
G01 Z-0.800 F120
G02 X15.030 Y17.500 I1.7469 J1.7469 F400
G01 X15.114 Y18.139
G02 X16.256 Y19.633 I2.3740 J-0.6323
G01 X16.265 Y19.639
G02 X18.735 Y15.361 I1.2352 J-2.1395
G02 X15.753 Y15.753 I-1.2352 J2.1395
G01 Z-1.200 F120
G02 X15.030 Y17.500 I1.7469 J1.7469 F400
G01 X15.114 Y18.139
G02 X16.256 Y19.633 I2.3740 J-0.6323
G01 X16.265 Y19.639
G02 X18.735 Y15.361 I1.2352 J-2.1395
G02 X15.753 Y15.753 I-1.2352 J2.1395
G01 Z-1.600 F120
G02 X15.030 Y17.500 I1.7469 J1.7469 F400
G01 X15.114 Y18.139
G02 X16.256 Y19.633 I2.3740 J-0.6323
G01 X16.265 Y19.639
G02 X18.735 Y15.361 I1.2352 J-2.1395
G02 X15.753 Y15.753 I-1.2352 J2.1395
G01 Z-2.000 F120
G02 X15.030 Y17.500 I1.7469 J1.7469 F400
G01 X15.114 Y18.139
G02 X16.256 Y19.633 I2.3740 J-0.6323
G01 X16.265 Y19.639
G02 X18.735 Y15.361 I1.2352 J-2.1395
G02 X15.753 Y15.753 I-1.2352 J2.1395
G01 Z-2.400 F120
G02 X15.030 Y17.500 I1.7469 J1.7469 F400
G01 X15.114 Y18.139
G02 X16.256 Y19.633 I2.3740 J-0.6323
G01 X16.265 Y19.639
G02 X18.735 Y15.361 I1.2352 J-2.1395
G02 X15.753 Y15.753 I-1.2352 J2.1395
G01 Z-2.800 F120
G02 X15.030 Y17.500 I1.7469 J1.7469 F400
G01 X15.114 Y18.139
G02 X16.256 Y19.633 I2.3740 J-0.6323
G01 X16.265 Y19.639
G02 X18.735 Y15.361 I1.2352 J-2.1395
G02 X15.753 Y15.753 I-1.2352 J2.1395
G01 Z-3.200 F120
G02 X15.030 Y17.500 I1.7469 J1.7469 F400
G01 X15.114 Y18.139
G02 X16.256 Y19.633 I2.3740 J-0.6323
G01 X16.265 Y19.639
G02 X18.735 Y15.361 I1.2352 J-2.1395
G02 X15.753 Y15.753 I-1.2352 J2.1395
G01 Z-3.500 F120
G02 X15.030 Y17.500 I1.7469 J1.7469 F400
G01 X15.114 Y18.139
G02 X16.256 Y19.633 I2.3740 J-0.6323
G01 X16.265 Y19.639
G02 X18.735 Y15.361 I1.2352 J-2.1395
G02 X15.753 Y15.753 I-1.2352 J2.1395
G00 Z20.000


(No. 2 Parallel pocket: Hole 5)
G00 X12.516 Y22.430 Z20.000
G00 Z0.500
G01 Z-0.400 F120
G01 X12.466 Y22.472 F400
G01 X12.382 Y22.598
G01 X12.298 Y22.917
G02 X13.785 Y24.085 I3.1764 J-2.5143
G01 X14.121 Y23.967
G01 X14.524 Y23.866
G01 X14.541 Y23.841
G03 X12.516 Y22.430 I2.7132 J-6.0498
G00 Z20.000
G00 X19.707 Y24.118
G00 Z0.500
G01 Z-0.400 F120
G01 Y24.135 F400
G01 X20.009 Y24.236
G01 X20.589 Y24.522
G02 X24.024 Y21.800 I-2.2698 J-6.3946
G01 X23.755 Y20.926
G01 X23.747 Y20.607
G03 X19.707 Y24.118 I-6.3388 J-3.2139
G01 X19.566 Y23.711
G03 X12.483 Y21.758 I-2.0995 J-6.2075
G01 X12.457
G01 X12.306 Y21.985
G01 X12.004 Y22.363
G01 X11.928 Y22.623
G01 X11.911 Y22.690
G01 X11.777 Y22.942
G02 X13.751 Y24.564 I4.0189 J-2.8811
G03 X15.960 Y24.186 I1.8645 J4.2520
G01 X18.547 Y24.345
G03 X20.563 Y25.000 I-0.3051 J4.3678
G02 X24.511 Y21.842 I-2.3965 J-7.0423
G01 X24.394 Y21.540
G01 X24.175 Y20.809
G01 Y19.230
G02 X12.340 Y12.820 I-6.6887 J-1.7810
G01 X12.348 Y12.871
G01 X12.525 Y13.131
G01 X12.558 Y13.148
G03 X22.197 Y22.052 I4.9166 J4.3467
G03 X19.566 Y23.711 I-4.6681 J-4.4864
G01 X19.416 Y23.304
G01 X19.364 Y23.323
G03 X12.415 Y20.994 I-1.8924 J-5.8826
G03 X11.609 Y22.170 I-5.1215 J-2.6474
G01 X11.508 Y22.531
G01 X11.458 Y22.623
G01 X11.256 Y23.026
G02 X13.751 Y25.042 I5.6063 J-4.3862
G03 X15.893 Y24.614 I1.8736 J3.7990
G01 X18.329 Y24.765
G03 X20.547 Y25.496 I-0.1288 J4.1208
G02 X24.999 Y21.876 I-2.6361 J-7.7891
G01 Y21.834
G01 X24.839 Y21.506
G01 X24.604 Y20.733
G01 Y19.305
G02 X11.886 Y12.678 I-7.1196 J-1.8539
G01 X11.928 Y13.014
G01 X12.264 Y13.509
G01 X12.483 Y13.921
G03 X23.407 Y15.917 I4.9859 J3.6039
G03 X19.416 Y23.304 I-5.9330 J1.5662
G01 X19.273 Y22.903
G03 X12.382 Y20.078 I-1.8015 J-5.4235
G03 X11.223 Y21.960 I-6.2784 J-2.5700
G01 X11.105 Y22.371
G01 X10.979 Y22.623
G01 X10.735 Y23.060
G02 X13.776 Y25.530 I6.2576 J-4.5981
G03 X15.826 Y25.042 I1.8426 J3.1969
G01 X18.396 Y25.202
G03 X20.496 Y25.992 I-0.1705 J3.6407
G02 X25.494 Y21.884 I-2.7570 J-8.4492
G01 X25.242 Y21.346
G01 X25.032 Y20.658
G01 Y19.381
G02 X11.424 Y12.552 I-7.5507 J-1.9268
G01 X11.500 Y13.005
G01 X11.508 Y13.173
G03 X12.432 Y14.828 I-5.6963 J4.2660
G03 X23.163 Y16.963 I5.0427 J2.6906
G03 X19.273 Y22.903 I-5.6915 J0.5170
G01 X19.142 Y22.494
G03 X12.348 Y18.709 I-1.6590 J-5.0121
G03 X10.819 Y21.766 I-6.3420 J-1.2600
G03 X10.198 Y23.035 I-2.6514 J-0.5128
G02 X13.818 Y26.017 I6.7271 J-4.4785
G03 X15.759 Y25.471 I1.8227 J2.7566
G01 X18.463 Y25.639
G03 X20.412 Y26.479 I-0.2399 J3.2371
G02 X25.990 Y21.850 I-2.6247 J-8.8379
G03 X25.461 Y20.582 I3.2126 J-2.0849
G01 Y19.456
G02 X11.155 Y12.216 I-7.9677 J-2.0101
G01 X10.920 Y12.392
G03 X11.088 Y13.324 I-3.0556 J1.0319
G03 X12.390 Y16.172 I-5.5185 J4.2447
G03 X22.519 Y19.067 I5.1002 J1.3231
G03 X19.142 Y22.494 I-5.0361 J-1.5847
G01 X19.009 Y22.084
G03 X12.653 Y17.508 I-1.5232 J-4.5861
G01 X12.665 Y17.140
G03 X22.316 Y17.849 I4.8252 J0.3532
G03 X19.009 Y22.084 I-4.8089 J-0.3460
G01 X18.861 Y21.685
G03 X13.181 Y16.580 I-1.3665 J-4.1917
G03 X20.441 Y14.214 I4.3134 J0.9125
G03 X18.861 Y21.685 I-2.9469 J3.2793
G01 X18.724 Y21.277
G03 X13.522 Y17.565 I-1.2287 J-3.7793
G01 X13.531 Y17.218
G03 X21.429 Y18.117 I3.9686 J0.2768
G03 X18.724 Y21.277 I-3.9168 J-0.6153
G01 X18.609 Y20.868
G03 X13.964 Y17.751 I-1.1082 J-3.3676
G01 X13.956 Y17.381
G03 X21.019 Y17.957 I3.5457 J0.1170
G03 X18.609 Y20.868 I-3.5127 J-0.4560
G01 X18.469 Y20.461
G03 X14.393 Y17.678 I-0.9692 J-2.9562
G01 X14.391 Y17.353
G03 X20.606 Y17.789 I3.1132 J0.1361
G03 X18.469 Y20.461 I-3.0917 J-0.2825
G01 X18.340 Y20.051
G03 X14.809 Y17.558 I-0.8338 J-2.5662
G01 Y17.432
G01 X14.885 Y16.861
G03 X15.952 Y15.290 I2.7383 J0.7119
G03 X18.965 Y19.753 I1.5391 J2.2099
G03 X18.340 Y20.051 I-1.4160 J-2.1664
G00 Z20.000
G00 X17.995 Y25.610
G00 Z0.100
G01 Z-0.400 F120
G01 X17.968 Y26.041 F400
G01 X18.396 Y26.067
G03 X20.278 Y26.966 I-0.1724 J2.7798
G02 X26.494 Y21.842 I-2.5126 J-9.3805
G03 X25.889 Y20.506 I2.8091 J-2.0768
G01 Y19.532
G02 X10.895 Y11.871 I-8.3854 J-2.0917
G01 X10.567 Y12.123
G01 X10.383 Y12.224
G03 X10.668 Y13.484 I-2.7972 J1.2964
G03 X10.416 Y21.573 I-4.7995 J3.8990
G03 X9.635 Y23.010 I-2.4890 J-0.4230
G02 X13.885 Y26.512 I7.5031 J-4.7743
G03 X15.826 Y25.908 I1.7462 J2.1873
G01 X17.968 Y26.041
G01 X17.942 Y26.472
G01 X18.463 Y26.504
G03 X20.101 Y27.453 I-0.2336 J2.2911
G02 X27.015 Y21.750 I-2.2987 J-9.8276
G03 X26.317 Y20.431 I1.7797 J-1.7846
G01 Y19.608
G02 X10.979 Y11.132 I-8.8125 J-2.1687
G03 X9.761 Y12.031 I-1.9452 J-1.3614
G03 X10.240 Y13.635 I-2.1975 J1.5294
G03 X10.005 Y21.388 I-4.4109 J3.7464
G03 X9.064 Y22.951 I-2.2730 J-0.3042
G02 X13.953 Y27.025 I8.3733 J-5.0777
G03 X15.759 Y26.336 I1.6751 J1.6800
G01 X17.942 Y26.472
G01 X17.916 Y26.898
G01 X18.354 Y26.924
G03 X19.900 Y27.949 I-0.1503 J1.9046
G02 X27.544 Y21.657 I-2.1463 J-10.3971
G03 X26.746 Y20.355 I1.3554 J-1.7263
G01 Y19.683
G02 X10.685 Y10.813 I-9.2374 J-2.2499
G03 X8.812 Y11.745 I-1.7650 J-1.1981
G03 X9.795 Y13.778 I-1.1034 J1.7875
G03 X9.585 Y21.212 I-3.9904 J3.6072
G03 X8.980 Y22.455 I-1.8020 J-0.1079
G01 X8.493 Y22.867
G02 X14.062 Y27.537 I9.0505 J-5.1365
G03 X15.826 Y26.773 I1.5893 J1.2501
G01 X17.916 Y26.898
G01 X17.891 Y27.328
G01 X18.430 Y27.361
G03 X19.639 Y28.444 I-0.2678 J1.5159
G02 X28.023 Y21.624 I-1.9249 J-10.9280
G01 X28.065 Y21.464
G03 X27.174 Y20.280 I0.7465 J-1.4881
G01 Y19.759
G02 X10.357 Y10.527 I-9.6676 J-2.3219
G03 X8.467 Y11.266 I-1.4574 J-0.9406
G01 X8.165 Y11.720
G01 X8.073 Y11.888
G01 Y11.922
G03 X9.333 Y13.912 I-0.3340 J1.6055
G03 X9.156 Y21.036 I-3.5400 J3.4761
G03 X8.602 Y22.212 I-1.4424 J0.0387
G01 X7.938 Y22.774
G02 X14.238 Y28.050 I9.5918 J-5.0556
G03 X15.759 Y27.201 I1.4237 J0.7649
G01 X17.891 Y27.328
G01 X17.866 Y27.754
G01 X18.329 Y27.781
G03 X19.287 Y28.940 I-0.1925 J1.1342
G02 X28.636 Y21.195 I-1.5564 J-11.3942
G03 X27.603 Y20.196 I0.1556 J-1.1946
G01 Y19.834
G02 X10.030 Y10.242 I-10.0980 J-2.3938
G03 X8.308 Y10.737 I-1.1159 J-0.6377
G01 X7.846 Y11.418
G01 X7.459 Y12.098
G01 Y12.132
G01 X8.383 Y12.510
G03 X8.837 Y14.022 I-0.6571 J1.0212
G03 X8.719 Y20.842 I-3.0430 J3.3589
G03 X8.299 Y21.901 I-1.1282 J0.1648
G01 X7.527 Y22.564
G01 X7.384 Y22.657
G02 X14.499 Y28.587 I10.1933 J-4.9960
G03 X15.683 Y27.630 I1.1609 J0.2246
G01 X17.866 Y27.754
G01 X17.843 Y28.180
G01 X18.228 Y28.201
G03 X18.858 Y28.881 I-0.1094 J0.7332
G01 Y29.419
G02 X29.190 Y20.901 I-1.1137 J-11.8762
G01 X28.560 Y20.733
G03 X28.031 Y20.120 I0.2081 J-0.7145
G01 Y19.910
G02 X9.339 Y10.342 I-10.5335 J-2.4645
G03 X8.299 Y10.132 I-0.4116 J-0.6412
G01 X8.249 Y10.107
G02 X6.871 Y12.325 I7.9944 J6.5029
G01 X6.888 Y12.358
G01 X8.157 Y12.879
G03 X8.451 Y13.812 I-0.4076 J0.6411
G01 X8.291 Y14.122
G03 X8.232 Y20.691 I-2.5178 J3.2621
G03 X8.005 Y21.582 I-0.6793 J0.3010
G01 X7.233 Y22.245
G01 X7.048 Y22.346
G01 X6.796 Y22.438
G02 X14.843 Y29.125 I10.7715 J-4.7780
G01 X14.935 Y28.579
G03 X15.750 Y28.066 I0.7215 J0.2432
G01 X17.843 Y28.180
G00 Z20.000
G00 X17.500 Y20.184
G00 Z0.100
G01 Z-0.400 F120
G01 Y19.970 F400
G02 X16.861 Y15.114 I-0.0013 J-2.4703
G02 X15.030 Y17.500 I0.6394 J2.3863
G01 X15.114 Y18.139
G01 X15.118 Y18.149
G02 X17.500 Y19.970 I2.3813 J-0.6465
G00 Z20.000
G00 X9.806 Y18.221
G00 Z0.100
G01 Z-0.400 F120
G01 X9.593 Y18.169 F400
G01 X9.523 Y18.452
G01 X9.505 Y18.518
G01 X9.410 Y18.793
G01 X9.385 Y18.857
G01 X9.265 Y19.123
G01 X9.235 Y19.184
G01 X9.091 Y19.437
G01 X9.055 Y19.496
G01 X8.889 Y19.735
G01 X8.848 Y19.790
G01 X8.660 Y20.013
G01 X8.614 Y20.063
G01 X8.406 Y20.268
G01 X8.356 Y20.314
G01 X8.131 Y20.499
G01 X8.076 Y20.541
G01 X7.951 Y20.626
G01 X7.959 Y20.644
G03 X7.891 Y21.394 I-0.4255 J0.3396
G01 X7.141 Y22.034
G03 X6.500 Y22.332 I-1.1937 J-1.7290
G02 X15.023 Y29.400 I11.0831 J-4.6929
G01 X15.135 Y28.705
G03 X15.673 Y28.295 I0.5123 J0.1149
G01 X18.148 Y28.419
G03 X18.636 Y28.943 I-0.0371 J0.5237
G01 X18.640 Y29.658
G01 X18.767 Y29.651
G02 X29.463 Y20.750 I-1.0163 J-12.0996
G01 X28.630 Y20.526
G03 X28.245 Y20.020 I0.1397 J-0.5061
G01 X28.248 Y19.968
G01 X28.255 Y19.916
G02 X9.259 Y10.130 I-10.7413 J-2.4802
G03 X8.583 Y10.108 I-0.3252 J-0.4121
G01 X8.240 Y9.800
G01 X8.228 Y9.793
G02 X6.572 Y12.467 I7.9509 J6.7750
G01 X7.991 Y13.048
G03 X8.229 Y13.763 I-0.2283 J0.4728
G01 X8.016 Y14.172
G01 X8.023 Y14.196
G01 X8.130 Y14.272
G01 X8.185 Y14.313
G01 X8.406 Y14.503
G01 X8.456 Y14.549
G01 X8.660 Y14.759
G01 X8.705 Y14.809
G01 X8.888 Y15.036
G01 X8.929 Y15.091
G01 X9.091 Y15.334
G01 X9.127 Y15.392
G01 X9.265 Y15.649
G01 X9.295 Y15.710
G01 X9.410 Y15.978
G01 X9.434 Y16.042
G01 X9.523 Y16.319
G01 X9.542 Y16.385
G01 X9.605 Y16.670
G01 X9.618 Y16.737
G01 X9.655 Y17.026
G01 X9.661 Y17.094
G01 X9.671 Y17.386
G01 X9.672 Y17.454
G01 X9.655 Y17.745
G01 X9.649 Y17.813
G01 X9.605 Y18.101
G01 X9.593 Y18.169
G00 Z20.000
G00 X12.516 Y22.430
G00 Z0.100
G01 Z-0.800 F120
G01 X12.466 Y22.472 F400
G01 X12.382 Y22.598
G01 X12.298 Y22.917
G02 X13.785 Y24.085 I3.1764 J-2.5143
G01 X14.121 Y23.967
G01 X14.524 Y23.866
G01 X14.541 Y23.841
G03 X12.516 Y22.430 I2.7132 J-6.0498
G00 Z20.000
G00 X19.707 Y24.118
G00 Z0.100
G01 Z-0.800 F120
G01 Y24.135 F400
G01 X20.009 Y24.236
G01 X20.589 Y24.522
G02 X24.024 Y21.800 I-2.2698 J-6.3946
G01 X23.755 Y20.926
G01 X23.747 Y20.607
G03 X19.707 Y24.118 I-6.3388 J-3.2139
G01 X19.566 Y23.711
G03 X12.483 Y21.758 I-2.0995 J-6.2075
G01 X12.457
G01 X12.306 Y21.985
G01 X12.004 Y22.363
G01 X11.928 Y22.623
G01 X11.911 Y22.690
G01 X11.777 Y22.942
G02 X13.751 Y24.564 I4.0189 J-2.8811
G03 X15.960 Y24.186 I1.8645 J4.2520
G01 X18.547 Y24.345
G03 X20.563 Y25.000 I-0.3051 J4.3678
G02 X24.511 Y21.842 I-2.3965 J-7.0423
G01 X24.394 Y21.540
G01 X24.175 Y20.809
G01 Y19.230
G02 X12.340 Y12.820 I-6.6887 J-1.7810
G01 X12.348 Y12.871
G01 X12.525 Y13.131
G01 X12.558 Y13.148
G03 X22.197 Y22.052 I4.9166 J4.3467
G03 X19.566 Y23.711 I-4.6681 J-4.4864
G01 X19.416 Y23.304
G01 X19.364 Y23.323
G03 X12.415 Y20.994 I-1.8924 J-5.8826
G03 X11.609 Y22.170 I-5.1215 J-2.6474
G01 X11.508 Y22.531
G01 X11.458 Y22.623
G01 X11.256 Y23.026
G02 X13.751 Y25.042 I5.6063 J-4.3862
G03 X15.893 Y24.614 I1.8736 J3.7990
G01 X18.329 Y24.765
G03 X20.547 Y25.496 I-0.1288 J4.1208
G02 X24.999 Y21.876 I-2.6361 J-7.7891
G01 Y21.834
G01 X24.839 Y21.506
G01 X24.604 Y20.733
G01 Y19.305
G02 X11.886 Y12.678 I-7.1196 J-1.8539
G01 X11.928 Y13.014
G01 X12.264 Y13.509
G01 X12.483 Y13.921
G03 X23.407 Y15.917 I4.9859 J3.6039
G03 X19.416 Y23.304 I-5.9330 J1.5662
G01 X19.273 Y22.903
G03 X12.382 Y20.078 I-1.8015 J-5.4235
G03 X11.223 Y21.960 I-6.2784 J-2.5700
G01 X11.105 Y22.371
G01 X10.979 Y22.623
G01 X10.735 Y23.060
G02 X13.776 Y25.530 I6.2576 J-4.5981
G03 X15.826 Y25.042 I1.8426 J3.1969
G01 X18.396 Y25.202
G03 X20.496 Y25.992 I-0.1705 J3.6407
G02 X25.494 Y21.884 I-2.7570 J-8.4492
G01 X25.242 Y21.346
G01 X25.032 Y20.658
G01 Y19.381
G02 X11.424 Y12.552 I-7.5507 J-1.9268
G01 X11.500 Y13.005
G01 X11.508 Y13.173
G03 X12.432 Y14.828 I-5.6963 J4.2660
G03 X23.163 Y16.963 I5.0427 J2.6906
G03 X19.273 Y22.903 I-5.6915 J0.5170
G01 X19.142 Y22.494
G03 X12.348 Y18.709 I-1.6590 J-5.0121
G03 X10.819 Y21.766 I-6.3420 J-1.2600
G03 X10.198 Y23.035 I-2.6514 J-0.5128
G02 X13.818 Y26.017 I6.7271 J-4.4785
G03 X15.759 Y25.471 I1.8227 J2.7566
G01 X18.463 Y25.639
G03 X20.412 Y26.479 I-0.2399 J3.2371
G02 X25.990 Y21.850 I-2.6247 J-8.8379
G03 X25.461 Y20.582 I3.2126 J-2.0849
G01 Y19.456
G02 X11.155 Y12.216 I-7.9677 J-2.0101
G01 X10.920 Y12.392
G03 X11.088 Y13.324 I-3.0556 J1.0319
G03 X12.390 Y16.172 I-5.5185 J4.2447
G03 X22.519 Y19.067 I5.1002 J1.3231
G03 X19.142 Y22.494 I-5.0361 J-1.5847
G01 X19.009 Y22.084
G03 X12.653 Y17.508 I-1.5232 J-4.5861
G01 X12.665 Y17.140
G03 X22.316 Y17.849 I4.8252 J0.3532
G03 X19.009 Y22.084 I-4.8089 J-0.3460
G01 X18.861 Y21.685
G03 X13.181 Y16.580 I-1.3665 J-4.1917
G03 X20.441 Y14.214 I4.3134 J0.9125
G03 X18.861 Y21.685 I-2.9469 J3.2793
G01 X18.724 Y21.277
G03 X13.522 Y17.565 I-1.2287 J-3.7793
G01 X13.531 Y17.218
G03 X21.429 Y18.117 I3.9686 J0.2768
G03 X18.724 Y21.277 I-3.9168 J-0.6153
G01 X18.609 Y20.868
G03 X13.964 Y17.751 I-1.1082 J-3.3676
G01 X13.956 Y17.381
G03 X21.019 Y17.957 I3.5457 J0.1170
G03 X18.609 Y20.868 I-3.5127 J-0.4560
G01 X18.469 Y20.461
G03 X14.393 Y17.678 I-0.9692 J-2.9562
G01 X14.391 Y17.353
G03 X20.606 Y17.789 I3.1132 J0.1361
G03 X18.469 Y20.461 I-3.0917 J-0.2825
G01 X18.340 Y20.051
G03 X14.809 Y17.558 I-0.8338 J-2.5662
G01 Y17.432
G01 X14.885 Y16.861
G03 X15.952 Y15.290 I2.7383 J0.7119
G03 X18.965 Y19.753 I1.5391 J2.2099
G03 X18.340 Y20.051 I-1.4160 J-2.1664
G00 Z20.000
G00 X17.995 Y25.610
G00 Z-0.300
G01 Z-0.800 F120
G01 X17.968 Y26.041 F400
G01 X18.396 Y26.067
G03 X20.278 Y26.966 I-0.1724 J2.7798
G02 X26.494 Y21.842 I-2.5126 J-9.3805
G03 X25.889 Y20.506 I2.8091 J-2.0768
G01 Y19.532
G02 X10.895 Y11.871 I-8.3854 J-2.0917
G01 X10.567 Y12.123
G01 X10.383 Y12.224
G03 X10.668 Y13.484 I-2.7972 J1.2964
G03 X10.416 Y21.573 I-4.7995 J3.8990
G03 X9.635 Y23.010 I-2.4890 J-0.4230
G02 X13.885 Y26.512 I7.5031 J-4.7743
G03 X15.826 Y25.908 I1.7462 J2.1873
G01 X17.968 Y26.041
G01 X17.942 Y26.472
G01 X18.463 Y26.504
G03 X20.101 Y27.453 I-0.2336 J2.2911
G02 X27.015 Y21.750 I-2.2987 J-9.8276
G03 X26.317 Y20.431 I1.7797 J-1.7846
G01 Y19.608
G02 X10.979 Y11.132 I-8.8125 J-2.1687
G03 X9.761 Y12.031 I-1.9452 J-1.3614
G03 X10.240 Y13.635 I-2.1975 J1.5294
G03 X10.005 Y21.388 I-4.4109 J3.7464
G03 X9.064 Y22.951 I-2.2730 J-0.3042
G02 X13.953 Y27.025 I8.3733 J-5.0777
G03 X15.759 Y26.336 I1.6751 J1.6800
G01 X17.942 Y26.472
G01 X17.916 Y26.898
G01 X18.354 Y26.924
G03 X19.900 Y27.949 I-0.1503 J1.9046
G02 X27.544 Y21.657 I-2.1463 J-10.3971
G03 X26.746 Y20.355 I1.3554 J-1.7263
G01 Y19.683
G02 X10.685 Y10.813 I-9.2374 J-2.2499
G03 X8.812 Y11.745 I-1.7650 J-1.1981
G03 X9.795 Y13.778 I-1.1034 J1.7875
G03 X9.585 Y21.212 I-3.9904 J3.6072
G03 X8.980 Y22.455 I-1.8020 J-0.1079
G01 X8.493 Y22.867
G02 X14.062 Y27.537 I9.0505 J-5.1365
G03 X15.826 Y26.773 I1.5893 J1.2501
G01 X17.916 Y26.898
G01 X17.891 Y27.328
G01 X18.430 Y27.361
G03 X19.639 Y28.444 I-0.2678 J1.5159
G02 X28.023 Y21.624 I-1.9249 J-10.9280
G01 X28.065 Y21.464
G03 X27.174 Y20.280 I0.7465 J-1.4881
G01 Y19.759
G02 X10.357 Y10.527 I-9.6676 J-2.3219
G03 X8.467 Y11.266 I-1.4574 J-0.9406
G01 X8.165 Y11.720
G01 X8.073 Y11.888
G01 Y11.922
G03 X9.333 Y13.912 I-0.3340 J1.6055
G03 X9.156 Y21.036 I-3.5400 J3.4761
G03 X8.602 Y22.212 I-1.4424 J0.0387
G01 X7.938 Y22.774
G02 X14.238 Y28.050 I9.5918 J-5.0556
G03 X15.759 Y27.201 I1.4237 J0.7649
G01 X17.891 Y27.328
G01 X17.866 Y27.754
G01 X18.329 Y27.781
G03 X19.287 Y28.940 I-0.1925 J1.1342
G02 X28.636 Y21.195 I-1.5564 J-11.3942
G03 X27.603 Y20.196 I0.1556 J-1.1946
G01 Y19.834
G02 X10.030 Y10.242 I-10.0980 J-2.3938
G03 X8.308 Y10.737 I-1.1159 J-0.6377
G01 X7.846 Y11.418
G01 X7.459 Y12.098
G01 Y12.132
G01 X8.383 Y12.510
G03 X8.837 Y14.022 I-0.6571 J1.0212
G03 X8.719 Y20.842 I-3.0430 J3.3589
G03 X8.299 Y21.901 I-1.1282 J0.1648
G01 X7.527 Y22.564
G01 X7.384 Y22.657
G02 X14.499 Y28.587 I10.1933 J-4.9960
G03 X15.683 Y27.630 I1.1609 J0.2246
G01 X17.866 Y27.754
G01 X17.843 Y28.180
G01 X18.228 Y28.201
G03 X18.858 Y28.881 I-0.1094 J0.7332
G01 Y29.419
G02 X29.190 Y20.901 I-1.1137 J-11.8762
G01 X28.560 Y20.733
G03 X28.031 Y20.120 I0.2081 J-0.7145
G01 Y19.910
G02 X9.339 Y10.342 I-10.5335 J-2.4645
G03 X8.299 Y10.132 I-0.4116 J-0.6412
G01 X8.249 Y10.107
G02 X6.871 Y12.325 I7.9944 J6.5029
G01 X6.888 Y12.358
G01 X8.157 Y12.879
G03 X8.451 Y13.812 I-0.4076 J0.6411
G01 X8.291 Y14.122
G03 X8.232 Y20.691 I-2.5178 J3.2621
G03 X8.005 Y21.582 I-0.6793 J0.3010
G01 X7.233 Y22.245
G01 X7.048 Y22.346
G01 X6.796 Y22.438
G02 X14.843 Y29.125 I10.7715 J-4.7780
G01 X14.935 Y28.579
G03 X15.750 Y28.066 I0.7215 J0.2432
G01 X17.843 Y28.180
G00 Z20.000
G00 X17.500 Y20.184
G00 Z-0.300
G01 Z-0.800 F120
G01 Y19.970 F400
G02 X16.861 Y15.114 I-0.0013 J-2.4703
G02 X15.030 Y17.500 I0.6394 J2.3863
G01 X15.114 Y18.139
G01 X15.118 Y18.149
G02 X17.500 Y19.970 I2.3813 J-0.6465
G00 Z20.000
G00 X9.806 Y18.221
G00 Z-0.300
G01 Z-0.800 F120
G01 X9.593 Y18.169 F400
G01 X9.523 Y18.452
G01 X9.505 Y18.518
G01 X9.410 Y18.793
G01 X9.385 Y18.857
G01 X9.265 Y19.123
G01 X9.235 Y19.184
G01 X9.091 Y19.437
G01 X9.055 Y19.496
G01 X8.889 Y19.735
G01 X8.848 Y19.790
G01 X8.660 Y20.013
G01 X8.614 Y20.063
G01 X8.406 Y20.268
G01 X8.356 Y20.314
G01 X8.131 Y20.499
G01 X8.076 Y20.541
G01 X7.951 Y20.626
G01 X7.959 Y20.644
G03 X7.891 Y21.394 I-0.4255 J0.3396
G01 X7.141 Y22.034
G03 X6.500 Y22.332 I-1.1937 J-1.7290
G02 X15.023 Y29.400 I11.0831 J-4.6929
G01 X15.135 Y28.705
G03 X15.673 Y28.295 I0.5123 J0.1149
G01 X18.148 Y28.419
G03 X18.636 Y28.943 I-0.0371 J0.5237
G01 X18.640 Y29.658
G01 X18.767 Y29.651
G02 X29.463 Y20.750 I-1.0163 J-12.0996
G01 X28.630 Y20.526
G03 X28.245 Y20.020 I0.1397 J-0.5061
G01 X28.248 Y19.968
G01 X28.255 Y19.916
G02 X9.259 Y10.130 I-10.7413 J-2.4802
G03 X8.583 Y10.108 I-0.3252 J-0.4121
G01 X8.240 Y9.800
G01 X8.228 Y9.793
G02 X6.572 Y12.467 I7.9509 J6.7750
G01 X7.991 Y13.048
G03 X8.229 Y13.763 I-0.2283 J0.4728
G01 X8.016 Y14.172
G01 X8.023 Y14.196
G01 X8.130 Y14.272
G01 X8.185 Y14.313
G01 X8.406 Y14.503
G01 X8.456 Y14.549
G01 X8.660 Y14.759
G01 X8.705 Y14.809
G01 X8.888 Y15.036
G01 X8.929 Y15.091
G01 X9.091 Y15.334
G01 X9.127 Y15.392
G01 X9.265 Y15.649
G01 X9.295 Y15.710
G01 X9.410 Y15.978
G01 X9.434 Y16.042
G01 X9.523 Y16.319
G01 X9.542 Y16.385
G01 X9.605 Y16.670
G01 X9.618 Y16.737
G01 X9.655 Y17.026
G01 X9.661 Y17.094
G01 X9.671 Y17.386
G01 X9.672 Y17.454
G01 X9.655 Y17.745
G01 X9.649 Y17.813
G01 X9.605 Y18.101
G01 X9.593 Y18.169
G00 Z20.000
G00 X12.516 Y22.430
G00 Z-0.300
G01 Z-1.200 F120
G01 X12.466 Y22.472 F400
G01 X12.382 Y22.598
G01 X12.298 Y22.917
G02 X13.785 Y24.085 I3.1764 J-2.5143
G01 X14.121 Y23.967
G01 X14.524 Y23.866
G01 X14.541 Y23.841
G03 X12.516 Y22.430 I2.7132 J-6.0498
G00 Z20.000
G00 X19.707 Y24.118
G00 Z-0.300
G01 Z-1.200 F120
G01 Y24.135 F400
G01 X20.009 Y24.236
G01 X20.589 Y24.522
G02 X24.024 Y21.800 I-2.2698 J-6.3946
G01 X23.755 Y20.926
G01 X23.747 Y20.607
G03 X19.707 Y24.118 I-6.3388 J-3.2139
G01 X19.566 Y23.711
G03 X12.483 Y21.758 I-2.0995 J-6.2075
G01 X12.457
G01 X12.306 Y21.985
G01 X12.004 Y22.363
G01 X11.928 Y22.623
G01 X11.911 Y22.690
G01 X11.777 Y22.942
G02 X13.751 Y24.564 I4.0189 J-2.8811
G03 X15.960 Y24.186 I1.8645 J4.2520
G01 X18.547 Y24.345
G03 X20.563 Y25.000 I-0.3051 J4.3678
G02 X24.511 Y21.842 I-2.3965 J-7.0423
G01 X24.394 Y21.540
G01 X24.175 Y20.809
G01 Y19.230
G02 X12.340 Y12.820 I-6.6887 J-1.7810
G01 X12.348 Y12.871
G01 X12.525 Y13.131
G01 X12.558 Y13.148
G03 X22.197 Y22.052 I4.9166 J4.3467
G03 X19.566 Y23.711 I-4.6681 J-4.4864
G01 X19.416 Y23.304
G01 X19.364 Y23.323
G03 X12.415 Y20.994 I-1.8924 J-5.8826
G03 X11.609 Y22.170 I-5.1215 J-2.6474
G01 X11.508 Y22.531
G01 X11.458 Y22.623
G01 X11.256 Y23.026
G02 X13.751 Y25.042 I5.6063 J-4.3862
G03 X15.893 Y24.614 I1.8736 J3.7990
G01 X18.329 Y24.765
G03 X20.547 Y25.496 I-0.1288 J4.1208
G02 X24.999 Y21.876 I-2.6361 J-7.7891
G01 Y21.834
G01 X24.839 Y21.506
G01 X24.604 Y20.733
G01 Y19.305
G02 X11.886 Y12.678 I-7.1196 J-1.8539
G01 X11.928 Y13.014
G01 X12.264 Y13.509
G01 X12.483 Y13.921
G03 X23.407 Y15.917 I4.9859 J3.6039
G03 X19.416 Y23.304 I-5.9330 J1.5662
G01 X19.273 Y22.903
G03 X12.382 Y20.078 I-1.8015 J-5.4235
G03 X11.223 Y21.960 I-6.2784 J-2.5700
G01 X11.105 Y22.371
G01 X10.979 Y22.623
G01 X10.735 Y23.060
G02 X13.776 Y25.530 I6.2576 J-4.5981
G03 X15.826 Y25.042 I1.8426 J3.1969
G01 X18.396 Y25.202
G03 X20.496 Y25.992 I-0.1705 J3.6407
G02 X25.494 Y21.884 I-2.7570 J-8.4492
G01 X25.242 Y21.346
G01 X25.032 Y20.658
G01 Y19.381
G02 X11.424 Y12.552 I-7.5507 J-1.9268
G01 X11.500 Y13.005
G01 X11.508 Y13.173
G03 X12.432 Y14.828 I-5.6963 J4.2660
G03 X23.163 Y16.963 I5.0427 J2.6906
G03 X19.273 Y22.903 I-5.6915 J0.5170
G01 X19.142 Y22.494
G03 X12.348 Y18.709 I-1.6590 J-5.0121
G03 X10.819 Y21.766 I-6.3420 J-1.2600
G03 X10.198 Y23.035 I-2.6514 J-0.5128
G02 X13.818 Y26.017 I6.7271 J-4.4785
G03 X15.759 Y25.471 I1.8227 J2.7566
G01 X18.463 Y25.639
G03 X20.412 Y26.479 I-0.2399 J3.2371
G02 X25.990 Y21.850 I-2.6247 J-8.8379
G03 X25.461 Y20.582 I3.2126 J-2.0849
G01 Y19.456
G02 X11.155 Y12.216 I-7.9677 J-2.0101
G01 X10.920 Y12.392
G03 X11.088 Y13.324 I-3.0556 J1.0319
G03 X12.390 Y16.172 I-5.5185 J4.2447
G03 X22.519 Y19.067 I5.1002 J1.3231
G03 X19.142 Y22.494 I-5.0361 J-1.5847
G01 X19.009 Y22.084
G03 X12.653 Y17.508 I-1.5232 J-4.5861
G01 X12.665 Y17.140
G03 X22.316 Y17.849 I4.8252 J0.3532
G03 X19.009 Y22.084 I-4.8089 J-0.3460
G01 X18.861 Y21.685
G03 X13.181 Y16.580 I-1.3665 J-4.1917
G03 X20.441 Y14.214 I4.3134 J0.9125
G03 X18.861 Y21.685 I-2.9469 J3.2793
G01 X18.724 Y21.277
G03 X13.522 Y17.565 I-1.2287 J-3.7793
G01 X13.531 Y17.218
G03 X21.429 Y18.117 I3.9686 J0.2768
G03 X18.724 Y21.277 I-3.9168 J-0.6153
G01 X18.609 Y20.868
G03 X13.964 Y17.751 I-1.1082 J-3.3676
G01 X13.956 Y17.381
G03 X21.019 Y17.957 I3.5457 J0.1170
G03 X18.609 Y20.868 I-3.5127 J-0.4560
G01 X18.469 Y20.461
G03 X14.393 Y17.678 I-0.9692 J-2.9562
G01 X14.391 Y17.353
G03 X20.606 Y17.789 I3.1132 J0.1361
G03 X18.469 Y20.461 I-3.0917 J-0.2825
G01 X18.340 Y20.051
G03 X14.809 Y17.558 I-0.8338 J-2.5662
G01 Y17.432
G01 X14.885 Y16.861
G03 X15.952 Y15.290 I2.7383 J0.7119
G03 X18.965 Y19.753 I1.5391 J2.2099
G03 X18.340 Y20.051 I-1.4160 J-2.1664
G00 Z20.000
G00 X17.995 Y25.610
G00 Z-0.700
G01 Z-1.200 F120
G01 X17.968 Y26.041 F400
G01 X18.396 Y26.067
G03 X20.278 Y26.966 I-0.1724 J2.7798
G02 X26.494 Y21.842 I-2.5126 J-9.3805
G03 X25.889 Y20.506 I2.8091 J-2.0768
G01 Y19.532
G02 X10.895 Y11.871 I-8.3854 J-2.0917
G01 X10.567 Y12.123
G01 X10.383 Y12.224
G03 X10.668 Y13.484 I-2.7972 J1.2964
G03 X10.416 Y21.573 I-4.7995 J3.8990
G03 X9.635 Y23.010 I-2.4890 J-0.4230
G02 X13.885 Y26.512 I7.5031 J-4.7743
G03 X15.826 Y25.908 I1.7462 J2.1873
G01 X17.968 Y26.041
G01 X17.942 Y26.472
G01 X18.463 Y26.504
G03 X20.101 Y27.453 I-0.2336 J2.2911
G02 X27.015 Y21.750 I-2.2987 J-9.8276
G03 X26.317 Y20.431 I1.7797 J-1.7846
G01 Y19.608
G02 X10.979 Y11.132 I-8.8125 J-2.1687
G03 X9.761 Y12.031 I-1.9452 J-1.3614
G03 X10.240 Y13.635 I-2.1975 J1.5294
G03 X10.005 Y21.388 I-4.4109 J3.7464
G03 X9.064 Y22.951 I-2.2730 J-0.3042
G02 X13.953 Y27.025 I8.3733 J-5.0777
G03 X15.759 Y26.336 I1.6751 J1.6800
G01 X17.942 Y26.472
G01 X17.916 Y26.898
G01 X18.354 Y26.924
G03 X19.900 Y27.949 I-0.1503 J1.9046
G02 X27.544 Y21.657 I-2.1463 J-10.3971
G03 X26.746 Y20.355 I1.3554 J-1.7263
G01 Y19.683
G02 X10.685 Y10.813 I-9.2374 J-2.2499
G03 X8.812 Y11.745 I-1.7650 J-1.1981
G03 X9.795 Y13.778 I-1.1034 J1.7875
G03 X9.585 Y21.212 I-3.9904 J3.6072
G03 X8.980 Y22.455 I-1.8020 J-0.1079
G01 X8.493 Y22.867
G02 X14.062 Y27.537 I9.0505 J-5.1365
G03 X15.826 Y26.773 I1.5893 J1.2501
G01 X17.916 Y26.898
G01 X17.891 Y27.328
G01 X18.430 Y27.361
G03 X19.639 Y28.444 I-0.2678 J1.5159
G02 X28.023 Y21.624 I-1.9249 J-10.9280
G01 X28.065 Y21.464
G03 X27.174 Y20.280 I0.7465 J-1.4881
G01 Y19.759
G02 X10.357 Y10.527 I-9.6676 J-2.3219
G03 X8.467 Y11.266 I-1.4574 J-0.9406
G01 X8.165 Y11.720
G01 X8.073 Y11.888
G01 Y11.922
G03 X9.333 Y13.912 I-0.3340 J1.6055
G03 X9.156 Y21.036 I-3.5400 J3.4761
G03 X8.602 Y22.212 I-1.4424 J0.0387
G01 X7.938 Y22.774
G02 X14.238 Y28.050 I9.5918 J-5.0556
G03 X15.759 Y27.201 I1.4237 J0.7649
G01 X17.891 Y27.328
G01 X17.866 Y27.754
G01 X18.329 Y27.781
G03 X19.287 Y28.940 I-0.1925 J1.1342
G02 X28.636 Y21.195 I-1.5564 J-11.3942
G03 X27.603 Y20.196 I0.1556 J-1.1946
G01 Y19.834
G02 X10.030 Y10.242 I-10.0980 J-2.3938
G03 X8.308 Y10.737 I-1.1159 J-0.6377
G01 X7.846 Y11.418
G01 X7.459 Y12.098
G01 Y12.132
G01 X8.383 Y12.510
G03 X8.837 Y14.022 I-0.6571 J1.0212
G03 X8.719 Y20.842 I-3.0430 J3.3589
G03 X8.299 Y21.901 I-1.1282 J0.1648
G01 X7.527 Y22.564
G01 X7.384 Y22.657
G02 X14.499 Y28.587 I10.1933 J-4.9960
G03 X15.683 Y27.630 I1.1609 J0.2246
G01 X17.866 Y27.754
G01 X17.843 Y28.180
G01 X18.228 Y28.201
G03 X18.858 Y28.881 I-0.1094 J0.7332
G01 Y29.419
G02 X29.190 Y20.901 I-1.1137 J-11.8762
G01 X28.560 Y20.733
G03 X28.031 Y20.120 I0.2081 J-0.7145
G01 Y19.910
G02 X9.339 Y10.342 I-10.5335 J-2.4645
G03 X8.299 Y10.132 I-0.4116 J-0.6412
G01 X8.249 Y10.107
G02 X6.871 Y12.325 I7.9944 J6.5029
G01 X6.888 Y12.358
G01 X8.157 Y12.879
G03 X8.451 Y13.812 I-0.4076 J0.6411
G01 X8.291 Y14.122
G03 X8.232 Y20.691 I-2.5178 J3.2621
G03 X8.005 Y21.582 I-0.6793 J0.3010
G01 X7.233 Y22.245
G01 X7.048 Y22.346
G01 X6.796 Y22.438
G02 X14.843 Y29.125 I10.7715 J-4.7780
G01 X14.935 Y28.579
G03 X15.750 Y28.066 I0.7215 J0.2432
G01 X17.843 Y28.180
G00 Z20.000
G00 X17.500 Y20.184
G00 Z-0.700
G01 Z-1.200 F120
G01 Y19.970 F400
G02 X16.861 Y15.114 I-0.0013 J-2.4703
G02 X15.030 Y17.500 I0.6394 J2.3863
G01 X15.114 Y18.139
G01 X15.118 Y18.149
G02 X17.500 Y19.970 I2.3813 J-0.6465
G00 Z20.000
G00 X9.806 Y18.221
G00 Z-0.700
G01 Z-1.200 F120
G01 X9.593 Y18.169 F400
G01 X9.523 Y18.452
G01 X9.505 Y18.518
G01 X9.410 Y18.793
G01 X9.385 Y18.857
G01 X9.265 Y19.123
G01 X9.235 Y19.184
G01 X9.091 Y19.437
G01 X9.055 Y19.496
G01 X8.889 Y19.735
G01 X8.848 Y19.790
G01 X8.660 Y20.013
G01 X8.614 Y20.063
G01 X8.406 Y20.268
G01 X8.356 Y20.314
G01 X8.131 Y20.499
G01 X8.076 Y20.541
G01 X7.951 Y20.626
G01 X7.959 Y20.644
G03 X7.891 Y21.394 I-0.4255 J0.3396
G01 X7.141 Y22.034
G03 X6.500 Y22.332 I-1.1937 J-1.7290
G02 X15.023 Y29.400 I11.0831 J-4.6929
G01 X15.135 Y28.705
G03 X15.673 Y28.295 I0.5123 J0.1149
G01 X18.148 Y28.419
G03 X18.636 Y28.943 I-0.0371 J0.5237
G01 X18.640 Y29.658
G01 X18.767 Y29.651
G02 X29.463 Y20.750 I-1.0163 J-12.0996
G01 X28.630 Y20.526
G03 X28.245 Y20.020 I0.1397 J-0.5061
G01 X28.248 Y19.968
G01 X28.255 Y19.916
G02 X9.259 Y10.130 I-10.7413 J-2.4802
G03 X8.583 Y10.108 I-0.3252 J-0.4121
G01 X8.240 Y9.800
G01 X8.228 Y9.793
G02 X6.572 Y12.467 I7.9509 J6.7750
G01 X7.991 Y13.048
G03 X8.229 Y13.763 I-0.2283 J0.4728
G01 X8.016 Y14.172
G01 X8.023 Y14.196
G01 X8.130 Y14.272
G01 X8.185 Y14.313
G01 X8.406 Y14.503
G01 X8.456 Y14.549
G01 X8.660 Y14.759
G01 X8.705 Y14.809
G01 X8.888 Y15.036
G01 X8.929 Y15.091
G01 X9.091 Y15.334
G01 X9.127 Y15.392
G01 X9.265 Y15.649
G01 X9.295 Y15.710
G01 X9.410 Y15.978
G01 X9.434 Y16.042
G01 X9.523 Y16.319
G01 X9.542 Y16.385
G01 X9.605 Y16.670
G01 X9.618 Y16.737
G01 X9.655 Y17.026
G01 X9.661 Y17.094
G01 X9.671 Y17.386
G01 X9.672 Y17.454
G01 X9.655 Y17.745
G01 X9.649 Y17.813
G01 X9.605 Y18.101
G01 X9.593 Y18.169
G00 Z20.000
G00 X12.516 Y22.430
G00 Z-0.700
G01 Z-1.600 F120
G01 X12.466 Y22.472 F400
G01 X12.382 Y22.598
G01 X12.298 Y22.917
G02 X13.785 Y24.085 I3.1764 J-2.5143
G01 X14.121 Y23.967
G01 X14.524 Y23.866
G01 X14.541 Y23.841
G03 X12.516 Y22.430 I2.7132 J-6.0498
G00 Z20.000
G00 X19.707 Y24.118
G00 Z-0.700
G01 Z-1.600 F120
G01 Y24.135 F400
G01 X20.009 Y24.236
G01 X20.589 Y24.522
G02 X24.024 Y21.800 I-2.2698 J-6.3946
G01 X23.755 Y20.926
G01 X23.747 Y20.607
G03 X19.707 Y24.118 I-6.3388 J-3.2139
G01 X19.566 Y23.711
G03 X12.483 Y21.758 I-2.0995 J-6.2075
G01 X12.457
G01 X12.306 Y21.985
G01 X12.004 Y22.363
G01 X11.928 Y22.623
G01 X11.911 Y22.690
G01 X11.777 Y22.942
G02 X13.751 Y24.564 I4.0189 J-2.8811
G03 X15.960 Y24.186 I1.8645 J4.2520
G01 X18.547 Y24.345
G03 X20.563 Y25.000 I-0.3051 J4.3678
G02 X24.511 Y21.842 I-2.3965 J-7.0423
G01 X24.394 Y21.540
G01 X24.175 Y20.809
G01 Y19.230
G02 X12.340 Y12.820 I-6.6887 J-1.7810
G01 X12.348 Y12.871
G01 X12.525 Y13.131
G01 X12.558 Y13.148
G03 X22.197 Y22.052 I4.9166 J4.3467
G03 X19.566 Y23.711 I-4.6681 J-4.4864
G01 X19.416 Y23.304
G01 X19.364 Y23.323
G03 X12.415 Y20.994 I-1.8924 J-5.8826
G03 X11.609 Y22.170 I-5.1215 J-2.6474
G01 X11.508 Y22.531
G01 X11.458 Y22.623
G01 X11.256 Y23.026
G02 X13.751 Y25.042 I5.6063 J-4.3862
G03 X15.893 Y24.614 I1.8736 J3.7990
G01 X18.329 Y24.765
G03 X20.547 Y25.496 I-0.1288 J4.1208
G02 X24.999 Y21.876 I-2.6361 J-7.7891
G01 Y21.834
G01 X24.839 Y21.506
G01 X24.604 Y20.733
G01 Y19.305
G02 X11.886 Y12.678 I-7.1196 J-1.8539
G01 X11.928 Y13.014
G01 X12.264 Y13.509
G01 X12.483 Y13.921
G03 X23.407 Y15.917 I4.9859 J3.6039
G03 X19.416 Y23.304 I-5.9330 J1.5662
G01 X19.273 Y22.903
G03 X12.382 Y20.078 I-1.8015 J-5.4235
G03 X11.223 Y21.960 I-6.2784 J-2.5700
G01 X11.105 Y22.371
G01 X10.979 Y22.623
G01 X10.735 Y23.060
G02 X13.776 Y25.530 I6.2576 J-4.5981
G03 X15.826 Y25.042 I1.8426 J3.1969
G01 X18.396 Y25.202
G03 X20.496 Y25.992 I-0.1705 J3.6407
G02 X25.494 Y21.884 I-2.7570 J-8.4492
G01 X25.242 Y21.346
G01 X25.032 Y20.658
G01 Y19.381
G02 X11.424 Y12.552 I-7.5507 J-1.9268
G01 X11.500 Y13.005
G01 X11.508 Y13.173
G03 X12.432 Y14.828 I-5.6963 J4.2660
G03 X23.163 Y16.963 I5.0427 J2.6906
G03 X19.273 Y22.903 I-5.6915 J0.5170
G01 X19.142 Y22.494
G03 X12.348 Y18.709 I-1.6590 J-5.0121
G03 X10.819 Y21.766 I-6.3420 J-1.2600
G03 X10.198 Y23.035 I-2.6514 J-0.5128
G02 X13.818 Y26.017 I6.7271 J-4.4785
G03 X15.759 Y25.471 I1.8227 J2.7566
G01 X18.463 Y25.639
G03 X20.412 Y26.479 I-0.2399 J3.2371
G02 X25.990 Y21.850 I-2.6247 J-8.8379
G03 X25.461 Y20.582 I3.2126 J-2.0849
G01 Y19.456
G02 X11.155 Y12.216 I-7.9677 J-2.0101
G01 X10.920 Y12.392
G03 X11.088 Y13.324 I-3.0556 J1.0319
G03 X12.390 Y16.172 I-5.5185 J4.2447
G03 X22.519 Y19.067 I5.1002 J1.3231
G03 X19.142 Y22.494 I-5.0361 J-1.5847
G01 X19.009 Y22.084
G03 X12.653 Y17.508 I-1.5232 J-4.5861
G01 X12.665 Y17.140
G03 X22.316 Y17.849 I4.8252 J0.3532
G03 X19.009 Y22.084 I-4.8089 J-0.3460
G01 X18.861 Y21.685
G03 X13.181 Y16.580 I-1.3665 J-4.1917
G03 X20.441 Y14.214 I4.3134 J0.9125
G03 X18.861 Y21.685 I-2.9469 J3.2793
G01 X18.724 Y21.277
G03 X13.522 Y17.565 I-1.2287 J-3.7793
G01 X13.531 Y17.218
G03 X21.429 Y18.117 I3.9686 J0.2768
G03 X18.724 Y21.277 I-3.9168 J-0.6153
G01 X18.609 Y20.868
G03 X13.964 Y17.751 I-1.1082 J-3.3676
G01 X13.956 Y17.381
G03 X21.019 Y17.957 I3.5457 J0.1170
G03 X18.609 Y20.868 I-3.5127 J-0.4560
G01 X18.469 Y20.461
G03 X14.393 Y17.678 I-0.9692 J-2.9562
G01 X14.391 Y17.353
G03 X20.606 Y17.789 I3.1132 J0.1361
G03 X18.469 Y20.461 I-3.0917 J-0.2825
G01 X18.340 Y20.051
G03 X14.809 Y17.558 I-0.8338 J-2.5662
G01 Y17.432
G01 X14.885 Y16.861
G03 X15.952 Y15.290 I2.7383 J0.7119
G03 X18.965 Y19.753 I1.5391 J2.2099
G03 X18.340 Y20.051 I-1.4160 J-2.1664
G00 Z20.000
G00 X17.995 Y25.610
G00 Z-1.100
G01 Z-1.600 F120
G01 X17.968 Y26.041 F400
G01 X18.396 Y26.067
G03 X20.278 Y26.966 I-0.1724 J2.7798
G02 X26.494 Y21.842 I-2.5126 J-9.3805
G03 X25.889 Y20.506 I2.8091 J-2.0768
G01 Y19.532
G02 X10.895 Y11.871 I-8.3854 J-2.0917
G01 X10.567 Y12.123
G01 X10.383 Y12.224
G03 X10.668 Y13.484 I-2.7972 J1.2964
G03 X10.416 Y21.573 I-4.7995 J3.8990
G03 X9.635 Y23.010 I-2.4890 J-0.4230
G02 X13.885 Y26.512 I7.5031 J-4.7743
G03 X15.826 Y25.908 I1.7462 J2.1873
G01 X17.968 Y26.041
G01 X17.942 Y26.472
G01 X18.463 Y26.504
G03 X20.101 Y27.453 I-0.2336 J2.2911
G02 X27.015 Y21.750 I-2.2987 J-9.8276
G03 X26.317 Y20.431 I1.7797 J-1.7846
G01 Y19.608
G02 X10.979 Y11.132 I-8.8125 J-2.1687
G03 X9.761 Y12.031 I-1.9452 J-1.3614
G03 X10.240 Y13.635 I-2.1975 J1.5294
G03 X10.005 Y21.388 I-4.4109 J3.7464
G03 X9.064 Y22.951 I-2.2730 J-0.3042
G02 X13.953 Y27.025 I8.3733 J-5.0777
G03 X15.759 Y26.336 I1.6751 J1.6800
G01 X17.942 Y26.472
G01 X17.916 Y26.898
G01 X18.354 Y26.924
G03 X19.900 Y27.949 I-0.1503 J1.9046
G02 X27.544 Y21.657 I-2.1463 J-10.3971
G03 X26.746 Y20.355 I1.3554 J-1.7263
G01 Y19.683
G02 X10.685 Y10.813 I-9.2374 J-2.2499
G03 X8.812 Y11.745 I-1.7650 J-1.1981
G03 X9.795 Y13.778 I-1.1034 J1.7875
G03 X9.585 Y21.212 I-3.9904 J3.6072
G03 X8.980 Y22.455 I-1.8020 J-0.1079
G01 X8.493 Y22.867
G02 X14.062 Y27.537 I9.0505 J-5.1365
G03 X15.826 Y26.773 I1.5893 J1.2501
G01 X17.916 Y26.898
G01 X17.891 Y27.328
G01 X18.430 Y27.361
G03 X19.639 Y28.444 I-0.2678 J1.5159
G02 X28.023 Y21.624 I-1.9249 J-10.9280
G01 X28.065 Y21.464
G03 X27.174 Y20.280 I0.7465 J-1.4881
G01 Y19.759
G02 X10.357 Y10.527 I-9.6676 J-2.3219
G03 X8.467 Y11.266 I-1.4574 J-0.9406
G01 X8.165 Y11.720
G01 X8.073 Y11.888
G01 Y11.922
G03 X9.333 Y13.912 I-0.3340 J1.6055
G03 X9.156 Y21.036 I-3.5400 J3.4761
G03 X8.602 Y22.212 I-1.4424 J0.0387
G01 X7.938 Y22.774
G02 X14.238 Y28.050 I9.5918 J-5.0556
G03 X15.759 Y27.201 I1.4237 J0.7649
G01 X17.891 Y27.328
G01 X17.866 Y27.754
G01 X18.329 Y27.781
G03 X19.287 Y28.940 I-0.1925 J1.1342
G02 X28.636 Y21.195 I-1.5564 J-11.3942
G03 X27.603 Y20.196 I0.1556 J-1.1946
G01 Y19.834
G02 X10.030 Y10.242 I-10.0980 J-2.3938
G03 X8.308 Y10.737 I-1.1159 J-0.6377
G01 X7.846 Y11.418
G01 X7.459 Y12.098
G01 Y12.132
G01 X8.383 Y12.510
G03 X8.837 Y14.022 I-0.6571 J1.0212
G03 X8.719 Y20.842 I-3.0430 J3.3589
G03 X8.299 Y21.901 I-1.1282 J0.1648
G01 X7.527 Y22.564
G01 X7.384 Y22.657
G02 X14.499 Y28.587 I10.1933 J-4.9960
G03 X15.683 Y27.630 I1.1609 J0.2246
G01 X17.866 Y27.754
G01 X17.843 Y28.180
G01 X18.228 Y28.201
G03 X18.858 Y28.881 I-0.1094 J0.7332
G01 Y29.419
G02 X29.190 Y20.901 I-1.1137 J-11.8762
G01 X28.560 Y20.733
G03 X28.031 Y20.120 I0.2081 J-0.7145
G01 Y19.910
G02 X9.339 Y10.342 I-10.5335 J-2.4645
G03 X8.299 Y10.132 I-0.4116 J-0.6412
G01 X8.249 Y10.107
G02 X6.871 Y12.325 I7.9944 J6.5029
G01 X6.888 Y12.358
G01 X8.157 Y12.879
G03 X8.451 Y13.812 I-0.4076 J0.6411
G01 X8.291 Y14.122
G03 X8.232 Y20.691 I-2.5178 J3.2621
G03 X8.005 Y21.582 I-0.6793 J0.3010
G01 X7.233 Y22.245
G01 X7.048 Y22.346
G01 X6.796 Y22.438
G02 X14.843 Y29.125 I10.7715 J-4.7780
G01 X14.935 Y28.579
G03 X15.750 Y28.066 I0.7215 J0.2432
G01 X17.843 Y28.180
G00 Z20.000
G00 X17.500 Y20.184
G00 Z-1.100
G01 Z-1.600 F120
G01 Y19.970 F400
G02 X16.861 Y15.114 I-0.0013 J-2.4703
G02 X15.030 Y17.500 I0.6394 J2.3863
G01 X15.114 Y18.139
G01 X15.118 Y18.149
G02 X17.500 Y19.970 I2.3813 J-0.6465
G00 Z20.000
G00 X9.806 Y18.221
G00 Z-1.100
G01 Z-1.600 F120
G01 X9.593 Y18.169 F400
G01 X9.523 Y18.452
G01 X9.505 Y18.518
G01 X9.410 Y18.793
G01 X9.385 Y18.857
G01 X9.265 Y19.123
G01 X9.235 Y19.184
G01 X9.091 Y19.437
G01 X9.055 Y19.496
G01 X8.889 Y19.735
G01 X8.848 Y19.790
G01 X8.660 Y20.013
G01 X8.614 Y20.063
G01 X8.406 Y20.268
G01 X8.356 Y20.314
G01 X8.131 Y20.499
G01 X8.076 Y20.541
G01 X7.951 Y20.626
G01 X7.959 Y20.644
G03 X7.891 Y21.394 I-0.4255 J0.3396
G01 X7.141 Y22.034
G03 X6.500 Y22.332 I-1.1937 J-1.7290
G02 X15.023 Y29.400 I11.0831 J-4.6929
G01 X15.135 Y28.705
G03 X15.673 Y28.295 I0.5123 J0.1149
G01 X18.148 Y28.419
G03 X18.636 Y28.943 I-0.0371 J0.5237
G01 X18.640 Y29.658
G01 X18.767 Y29.651
G02 X29.463 Y20.750 I-1.0163 J-12.0996
G01 X28.630 Y20.526
G03 X28.245 Y20.020 I0.1397 J-0.5061
G01 X28.248 Y19.968
G01 X28.255 Y19.916
G02 X9.259 Y10.130 I-10.7413 J-2.4802
G03 X8.583 Y10.108 I-0.3252 J-0.4121
G01 X8.240 Y9.800
G01 X8.228 Y9.793
G02 X6.572 Y12.467 I7.9509 J6.7750
G01 X7.991 Y13.048
G03 X8.229 Y13.763 I-0.2283 J0.4728
G01 X8.016 Y14.172
G01 X8.023 Y14.196
G01 X8.130 Y14.272
G01 X8.185 Y14.313
G01 X8.406 Y14.503
G01 X8.456 Y14.549
G01 X8.660 Y14.759
G01 X8.705 Y14.809
G01 X8.888 Y15.036
G01 X8.929 Y15.091
G01 X9.091 Y15.334
G01 X9.127 Y15.392
G01 X9.265 Y15.649
G01 X9.295 Y15.710
G01 X9.410 Y15.978
G01 X9.434 Y16.042
G01 X9.523 Y16.319
G01 X9.542 Y16.385
G01 X9.605 Y16.670
G01 X9.618 Y16.737
G01 X9.655 Y17.026
G01 X9.661 Y17.094
G01 X9.671 Y17.386
G01 X9.672 Y17.454
G01 X9.655 Y17.745
G01 X9.649 Y17.813
G01 X9.605 Y18.101
G01 X9.593 Y18.169
G00 Z20.000
G00 X12.516 Y22.430
G00 Z-1.100
G01 Z-2.000 F120
G01 X12.466 Y22.472 F400
G01 X12.382 Y22.598
G01 X12.298 Y22.917
G02 X13.785 Y24.085 I3.1764 J-2.5143
G01 X14.121 Y23.967
G01 X14.524 Y23.866
G01 X14.541 Y23.841
G03 X12.516 Y22.430 I2.7132 J-6.0498
G00 Z20.000
G00 X19.707 Y24.118
G00 Z-1.100
G01 Z-2.000 F120
G01 Y24.135 F400
G01 X20.009 Y24.236
G01 X20.589 Y24.522
G02 X24.024 Y21.800 I-2.2698 J-6.3946
G01 X23.755 Y20.926
G01 X23.747 Y20.607
G03 X19.707 Y24.118 I-6.3388 J-3.2139
G01 X19.566 Y23.711
G03 X12.483 Y21.758 I-2.0995 J-6.2075
G01 X12.457
G01 X12.306 Y21.985
G01 X12.004 Y22.363
G01 X11.928 Y22.623
G01 X11.911 Y22.690
G01 X11.777 Y22.942
G02 X13.751 Y24.564 I4.0189 J-2.8811
G03 X15.960 Y24.186 I1.8645 J4.2520
G01 X18.547 Y24.345
G03 X20.563 Y25.000 I-0.3051 J4.3678
G02 X24.511 Y21.842 I-2.3965 J-7.0423
G01 X24.394 Y21.540
G01 X24.175 Y20.809
G01 Y19.230
G02 X12.340 Y12.820 I-6.6887 J-1.7810
G01 X12.348 Y12.871
G01 X12.525 Y13.131
G01 X12.558 Y13.148
G03 X22.197 Y22.052 I4.9166 J4.3467
G03 X19.566 Y23.711 I-4.6681 J-4.4864
G01 X19.416 Y23.304
G01 X19.364 Y23.323
G03 X12.415 Y20.994 I-1.8924 J-5.8826
G03 X11.609 Y22.170 I-5.1215 J-2.6474
G01 X11.508 Y22.531
G01 X11.458 Y22.623
G01 X11.256 Y23.026
G02 X13.751 Y25.042 I5.6063 J-4.3862
G03 X15.893 Y24.614 I1.8736 J3.7990
G01 X18.329 Y24.765
G03 X20.547 Y25.496 I-0.1288 J4.1208
G02 X24.999 Y21.876 I-2.6361 J-7.7891
G01 Y21.834
G01 X24.839 Y21.506
G01 X24.604 Y20.733
G01 Y19.305
G02 X11.886 Y12.678 I-7.1196 J-1.8539
G01 X11.928 Y13.014
G01 X12.264 Y13.509
G01 X12.483 Y13.921
G03 X23.407 Y15.917 I4.9859 J3.6039
G03 X19.416 Y23.304 I-5.9330 J1.5662
G01 X19.273 Y22.903
G03 X12.382 Y20.078 I-1.8015 J-5.4235
G03 X11.223 Y21.960 I-6.2784 J-2.5700
G01 X11.105 Y22.371
G01 X10.979 Y22.623
G01 X10.735 Y23.060
G02 X13.776 Y25.530 I6.2576 J-4.5981
G03 X15.826 Y25.042 I1.8426 J3.1969
G01 X18.396 Y25.202
G03 X20.496 Y25.992 I-0.1705 J3.6407
G02 X25.494 Y21.884 I-2.7570 J-8.4492
G01 X25.242 Y21.346
G01 X25.032 Y20.658
G01 Y19.381
G02 X11.424 Y12.552 I-7.5507 J-1.9268
G01 X11.500 Y13.005
G01 X11.508 Y13.173
G03 X12.432 Y14.828 I-5.6963 J4.2660
G03 X23.163 Y16.963 I5.0427 J2.6906
G03 X19.273 Y22.903 I-5.6915 J0.5170
G01 X19.142 Y22.494
G03 X12.348 Y18.709 I-1.6590 J-5.0121
G03 X10.819 Y21.766 I-6.3420 J-1.2600
G03 X10.198 Y23.035 I-2.6514 J-0.5128
G02 X13.818 Y26.017 I6.7271 J-4.4785
G03 X15.759 Y25.471 I1.8227 J2.7566
G01 X18.463 Y25.639
G03 X20.412 Y26.479 I-0.2399 J3.2371
G02 X25.990 Y21.850 I-2.6247 J-8.8379
G03 X25.461 Y20.582 I3.2126 J-2.0849
G01 Y19.456
G02 X11.155 Y12.216 I-7.9677 J-2.0101
G01 X10.920 Y12.392
G03 X11.088 Y13.324 I-3.0556 J1.0319
G03 X12.390 Y16.172 I-5.5185 J4.2447
G03 X22.519 Y19.067 I5.1002 J1.3231
G03 X19.142 Y22.494 I-5.0361 J-1.5847
G01 X19.009 Y22.084
G03 X12.653 Y17.508 I-1.5232 J-4.5861
G01 X12.665 Y17.140
G03 X22.316 Y17.849 I4.8252 J0.3532
G03 X19.009 Y22.084 I-4.8089 J-0.3460
G01 X18.861 Y21.685
G03 X13.181 Y16.580 I-1.3665 J-4.1917
G03 X20.441 Y14.214 I4.3134 J0.9125
G03 X18.861 Y21.685 I-2.9469 J3.2793
G01 X18.724 Y21.277
G03 X13.522 Y17.565 I-1.2287 J-3.7793
G01 X13.531 Y17.218
G03 X21.429 Y18.117 I3.9686 J0.2768
G03 X18.724 Y21.277 I-3.9168 J-0.6153
G01 X18.609 Y20.868
G03 X13.964 Y17.751 I-1.1082 J-3.3676
G01 X13.956 Y17.381
G03 X21.019 Y17.957 I3.5457 J0.1170
G03 X18.609 Y20.868 I-3.5127 J-0.4560
G01 X18.469 Y20.461
G03 X14.393 Y17.678 I-0.9692 J-2.9562
G01 X14.391 Y17.353
G03 X20.606 Y17.789 I3.1132 J0.1361
G03 X18.469 Y20.461 I-3.0917 J-0.2825
G01 X18.340 Y20.051
G03 X14.809 Y17.558 I-0.8338 J-2.5662
G01 Y17.432
G01 X14.885 Y16.861
G03 X15.952 Y15.290 I2.7383 J0.7119
G03 X18.965 Y19.753 I1.5391 J2.2099
G03 X18.340 Y20.051 I-1.4160 J-2.1664
G00 Z20.000
G00 X17.995 Y25.610
G00 Z-1.500
G01 Z-2.000 F120
G01 X17.968 Y26.041 F400
G01 X18.396 Y26.067
G03 X20.278 Y26.966 I-0.1724 J2.7798
G02 X26.494 Y21.842 I-2.5126 J-9.3805
G03 X25.889 Y20.506 I2.8091 J-2.0768
G01 Y19.532
G02 X10.895 Y11.871 I-8.3854 J-2.0917
G01 X10.567 Y12.123
G01 X10.383 Y12.224
G03 X10.668 Y13.484 I-2.7972 J1.2964
G03 X10.416 Y21.573 I-4.7995 J3.8990
G03 X9.635 Y23.010 I-2.4890 J-0.4230
G02 X13.885 Y26.512 I7.5031 J-4.7743
G03 X15.826 Y25.908 I1.7462 J2.1873
G01 X17.968 Y26.041
G01 X17.942 Y26.472
G01 X18.463 Y26.504
G03 X20.101 Y27.453 I-0.2336 J2.2911
G02 X27.015 Y21.750 I-2.2987 J-9.8276
G03 X26.317 Y20.431 I1.7797 J-1.7846
G01 Y19.608
G02 X10.979 Y11.132 I-8.8125 J-2.1687
G03 X9.761 Y12.031 I-1.9452 J-1.3614
G03 X10.240 Y13.635 I-2.1975 J1.5294
G03 X10.005 Y21.388 I-4.4109 J3.7464
G03 X9.064 Y22.951 I-2.2730 J-0.3042
G02 X13.953 Y27.025 I8.3733 J-5.0777
G03 X15.759 Y26.336 I1.6751 J1.6800
G01 X17.942 Y26.472
G01 X17.916 Y26.898
G01 X18.354 Y26.924
G03 X19.900 Y27.949 I-0.1503 J1.9046
G02 X27.544 Y21.657 I-2.1463 J-10.3971
G03 X26.746 Y20.355 I1.3554 J-1.7263
G01 Y19.683
G02 X10.685 Y10.813 I-9.2374 J-2.2499
G03 X8.812 Y11.745 I-1.7650 J-1.1981
G03 X9.795 Y13.778 I-1.1034 J1.7875
G03 X9.585 Y21.212 I-3.9904 J3.6072
G03 X8.980 Y22.455 I-1.8020 J-0.1079
G01 X8.493 Y22.867
G02 X14.062 Y27.537 I9.0505 J-5.1365
G03 X15.826 Y26.773 I1.5893 J1.2501
G01 X17.916 Y26.898
G01 X17.891 Y27.328
G01 X18.430 Y27.361
G03 X19.639 Y28.444 I-0.2678 J1.5159
G02 X28.023 Y21.624 I-1.9249 J-10.9280
G01 X28.065 Y21.464
G03 X27.174 Y20.280 I0.7465 J-1.4881
G01 Y19.759
G02 X10.357 Y10.527 I-9.6676 J-2.3219
G03 X8.467 Y11.266 I-1.4574 J-0.9406
G01 X8.165 Y11.720
G01 X8.073 Y11.888
G01 Y11.922
G03 X9.333 Y13.912 I-0.3340 J1.6055
G03 X9.156 Y21.036 I-3.5400 J3.4761
G03 X8.602 Y22.212 I-1.4424 J0.0387
G01 X7.938 Y22.774
G02 X14.238 Y28.050 I9.5918 J-5.0556
G03 X15.759 Y27.201 I1.4237 J0.7649
G01 X17.891 Y27.328
G01 X17.866 Y27.754
G01 X18.329 Y27.781
G03 X19.287 Y28.940 I-0.1925 J1.1342
G02 X28.636 Y21.195 I-1.5564 J-11.3942
G03 X27.603 Y20.196 I0.1556 J-1.1946
G01 Y19.834
G02 X10.030 Y10.242 I-10.0980 J-2.3938
G03 X8.308 Y10.737 I-1.1159 J-0.6377
G01 X7.846 Y11.418
G01 X7.459 Y12.098
G01 Y12.132
G01 X8.383 Y12.510
G03 X8.837 Y14.022 I-0.6571 J1.0212
G03 X8.719 Y20.842 I-3.0430 J3.3589
G03 X8.299 Y21.901 I-1.1282 J0.1648
G01 X7.527 Y22.564
G01 X7.384 Y22.657
G02 X14.499 Y28.587 I10.1933 J-4.9960
G03 X15.683 Y27.630 I1.1609 J0.2246
G01 X17.866 Y27.754
G01 X17.843 Y28.180
G01 X18.228 Y28.201
G03 X18.858 Y28.881 I-0.1094 J0.7332
G01 Y29.419
G02 X29.190 Y20.901 I-1.1137 J-11.8762
G01 X28.560 Y20.733
G03 X28.031 Y20.120 I0.2081 J-0.7145
G01 Y19.910
G02 X9.339 Y10.342 I-10.5335 J-2.4645
G03 X8.299 Y10.132 I-0.4116 J-0.6412
G01 X8.249 Y10.107
G02 X6.871 Y12.325 I7.9944 J6.5029
G01 X6.888 Y12.358
G01 X8.157 Y12.879
G03 X8.451 Y13.812 I-0.4076 J0.6411
G01 X8.291 Y14.122
G03 X8.232 Y20.691 I-2.5178 J3.2621
G03 X8.005 Y21.582 I-0.6793 J0.3010
G01 X7.233 Y22.245
G01 X7.048 Y22.346
G01 X6.796 Y22.438
G02 X14.843 Y29.125 I10.7715 J-4.7780
G01 X14.935 Y28.579
G03 X15.750 Y28.066 I0.7215 J0.2432
G01 X17.843 Y28.180
G00 Z20.000
G00 X17.500 Y20.184
G00 Z-1.500
G01 Z-2.000 F120
G01 Y19.970 F400
G02 X16.861 Y15.114 I-0.0013 J-2.4703
G02 X15.030 Y17.500 I0.6394 J2.3863
G01 X15.114 Y18.139
G01 X15.118 Y18.149
G02 X17.500 Y19.970 I2.3813 J-0.6465
G00 Z20.000
G00 X9.806 Y18.221
G00 Z-1.500
G01 Z-2.000 F120
G01 X9.593 Y18.169 F400
G01 X9.523 Y18.452
G01 X9.505 Y18.518
G01 X9.410 Y18.793
G01 X9.385 Y18.857
G01 X9.265 Y19.123
G01 X9.235 Y19.184
G01 X9.091 Y19.437
G01 X9.055 Y19.496
G01 X8.889 Y19.735
G01 X8.848 Y19.790
G01 X8.660 Y20.013
G01 X8.614 Y20.063
G01 X8.406 Y20.268
G01 X8.356 Y20.314
G01 X8.131 Y20.499
G01 X8.076 Y20.541
G01 X7.951 Y20.626
G01 X7.959 Y20.644
G03 X7.891 Y21.394 I-0.4255 J0.3396
G01 X7.141 Y22.034
G03 X6.500 Y22.332 I-1.1937 J-1.7290
G02 X15.023 Y29.400 I11.0831 J-4.6929
G01 X15.135 Y28.705
G03 X15.673 Y28.295 I0.5123 J0.1149
G01 X18.148 Y28.419
G03 X18.636 Y28.943 I-0.0371 J0.5237
G01 X18.640 Y29.658
G01 X18.767 Y29.651
G02 X29.463 Y20.750 I-1.0163 J-12.0996
G01 X28.630 Y20.526
G03 X28.245 Y20.020 I0.1397 J-0.5061
G01 X28.248 Y19.968
G01 X28.255 Y19.916
G02 X9.259 Y10.130 I-10.7413 J-2.4802
G03 X8.583 Y10.108 I-0.3252 J-0.4121
G01 X8.240 Y9.800
G01 X8.228 Y9.793
G02 X6.572 Y12.467 I7.9509 J6.7750
G01 X7.991 Y13.048
G03 X8.229 Y13.763 I-0.2283 J0.4728
G01 X8.016 Y14.172
G01 X8.023 Y14.196
G01 X8.130 Y14.272
G01 X8.185 Y14.313
G01 X8.406 Y14.503
G01 X8.456 Y14.549
G01 X8.660 Y14.759
G01 X8.705 Y14.809
G01 X8.888 Y15.036
G01 X8.929 Y15.091
G01 X9.091 Y15.334
G01 X9.127 Y15.392
G01 X9.265 Y15.649
G01 X9.295 Y15.710
G01 X9.410 Y15.978
G01 X9.434 Y16.042
G01 X9.523 Y16.319
G01 X9.542 Y16.385
G01 X9.605 Y16.670
G01 X9.618 Y16.737
G01 X9.655 Y17.026
G01 X9.661 Y17.094
G01 X9.671 Y17.386
G01 X9.672 Y17.454
G01 X9.655 Y17.745
G01 X9.649 Y17.813
G01 X9.605 Y18.101
G01 X9.593 Y18.169
G00 Z20.000


(No. 3 Parallel pocket: Hole 12)
G00 X17.418 Y17.509 Z20.000
G00 Z0.500
G01 Z-0.400 F120
G01 X17.435 Y17.559 F400
G02 X17.576 Y17.452 I0.0626 J-0.0644
G02 X17.426 Y17.450 I-0.0751 J0.0355
G01 X17.418 Y17.509
G01 X16.988 Y17.512
G02 X18.004 Y17.537 I0.5087 J-0.0028
G02 X16.989 Y17.459 I-0.5064 J-0.0529
G01 X16.988 Y17.492
G01 Y17.512
G01 X16.559 Y17.525
G02 X18.439 Y17.507 I0.9399 J-0.0209
G02 X16.559 Y17.463 I-0.9402 J-0.0194
G01 Y17.509
G01 Y17.525
G01 X16.130 Y17.545
G02 X18.871 Y17.453 I1.3707 J-0.0427
G02 X16.131 Y17.399 I-1.3714 J0.0349
G01 X16.128 Y17.507
G01 X16.130 Y17.545
G01 X15.705 Y17.547
G01 Y17.565
G02 X19.307 Y17.368 I1.8030 J-0.0608
G02 X15.791 Y16.916 I-1.8023 J0.1215
G02 X15.704 Y17.434 I1.8291 J0.5735
G01 X15.705 Y17.547
G01 X15.265 Y17.500
G01 X15.259 Y17.551
G02 X19.737 Y17.335 I2.2420 J-0.0490
G02 X15.326 Y16.929 I-2.2394 J0.1651
G01 X15.265 Y17.500
G00 Z20.000
G00 X7.926 Y21.894
G00 Z0.500
G01 Z-0.400 F120
G01 X7.581 Y22.028 F400
G02 X28.696 Y19.358 I10.1582 J-4.4913
G02 X7.665 Y12.771 I-10.9598 J-1.8740
G01 X8.001 Y12.914
G03 X26.859 Y22.384 I9.5065 J4.5806
G03 X7.926 Y21.894 I-9.3464 J-4.8938
G01 X8.315 Y21.722
G01 X8.127 Y21.297
G01 X7.607 Y21.566
G01 X6.993 Y21.776
G02 X28.500 Y13.302 I10.7422 J-4.2654
G02 X7.077 Y13.007 I-10.7711 J4.1900
G01 X7.632 Y13.217
G01 X8.195 Y13.519
G03 X26.693 Y21.743 I9.3097 J3.9758
G03 X8.315 Y21.722 I-9.1839 J-4.2512
G01 X8.712 Y21.545
G01 X8.543 Y21.166
G01 X8.337 Y20.617
G03 X6.405 Y21.465 I-2.5563 J-3.1972
G02 X28.917 Y13.201 I11.3197 J-3.9583
G02 X6.489 Y13.292 I-11.1964 J4.2875
G03 X8.354 Y14.174 I-0.9082 J4.3326
G01 X8.396 Y14.183
G03 X26.456 Y21.221 I9.1106 J3.3120
G03 X8.712 Y21.545 I-8.9430 J-3.7213
G00 Z20.000
G00 X15.568 Y18.618
G00 Z0.100
G01 Z-0.400 F120
G01 X15.361 Y18.735 F400
G02 X19.247 Y15.753 I2.1395 J-1.2352
G02 X15.030 Y17.500 I-1.7469 J1.7469
G01 X15.114 Y18.139
G01 X15.118 Y18.149
G01 X15.361 Y18.735
G00 Z20.000
G00 X9.629 Y17.941
G00 Z0.500
G01 Z-0.400 F120
G01 X9.614 Y18.049 F400
G01 X9.603 Y18.116
G01 X9.538 Y18.395
G01 X9.520 Y18.460
G01 X9.430 Y18.733
G01 X9.407 Y18.796
G01 X9.293 Y19.059
G01 X9.264 Y19.120
G01 X9.126 Y19.372
G01 X9.092 Y19.430
G01 X8.932 Y19.668
G01 X8.893 Y19.723
G01 X8.712 Y19.946
G01 X8.668 Y19.997
G01 X8.445 Y20.226
G02 X26.600 Y14.849 I9.0663 J-2.7269
G02 X8.490 Y14.583 I-9.0956 J2.6498
G01 X8.662 Y14.760
G01 X8.708 Y14.810
G01 X8.888 Y15.034
G01 X8.928 Y15.088
G01 X9.087 Y15.326
G01 X9.123 Y15.384
G01 X9.260 Y15.636
G01 X9.290 Y15.696
G01 X9.404 Y15.959
G01 X9.428 Y16.022
G01 X9.518 Y16.295
G01 X9.536 Y16.360
G01 X9.600 Y16.639
G01 X9.613 Y16.706
G01 X9.652 Y16.990
G01 X9.659 Y17.057
G01 X9.671 Y17.344
G01 X9.672 Y17.411
G01 X9.659 Y17.698
G01 X9.653 Y17.765
G01 X9.629 Y17.941
G00 Z20.000
G00 Z0.100
G01 Z-0.400 F120
G01 X9.630 F400
G01 X9.584 Y18.213
G01 X9.572 Y18.264
G01 X9.477 Y18.606
G01 X9.460 Y18.656
G01 X9.330 Y18.986
G01 X9.308 Y19.034
G01 X9.144 Y19.349
G01 X9.118 Y19.394
G01 X8.922 Y19.690
G01 X8.891 Y19.732
G01 X8.665 Y20.007
G01 X8.630 Y20.045
G01 X8.377 Y20.295
G01 X8.338 Y20.330
G01 X8.061 Y20.552
G01 X8.018 Y20.582
G01 X7.719 Y20.774
G01 X7.674 Y20.800
G01 X7.357 Y20.960
G01 X7.309 Y20.981
G01 X6.977 Y21.107
G01 X6.927 Y21.123
G01 X6.583 Y21.213
G01 X6.532 Y21.224
G01 X6.181 Y21.279
G01 X6.109 Y21.285
G01 X6.053 Y21.206
G01 X5.831 Y21.055
G01 X6.053 Y21.206
G01 X6.109 Y21.285
G01 X6.103 Y21.295
G02 X29.308 Y13.671 I11.6120 J-3.7827
G02 X6.195 Y13.494 I-11.5863 J3.8047
G01 X6.137 Y13.572
G01 X5.912 Y13.719
G01 X6.137 Y13.572
G01 X6.195 Y13.494
G01 X6.269 Y13.503
G01 X6.619 Y13.565
G01 X6.670 Y13.577
G01 X7.011 Y13.675
G01 X7.060 Y13.693
G01 X7.389 Y13.826
G01 X7.437 Y13.848
G01 X7.750 Y14.015
G01 X7.795 Y14.042
G01 X8.090 Y14.240
G01 X8.132 Y14.272
G01 X8.404 Y14.500
G01 X8.442 Y14.536
G01 X8.690 Y14.791
G01 X8.724 Y14.830
G01 X8.943 Y15.110
G01 X8.973 Y15.153
G01 X9.162 Y15.453
G01 X9.188 Y15.499
G01 X9.345 Y15.818
G01 X9.365 Y15.866
G01 X9.488 Y16.199
G01 X9.504 Y16.249
G01 X9.591 Y16.593
G01 X9.601 Y16.645
G01 X9.653 Y16.996
G01 X9.657 Y17.049
G01 X9.672 Y17.403
G01 X9.671 Y17.456
G01 X9.649 Y17.810
G01 X9.643 Y17.862
G01 X9.630 Y17.941
G00 Z20.000
G00 X17.418 Y17.509
G00 Z0.100
G01 Z-0.800 F120
G01 X17.435 Y17.559 F400
G02 X17.576 Y17.452 I0.0626 J-0.0644
G02 X17.426 Y17.450 I-0.0751 J0.0355
G01 X17.418 Y17.509
G01 X16.988 Y17.512
G02 X18.004 Y17.537 I0.5087 J-0.0028
G02 X16.989 Y17.459 I-0.5064 J-0.0529
G01 X16.988 Y17.492
G01 Y17.512
G01 X16.559 Y17.525
G02 X18.439 Y17.507 I0.9399 J-0.0209
G02 X16.559 Y17.463 I-0.9402 J-0.0194
G01 Y17.509
G01 Y17.525
G01 X16.130 Y17.545
G02 X18.871 Y17.453 I1.3707 J-0.0427
G02 X16.131 Y17.399 I-1.3714 J0.0349
G01 X16.128 Y17.507
G01 X16.130 Y17.545
G01 X15.705 Y17.547
G01 Y17.565
G02 X19.307 Y17.368 I1.8030 J-0.0608
G02 X15.791 Y16.916 I-1.8023 J0.1215
G02 X15.704 Y17.434 I1.8291 J0.5735
G01 X15.705 Y17.547
G01 X15.265 Y17.500
G01 X15.259 Y17.551
G02 X19.737 Y17.335 I2.2420 J-0.0490
G02 X15.326 Y16.929 I-2.2394 J0.1651
G01 X15.265 Y17.500
G00 Z20.000
G00 X7.926 Y21.894
G00 Z0.100
G01 Z-0.800 F120
G01 X7.581 Y22.028 F400
G02 X28.696 Y19.358 I10.1582 J-4.4913
G02 X7.665 Y12.771 I-10.9598 J-1.8740
G01 X8.001 Y12.914
G03 X26.859 Y22.384 I9.5065 J4.5806
G03 X7.926 Y21.894 I-9.3464 J-4.8938
G01 X8.315 Y21.722
G01 X8.127 Y21.297
G01 X7.607 Y21.566
G01 X6.993 Y21.776
G02 X28.500 Y13.302 I10.7422 J-4.2654
G02 X7.077 Y13.007 I-10.7711 J4.1900
G01 X7.632 Y13.217
G01 X8.195 Y13.519
G03 X26.693 Y21.743 I9.3097 J3.9758
G03 X8.315 Y21.722 I-9.1839 J-4.2512
G01 X8.712 Y21.545
G01 X8.543 Y21.166
G01 X8.337 Y20.617
G03 X6.405 Y21.465 I-2.5563 J-3.1972
G02 X28.917 Y13.201 I11.3197 J-3.9583
G02 X6.489 Y13.292 I-11.1964 J4.2875
G03 X8.354 Y14.174 I-0.9082 J4.3326
G01 X8.396 Y14.183
G03 X26.456 Y21.221 I9.1106 J3.3120
G03 X8.712 Y21.545 I-8.9430 J-3.7213
G00 Z20.000
G00 X15.568 Y18.618
G00 Z-0.300
G01 Z-0.800 F120
G01 X15.361 Y18.735 F400
G02 X19.247 Y15.753 I2.1395 J-1.2352
G02 X15.030 Y17.500 I-1.7469 J1.7469
G01 X15.114 Y18.139
G01 X15.118 Y18.149
G01 X15.361 Y18.735
G00 Z20.000
G00 X9.629 Y17.941
G00 Z0.100
G01 Z-0.800 F120
G01 X9.614 Y18.049 F400
G01 X9.603 Y18.116
G01 X9.538 Y18.395
G01 X9.520 Y18.460
G01 X9.430 Y18.733
G01 X9.407 Y18.796
G01 X9.293 Y19.059
G01 X9.264 Y19.120
G01 X9.126 Y19.372
G01 X9.092 Y19.430
G01 X8.932 Y19.668
G01 X8.893 Y19.723
G01 X8.712 Y19.946
G01 X8.668 Y19.997
G01 X8.445 Y20.226
G02 X26.600 Y14.849 I9.0663 J-2.7269
G02 X8.490 Y14.583 I-9.0956 J2.6498
G01 X8.662 Y14.760
G01 X8.708 Y14.810
G01 X8.888 Y15.034
G01 X8.928 Y15.088
G01 X9.087 Y15.326
G01 X9.123 Y15.384
G01 X9.260 Y15.636
G01 X9.290 Y15.696
G01 X9.404 Y15.959
G01 X9.428 Y16.022
G01 X9.518 Y16.295
G01 X9.536 Y16.360
G01 X9.600 Y16.639
G01 X9.613 Y16.706
G01 X9.652 Y16.990
G01 X9.659 Y17.057
G01 X9.671 Y17.344
G01 X9.672 Y17.411
G01 X9.659 Y17.698
G01 X9.653 Y17.765
G01 X9.629 Y17.941
G00 Z20.000
G00 Z-0.300
G01 Z-0.800 F120
G01 X9.630 F400
G01 X9.584 Y18.213
G01 X9.572 Y18.264
G01 X9.477 Y18.606
G01 X9.460 Y18.656
G01 X9.330 Y18.986
G01 X9.308 Y19.034
G01 X9.144 Y19.349
G01 X9.118 Y19.394
G01 X8.922 Y19.690
G01 X8.891 Y19.732
G01 X8.665 Y20.007
G01 X8.630 Y20.045
G01 X8.377 Y20.295
G01 X8.338 Y20.330
G01 X8.061 Y20.552
G01 X8.018 Y20.582
G01 X7.719 Y20.774
G01 X7.674 Y20.800
G01 X7.357 Y20.960
G01 X7.309 Y20.981
G01 X6.977 Y21.107
G01 X6.927 Y21.123
G01 X6.583 Y21.213
G01 X6.532 Y21.224
G01 X6.181 Y21.279
G01 X6.109 Y21.285
G01 X6.053 Y21.206
G01 X5.831 Y21.055
G01 X6.053 Y21.206
G01 X6.109 Y21.285
G01 X6.103 Y21.295
G02 X29.308 Y13.671 I11.6120 J-3.7827
G02 X6.195 Y13.494 I-11.5863 J3.8047
G01 X6.137 Y13.572
G01 X5.912 Y13.719
G01 X6.137 Y13.572
G01 X6.195 Y13.494
G01 X6.269 Y13.503
G01 X6.619 Y13.565
G01 X6.670 Y13.577
G01 X7.011 Y13.675
G01 X7.060 Y13.693
G01 X7.389 Y13.826
G01 X7.437 Y13.848
G01 X7.750 Y14.015
G01 X7.795 Y14.042
G01 X8.090 Y14.240
G01 X8.132 Y14.272
G01 X8.404 Y14.500
G01 X8.442 Y14.536
G01 X8.690 Y14.791
G01 X8.724 Y14.830
G01 X8.943 Y15.110
G01 X8.973 Y15.153
G01 X9.162 Y15.453
G01 X9.188 Y15.499
G01 X9.345 Y15.818
G01 X9.365 Y15.866
G01 X9.488 Y16.199
G01 X9.504 Y16.249
G01 X9.591 Y16.593
G01 X9.601 Y16.645
G01 X9.653 Y16.996
G01 X9.657 Y17.049
G01 X9.672 Y17.403
G01 X9.671 Y17.456
G01 X9.649 Y17.810
G01 X9.643 Y17.862
G01 X9.630 Y17.941
G00 Z20.000
G00 X17.418 Y17.509
G00 Z-0.300
G01 Z-1.000 F120
G01 X17.435 Y17.559 F400
G02 X17.576 Y17.452 I0.0626 J-0.0644
G02 X17.426 Y17.450 I-0.0751 J0.0355
G01 X17.418 Y17.509
G01 X16.988 Y17.512
G02 X18.004 Y17.537 I0.5087 J-0.0028
G02 X16.989 Y17.459 I-0.5064 J-0.0529
G01 X16.988 Y17.492
G01 Y17.512
G01 X16.559 Y17.525
G02 X18.439 Y17.507 I0.9399 J-0.0209
G02 X16.559 Y17.463 I-0.9402 J-0.0194
G01 Y17.509
G01 Y17.525
G01 X16.130 Y17.545
G02 X18.871 Y17.453 I1.3707 J-0.0427
G02 X16.131 Y17.399 I-1.3714 J0.0349
G01 X16.128 Y17.507
G01 X16.130 Y17.545
G01 X15.705 Y17.547
G01 Y17.565
G02 X19.307 Y17.368 I1.8030 J-0.0608
G02 X15.791 Y16.916 I-1.8023 J0.1215
G02 X15.704 Y17.434 I1.8291 J0.5735
G01 X15.705 Y17.547
G01 X15.265 Y17.500
G01 X15.259 Y17.551
G02 X19.737 Y17.335 I2.2420 J-0.0490
G02 X15.326 Y16.929 I-2.2394 J0.1651
G01 X15.265 Y17.500
G00 Z20.000
G00 X7.926 Y21.894
G00 Z-0.300
G01 Z-1.000 F120
G01 X7.581 Y22.028 F400
G02 X28.696 Y19.358 I10.1582 J-4.4913
G02 X7.665 Y12.771 I-10.9598 J-1.8740
G01 X8.001 Y12.914
G03 X26.859 Y22.384 I9.5065 J4.5806
G03 X7.926 Y21.894 I-9.3464 J-4.8938
G01 X8.315 Y21.722
G01 X8.127 Y21.297
G01 X7.607 Y21.566
G01 X6.993 Y21.776
G02 X28.500 Y13.302 I10.7422 J-4.2654
G02 X7.077 Y13.007 I-10.7711 J4.1900
G01 X7.632 Y13.217
G01 X8.195 Y13.519
G03 X26.693 Y21.743 I9.3097 J3.9758
G03 X8.315 Y21.722 I-9.1839 J-4.2512
G01 X8.712 Y21.545
G01 X8.543 Y21.166
G01 X8.337 Y20.617
G03 X6.405 Y21.465 I-2.5563 J-3.1972
G02 X28.917 Y13.201 I11.3197 J-3.9583
G02 X6.489 Y13.292 I-11.1964 J4.2875
G03 X8.354 Y14.174 I-0.9082 J4.3326
G01 X8.396 Y14.183
G03 X26.456 Y21.221 I9.1106 J3.3120
G03 X8.712 Y21.545 I-8.9430 J-3.7213
G00 Z20.000
G00 X15.568 Y18.618
G00 Z-0.500
G01 Z-1.000 F120
G01 X15.361 Y18.735 F400
G02 X19.247 Y15.753 I2.1395 J-1.2352
G02 X15.030 Y17.500 I-1.7469 J1.7469
G01 X15.114 Y18.139
G01 X15.118 Y18.149
G01 X15.361 Y18.735
G00 Z20.000
G00 X9.629 Y17.941
G00 Z-0.300
G01 Z-1.000 F120
G01 X9.614 Y18.049 F400
G01 X9.603 Y18.116
G01 X9.538 Y18.395
G01 X9.520 Y18.460
G01 X9.430 Y18.733
G01 X9.407 Y18.796
G01 X9.293 Y19.059
G01 X9.264 Y19.120
G01 X9.126 Y19.372
G01 X9.092 Y19.430
G01 X8.932 Y19.668
G01 X8.893 Y19.723
G01 X8.712 Y19.946
G01 X8.668 Y19.997
G01 X8.445 Y20.226
G02 X26.600 Y14.849 I9.0663 J-2.7269
G02 X8.490 Y14.583 I-9.0956 J2.6498
G01 X8.662 Y14.760
G01 X8.708 Y14.810
G01 X8.888 Y15.034
G01 X8.928 Y15.088
G01 X9.087 Y15.326
G01 X9.123 Y15.384
G01 X9.260 Y15.636
G01 X9.290 Y15.696
G01 X9.404 Y15.959
G01 X9.428 Y16.022
G01 X9.518 Y16.295
G01 X9.536 Y16.360
G01 X9.600 Y16.639
G01 X9.613 Y16.706
G01 X9.652 Y16.990
G01 X9.659 Y17.057
G01 X9.671 Y17.344
G01 X9.672 Y17.411
G01 X9.659 Y17.698
G01 X9.653 Y17.765
G01 X9.629 Y17.941
G00 Z20.000
G00 Z-0.500
G01 Z-1.000 F120
G01 X9.630 F400
G01 X9.584 Y18.213
G01 X9.572 Y18.264
G01 X9.477 Y18.606
G01 X9.460 Y18.656
G01 X9.330 Y18.986
G01 X9.308 Y19.034
G01 X9.144 Y19.349
G01 X9.118 Y19.394
G01 X8.922 Y19.690
G01 X8.891 Y19.732
G01 X8.665 Y20.007
G01 X8.630 Y20.045
G01 X8.377 Y20.295
G01 X8.338 Y20.330
G01 X8.061 Y20.552
G01 X8.018 Y20.582
G01 X7.719 Y20.774
G01 X7.674 Y20.800
G01 X7.357 Y20.960
G01 X7.309 Y20.981
G01 X6.977 Y21.107
G01 X6.927 Y21.123
G01 X6.583 Y21.213
G01 X6.532 Y21.224
G01 X6.181 Y21.279
G01 X6.109 Y21.285
G01 X6.053 Y21.206
G01 X5.831 Y21.055
G01 X6.053 Y21.206
G01 X6.109 Y21.285
G01 X6.103 Y21.295
G02 X29.308 Y13.671 I11.6120 J-3.7827
G02 X6.195 Y13.494 I-11.5863 J3.8047
G01 X6.137 Y13.572
G01 X5.912 Y13.719
G01 X6.137 Y13.572
G01 X6.195 Y13.494
G01 X6.269 Y13.503
G01 X6.619 Y13.565
G01 X6.670 Y13.577
G01 X7.011 Y13.675
G01 X7.060 Y13.693
G01 X7.389 Y13.826
G01 X7.437 Y13.848
G01 X7.750 Y14.015
G01 X7.795 Y14.042
G01 X8.090 Y14.240
G01 X8.132 Y14.272
G01 X8.404 Y14.500
G01 X8.442 Y14.536
G01 X8.690 Y14.791
G01 X8.724 Y14.830
G01 X8.943 Y15.110
G01 X8.973 Y15.153
G01 X9.162 Y15.453
G01 X9.188 Y15.499
G01 X9.345 Y15.818
G01 X9.365 Y15.866
G01 X9.488 Y16.199
G01 X9.504 Y16.249
G01 X9.591 Y16.593
G01 X9.601 Y16.645
G01 X9.653 Y16.996
G01 X9.657 Y17.049
G01 X9.672 Y17.403
G01 X9.671 Y17.456
G01 X9.649 Y17.810
G01 X9.643 Y17.862
G01 X9.630 Y17.941
G00 Z20.000


(No. 4 Helical drill: Helical drill 6)
G00 X8.759 Y11.606 Z20.000
G00 Z0.500
G02 X8.422 Y11.411 Z0.367 I-0.2250 J0.0000 F120
G02 Y11.800 Z0.233 I0.1125 J0.1949
G02 X8.759 Y11.606 Z0.100 I0.1125 J-0.1949
G02 X8.422 Y11.411 Z-0.033 I-0.2250 J0.0000
G02 Y11.800 Z-0.167 I0.1125 J0.1949
G02 X8.759 Y11.606 Z-0.300 I0.1125 J-0.1949
G02 X8.422 Y11.411 Z-0.433 I-0.2250 J0.0000
G02 Y11.800 Z-0.567 I0.1125 J0.1949
G02 X8.759 Y11.606 Z-0.700 I0.1125 J-0.1949
G02 X8.422 Y11.411 Z-0.833 I-0.2250 J0.0000
G02 Y11.800 Z-0.967 I0.1125 J0.1949
G02 X8.759 Y11.606 Z-1.100 I0.1125 J-0.1949
G02 X8.422 Y11.411 Z-1.233 I-0.2250 J0.0000
G02 Y11.800 Z-1.367 I0.1125 J0.1949
G02 X8.759 Y11.606 Z-1.500 I0.1125 J-0.1949
G02 X8.422 Y11.411 Z-1.633 I-0.2250 J0.0000
G02 Y11.800 Z-1.767 I0.1125 J0.1949
G02 X8.759 Y11.606 Z-1.900 I0.1125 J-0.1949
G02 X8.422 Y11.411 Z-2.033 I-0.2250 J0.0000
G02 Y11.800 Z-2.167 I0.1125 J0.1949
G02 X8.759 Y11.606 Z-2.300 I0.1125 J-0.1949
G02 X8.422 Y11.411 Z-2.433 I-0.2250 J0.0000
G02 Y11.800 Z-2.567 I0.1125 J0.1949
G02 X8.759 Y11.606 Z-2.700 I0.1125 J-0.1949
G02 X8.422 Y11.411 Z-2.833 I-0.2250 J0.0000
G02 Y11.800 Z-2.967 I0.1125 J0.1949
G02 X8.759 Y11.606 Z-3.100 I0.1125 J-0.1949
G02 X8.422 Y11.411 Z-3.233 I-0.2250 J0.0000
G02 Y11.800 Z-3.367 I0.1125 J0.1949
G02 X8.759 Y11.606 Z-3.500 I0.1125 J-0.1949
G02 X8.422 Y11.411 I-0.2250 J0.0000
G02 Y11.800 I0.1125 J0.1949
G02 X8.759 Y11.606 I0.1125 J-0.1949
G02 X8.422 Y11.411 I-0.2250 J0.0000
G02 Y11.800 I0.1125 J0.1949
G02 X8.759 Y11.606 I0.1125 J-0.1949
G02 X8.534 Z-3.000 I-0.1125 J0.0000
G00 Z20.000


(No. 5 Helical drill: Helical drill 7)
G00 X10.504 Y18.921 Z20.000
G00 Z0.500
G02 X10.167 Y18.726 Z0.367 I-0.2250 J0.0000 F120
G02 Y19.116 Z0.233 I0.1125 J0.1949
G02 X10.504 Y18.921 Z0.100 I0.1125 J-0.1949
G02 X10.167 Y18.726 Z-0.033 I-0.2250 J0.0000
G02 Y19.116 Z-0.167 I0.1125 J0.1949
G02 X10.504 Y18.921 Z-0.300 I0.1125 J-0.1949
G02 X10.167 Y18.726 Z-0.433 I-0.2250 J0.0000
G02 Y19.116 Z-0.567 I0.1125 J0.1949
G02 X10.504 Y18.921 Z-0.700 I0.1125 J-0.1949
G02 X10.167 Y18.726 Z-0.833 I-0.2250 J0.0000
G02 Y19.116 Z-0.967 I0.1125 J0.1949
G02 X10.504 Y18.921 Z-1.100 I0.1125 J-0.1949
G02 X10.167 Y18.726 Z-1.233 I-0.2250 J0.0000
G02 Y19.116 Z-1.367 I0.1125 J0.1949
G02 X10.504 Y18.921 Z-1.500 I0.1125 J-0.1949
G02 X10.167 Y18.726 Z-1.633 I-0.2250 J0.0000
G02 Y19.116 Z-1.767 I0.1125 J0.1949
G02 X10.504 Y18.921 Z-1.900 I0.1125 J-0.1949
G02 X10.167 Y18.726 Z-2.033 I-0.2250 J0.0000
G02 Y19.116 Z-2.167 I0.1125 J0.1949
G02 X10.504 Y18.921 Z-2.300 I0.1125 J-0.1949
G02 X10.167 Y18.726 Z-2.433 I-0.2250 J0.0000
G02 Y19.116 Z-2.567 I0.1125 J0.1949
G02 X10.504 Y18.921 Z-2.700 I0.1125 J-0.1949
G02 X10.167 Y18.726 Z-2.833 I-0.2250 J0.0000
G02 Y19.116 Z-2.967 I0.1125 J0.1949
G02 X10.504 Y18.921 Z-3.100 I0.1125 J-0.1949
G02 X10.167 Y18.726 Z-3.233 I-0.2250 J0.0000
G02 Y19.116 Z-3.367 I0.1125 J0.1949
G02 X10.504 Y18.921 Z-3.500 I0.1125 J-0.1949
G02 X10.167 Y18.726 I-0.2250 J0.0000
G02 Y19.116 I0.1125 J0.1949
G02 X10.504 Y18.921 I0.1125 J-0.1949
G02 X10.167 Y18.726 I-0.2250 J0.0000
G02 Y19.116 I0.1125 J0.1949
G02 X10.504 Y18.921 I0.1125 J-0.1949
G02 X10.279 Z-3.000 I-0.1125 J0.0000
G00 Z20.000


(No. 6 Helical drill: Helical drill 8)
G00 X19.844 Y28.871 Z20.000
G00 Z0.500
G02 X19.507 Y28.676 Z0.367 I-0.2250 J0.0000 F120
G02 Y29.066 Z0.233 I0.1125 J0.1949
G02 X19.844 Y28.871 Z0.100 I0.1125 J-0.1949
G02 X19.507 Y28.676 Z-0.033 I-0.2250 J0.0000
G02 Y29.066 Z-0.167 I0.1125 J0.1949
G02 X19.844 Y28.871 Z-0.300 I0.1125 J-0.1949
G02 X19.507 Y28.676 Z-0.433 I-0.2250 J0.0000
G02 Y29.066 Z-0.567 I0.1125 J0.1949
G02 X19.844 Y28.871 Z-0.700 I0.1125 J-0.1949
G02 X19.507 Y28.676 Z-0.833 I-0.2250 J0.0000
G02 Y29.066 Z-0.967 I0.1125 J0.1949
G02 X19.844 Y28.871 Z-1.100 I0.1125 J-0.1949
G02 X19.507 Y28.676 Z-1.233 I-0.2250 J0.0000
G02 Y29.066 Z-1.367 I0.1125 J0.1949
G02 X19.844 Y28.871 Z-1.500 I0.1125 J-0.1949
G02 X19.507 Y28.676 Z-1.633 I-0.2250 J0.0000
G02 Y29.066 Z-1.767 I0.1125 J0.1949
G02 X19.844 Y28.871 Z-1.900 I0.1125 J-0.1949
G02 X19.507 Y28.676 Z-2.033 I-0.2250 J0.0000
G02 Y29.066 Z-2.167 I0.1125 J0.1949
G02 X19.844 Y28.871 Z-2.300 I0.1125 J-0.1949
G02 X19.507 Y28.676 Z-2.433 I-0.2250 J0.0000
G02 Y29.066 Z-2.567 I0.1125 J0.1949
G02 X19.844 Y28.871 Z-2.700 I0.1125 J-0.1949
G02 X19.507 Y28.676 Z-2.833 I-0.2250 J0.0000
G02 Y29.066 Z-2.967 I0.1125 J0.1949
G02 X19.844 Y28.871 Z-3.100 I0.1125 J-0.1949
G02 X19.507 Y28.676 Z-3.233 I-0.2250 J0.0000
G02 Y29.066 Z-3.367 I0.1125 J0.1949
G02 X19.844 Y28.871 Z-3.500 I0.1125 J-0.1949
G02 X19.507 Y28.676 I-0.2250 J0.0000
G02 Y29.066 I0.1125 J0.1949
G02 X19.844 Y28.871 I0.1125 J-0.1949
G02 X19.507 Y28.676 I-0.2250 J0.0000
G02 Y29.066 I0.1125 J0.1949
G02 X19.844 Y28.871 I0.1125 J-0.1949
G02 X19.619 Z-3.000 I-0.1125 J0.0000
G00 Z20.000


(No. 7 Helical drill: Helical drill 9)
G00 X23.613 Y27.541 Z20.000
G00 Z0.500
G02 X23.275 Y27.346 Z0.367 I-0.2250 J0.0000 F120
G02 Y27.736 Z0.233 I0.1125 J0.1949
G02 X23.613 Y27.541 Z0.100 I0.1125 J-0.1949
G02 X23.275 Y27.346 Z-0.033 I-0.2250 J0.0000
G02 Y27.736 Z-0.167 I0.1125 J0.1949
G02 X23.613 Y27.541 Z-0.300 I0.1125 J-0.1949
G02 X23.275 Y27.346 Z-0.433 I-0.2250 J0.0000
G02 Y27.736 Z-0.567 I0.1125 J0.1949
G02 X23.613 Y27.541 Z-0.700 I0.1125 J-0.1949
G02 X23.275 Y27.346 Z-0.833 I-0.2250 J0.0000
G02 Y27.736 Z-0.967 I0.1125 J0.1949
G02 X23.613 Y27.541 Z-1.100 I0.1125 J-0.1949
G02 X23.275 Y27.346 Z-1.233 I-0.2250 J0.0000
G02 Y27.736 Z-1.367 I0.1125 J0.1949
G02 X23.613 Y27.541 Z-1.500 I0.1125 J-0.1949
G02 X23.275 Y27.346 Z-1.633 I-0.2250 J0.0000
G02 Y27.736 Z-1.767 I0.1125 J0.1949
G02 X23.613 Y27.541 Z-1.900 I0.1125 J-0.1949
G02 X23.275 Y27.346 Z-2.033 I-0.2250 J0.0000
G02 Y27.736 Z-2.167 I0.1125 J0.1949
G02 X23.613 Y27.541 Z-2.300 I0.1125 J-0.1949
G02 X23.275 Y27.346 Z-2.433 I-0.2250 J0.0000
G02 Y27.736 Z-2.567 I0.1125 J0.1949
G02 X23.613 Y27.541 Z-2.700 I0.1125 J-0.1949
G02 X23.275 Y27.346 Z-2.833 I-0.2250 J0.0000
G02 Y27.736 Z-2.967 I0.1125 J0.1949
G02 X23.613 Y27.541 Z-3.100 I0.1125 J-0.1949
G02 X23.275 Y27.346 Z-3.233 I-0.2250 J0.0000
G02 Y27.736 Z-3.367 I0.1125 J0.1949
G02 X23.613 Y27.541 Z-3.500 I0.1125 J-0.1949
G02 X23.275 Y27.346 I-0.2250 J0.0000
G02 Y27.736 I0.1125 J0.1949
G02 X23.613 Y27.541 I0.1125 J-0.1949
G02 X23.275 Y27.346 I-0.2250 J0.0000
G02 Y27.736 I0.1125 J0.1949
G02 X23.613 Y27.541 I0.1125 J-0.1949
G02 X23.388 Z-3.000 I-0.1125 J0.0000
G00 Z20.000


(No. 8 Helical drill: Helical drill 2)
G00 X4.473 Y4.000 Z20.000
G00 Z0.500
G02 X3.764 Y3.591 Z0.367 I-0.4725 J0.0000 F120
G02 Y4.409 Z0.233 I0.2363 J0.4092
G02 X4.473 Y4.000 Z0.100 I0.2363 J-0.4092
G02 X3.764 Y3.591 Z0.067 I-0.4725 J0.0000
G02 Y4.409 Z0.033 I0.2363 J0.4092
G02 X4.473 Y4.000 Z0.000 I0.2363 J-0.4092
G02 X3.764 Y3.591 I-0.4725 J0.0000
G02 Y4.409 I0.2363 J0.4092
G02 X4.473 Y4.000 I0.2363 J-0.4092
G02 X3.764 Y3.591 Z-0.133 I-0.4725 J0.0000
G02 Y4.409 Z-0.267 I0.2363 J0.4092
G02 X4.473 Y4.000 Z-0.400 I0.2363 J-0.4092
G02 X3.764 Y3.591 I-0.4725 J0.0000
G02 Y4.409 I0.2363 J0.4092
G02 X4.473 Y4.000 I0.2363 J-0.4092
G02 X4.461 Y3.809 I-0.4767 J-0.0665 F400
G02 X4.371 Y3.629 I-0.4905 J0.1311
G02 X4.211 Y3.491 I-0.4219 J0.3277
G02 X4.000 Y3.423 I-0.2745 J0.4888
G02 X3.769 Y3.442 I-0.0666 J0.5832
G02 X3.555 Y3.555 I0.1718 J0.5888
G02 X3.394 Y3.749 I0.4028 J0.4970
G02 X3.318 Y4.000 I0.5869 J0.3152
G02 X3.345 Y4.271 I0.6893 J0.0666
G02 X3.480 Y4.520 I0.6868 J-0.2124
G02 X3.709 Y4.703 I0.5720 J-0.4777
G02 X4.000 Y4.788 I0.3557 J-0.6847
G02 X4.311 Y4.752 I0.0666 J-0.7951
G02 X4.594 Y4.594 I-0.2529 J-0.7845
G02 X4.800 Y4.331 I-0.5525 J-0.6467
G02 X4.893 Y4.000 I-0.7823 J-0.3961
G02 X4.849 Y3.648 I-0.9008 J-0.0666
G02 X4.668 Y3.332 I-0.8820 J0.2933
G02 X4.372 Y3.103 I-0.7213 J0.6272
G02 X4.000 Y3.003 I-0.4365 J0.8798
G02 X3.608 Y3.054 I-0.0666 J1.0063
G02 X3.258 Y3.258 I0.3337 J0.9795
G02 X3.006 Y3.588 I0.7018 J0.7959
G02 X2.900 Y4.000 I0.9792 J0.4707
G02 X2.984 Y4.421 I1.1000 J0.0000
G02 X3.222 Y4.778 I1.0163 J-0.4210
G02 X3.579 Y5.016 I0.7778 J-0.7778
G02 X4.000 Y5.100 I0.4210 J-1.0163
G02 X4.421 Y5.016 I0.0000 J-1.1000
G02 X4.778 Y4.778 I-0.4210 J-1.0163
G02 X5.016 Y4.421 I-0.7778 J-0.7778
G02 X5.100 Y4.000 I-1.0163 J-0.4210
G02 X3.450 Y3.047 I-1.1000 J0.0000
G02 Y4.953 I0.5500 J0.9526
G02 X5.100 Y4.000 I0.5500 J-0.9526
G02 X3.528 I-0.7863 J0.0000
G02 X4.473 I0.4725 J0.0000
G02 X3.764 Y3.591 Z-0.533 I-0.4725 J0.0000 F120
G02 Y4.409 Z-0.667 I0.2363 J0.4092
G02 X4.473 Y4.000 Z-0.800 I0.2363 J-0.4092
G02 X3.764 Y3.591 I-0.4725 J0.0000
G02 Y4.409 I0.2363 J0.4092
G02 X4.473 Y4.000 I0.2363 J-0.4092
G02 X4.461 Y3.809 I-0.4767 J-0.0665 F400
G02 X4.371 Y3.629 I-0.4905 J0.1311
G02 X4.211 Y3.491 I-0.4219 J0.3277
G02 X4.000 Y3.423 I-0.2745 J0.4888
G02 X3.769 Y3.442 I-0.0666 J0.5832
G02 X3.555 Y3.555 I0.1718 J0.5888
G02 X3.394 Y3.749 I0.4028 J0.4970
G02 X3.318 Y4.000 I0.5869 J0.3152
G02 X3.345 Y4.271 I0.6893 J0.0666
G02 X3.480 Y4.520 I0.6868 J-0.2124
G02 X3.709 Y4.703 I0.5720 J-0.4777
G02 X4.000 Y4.788 I0.3557 J-0.6847
G02 X4.311 Y4.752 I0.0666 J-0.7951
G02 X4.594 Y4.594 I-0.2529 J-0.7845
G02 X4.800 Y4.331 I-0.5525 J-0.6467
G02 X4.893 Y4.000 I-0.7823 J-0.3961
G02 X4.849 Y3.648 I-0.9008 J-0.0666
G02 X4.668 Y3.332 I-0.8820 J0.2933
G02 X4.372 Y3.103 I-0.7213 J0.6272
G02 X4.000 Y3.003 I-0.4365 J0.8798
G02 X3.608 Y3.054 I-0.0666 J1.0063
G02 X3.258 Y3.258 I0.3337 J0.9795
G02 X3.006 Y3.588 I0.7018 J0.7959
G02 X2.900 Y4.000 I0.9792 J0.4707
G02 X2.984 Y4.421 I1.1000 J0.0000
G02 X3.222 Y4.778 I1.0163 J-0.4210
G02 X3.579 Y5.016 I0.7778 J-0.7778
G02 X4.000 Y5.100 I0.4210 J-1.0163
G02 X4.421 Y5.016 I0.0000 J-1.1000
G02 X4.778 Y4.778 I-0.4210 J-1.0163
G02 X5.016 Y4.421 I-0.7778 J-0.7778
G02 X5.100 Y4.000 I-1.0163 J-0.4210
G02 X3.450 Y3.047 I-1.1000 J0.0000
G02 Y4.953 I0.5500 J0.9526
G02 X5.100 Y4.000 I0.5500 J-0.9526
G02 X3.528 I-0.7863 J0.0000
G02 X4.473 I0.4725 J0.0000
G02 X3.764 Y3.591 Z-0.933 I-0.4725 J0.0000 F120
G02 Y4.409 Z-1.067 I0.2363 J0.4092
G02 X4.473 Y4.000 Z-1.200 I0.2363 J-0.4092
G02 X3.764 Y3.591 I-0.4725 J0.0000
G02 Y4.409 I0.2363 J0.4092
G02 X4.473 Y4.000 I0.2363 J-0.4092
G02 X4.461 Y3.809 I-0.4767 J-0.0665 F400
G02 X4.371 Y3.629 I-0.4905 J0.1311
G02 X4.211 Y3.491 I-0.4219 J0.3277
G02 X4.000 Y3.423 I-0.2745 J0.4888
G02 X3.769 Y3.442 I-0.0666 J0.5832
G02 X3.555 Y3.555 I0.1718 J0.5888
G02 X3.394 Y3.749 I0.4028 J0.4970
G02 X3.318 Y4.000 I0.5869 J0.3152
G02 X3.345 Y4.271 I0.6893 J0.0666
G02 X3.480 Y4.520 I0.6868 J-0.2124
G02 X3.709 Y4.703 I0.5720 J-0.4777
G02 X4.000 Y4.788 I0.3557 J-0.6847
G02 X4.311 Y4.752 I0.0666 J-0.7951
G02 X4.594 Y4.594 I-0.2529 J-0.7845
G02 X4.800 Y4.331 I-0.5525 J-0.6467
G02 X4.893 Y4.000 I-0.7823 J-0.3961
G02 X4.849 Y3.648 I-0.9008 J-0.0666
G02 X4.668 Y3.332 I-0.8820 J0.2933
G02 X4.372 Y3.103 I-0.7213 J0.6272
G02 X4.000 Y3.003 I-0.4365 J0.8798
G02 X3.608 Y3.054 I-0.0666 J1.0063
G02 X3.258 Y3.258 I0.3337 J0.9795
G02 X3.006 Y3.588 I0.7018 J0.7959
G02 X2.900 Y4.000 I0.9792 J0.4707
G02 X2.984 Y4.421 I1.1000 J0.0000
G02 X3.222 Y4.778 I1.0163 J-0.4210
G02 X3.579 Y5.016 I0.7778 J-0.7778
G02 X4.000 Y5.100 I0.4210 J-1.0163
G02 X4.421 Y5.016 I0.0000 J-1.1000
G02 X4.778 Y4.778 I-0.4210 J-1.0163
G02 X5.016 Y4.421 I-0.7778 J-0.7778
G02 X5.100 Y4.000 I-1.0163 J-0.4210
G02 X3.450 Y3.047 I-1.1000 J0.0000
G02 Y4.953 I0.5500 J0.9526
G02 X5.100 Y4.000 I0.5500 J-0.9526
G02 X3.528 I-0.7863 J0.0000
G02 X4.473 I0.4725 J0.0000
G02 X3.764 Y3.591 Z-1.333 I-0.4725 J0.0000 F120
G02 Y4.409 Z-1.467 I0.2363 J0.4092
G02 X4.473 Y4.000 Z-1.600 I0.2363 J-0.4092
G02 X3.764 Y3.591 I-0.4725 J0.0000
G02 Y4.409 I0.2363 J0.4092
G02 X4.473 Y4.000 I0.2363 J-0.4092
G02 X4.461 Y3.809 I-0.4767 J-0.0665 F400
G02 X4.371 Y3.629 I-0.4905 J0.1311
G02 X4.211 Y3.491 I-0.4219 J0.3277
G02 X4.000 Y3.423 I-0.2745 J0.4888
G02 X3.769 Y3.442 I-0.0666 J0.5832
G02 X3.555 Y3.555 I0.1718 J0.5888
G02 X3.394 Y3.749 I0.4028 J0.4970
G02 X3.318 Y4.000 I0.5869 J0.3152
G02 X3.345 Y4.271 I0.6893 J0.0666
G02 X3.480 Y4.520 I0.6868 J-0.2124
G02 X3.709 Y4.703 I0.5720 J-0.4777
G02 X4.000 Y4.788 I0.3557 J-0.6847
G02 X4.311 Y4.752 I0.0666 J-0.7951
G02 X4.594 Y4.594 I-0.2529 J-0.7845
G02 X4.800 Y4.331 I-0.5525 J-0.6467
G02 X4.893 Y4.000 I-0.7823 J-0.3961
G02 X4.849 Y3.648 I-0.9008 J-0.0666
G02 X4.668 Y3.332 I-0.8820 J0.2933
G02 X4.372 Y3.103 I-0.7213 J0.6272
G02 X4.000 Y3.003 I-0.4365 J0.8798
G02 X3.608 Y3.054 I-0.0666 J1.0063
G02 X3.258 Y3.258 I0.3337 J0.9795
G02 X3.006 Y3.588 I0.7018 J0.7959
G02 X2.900 Y4.000 I0.9792 J0.4707
G02 X2.984 Y4.421 I1.1000 J0.0000
G02 X3.222 Y4.778 I1.0163 J-0.4210
G02 X3.579 Y5.016 I0.7778 J-0.7778
G02 X4.000 Y5.100 I0.4210 J-1.0163
G02 X4.421 Y5.016 I0.0000 J-1.1000
G02 X4.778 Y4.778 I-0.4210 J-1.0163
G02 X5.016 Y4.421 I-0.7778 J-0.7778
G02 X5.100 Y4.000 I-1.0163 J-0.4210
G02 X3.450 Y3.047 I-1.1000 J0.0000
G02 Y4.953 I0.5500 J0.9526
G02 X5.100 Y4.000 I0.5500 J-0.9526
G02 X3.528 I-0.7863 J0.0000
G02 X4.473 I0.4725 J0.0000
G02 X3.764 Y3.591 Z-1.733 I-0.4725 J0.0000 F120
G02 Y4.409 Z-1.867 I0.2363 J0.4092
G02 X4.473 Y4.000 Z-2.000 I0.2363 J-0.4092
G02 X3.764 Y3.591 I-0.4725 J0.0000
G02 Y4.409 I0.2363 J0.4092
G02 X4.473 Y4.000 I0.2363 J-0.4092
G02 X4.461 Y3.809 I-0.4767 J-0.0665 F400
G02 X4.371 Y3.629 I-0.4905 J0.1311
G02 X4.211 Y3.491 I-0.4219 J0.3277
G02 X4.000 Y3.423 I-0.2745 J0.4888
G02 X3.769 Y3.442 I-0.0666 J0.5832
G02 X3.555 Y3.555 I0.1718 J0.5888
G02 X3.394 Y3.749 I0.4028 J0.4970
G02 X3.318 Y4.000 I0.5869 J0.3152
G02 X3.345 Y4.271 I0.6893 J0.0666
G02 X3.480 Y4.520 I0.6868 J-0.2124
G02 X3.709 Y4.703 I0.5720 J-0.4777
G02 X4.000 Y4.788 I0.3557 J-0.6847
G02 X4.311 Y4.752 I0.0666 J-0.7951
G02 X4.594 Y4.594 I-0.2529 J-0.7845
G02 X4.800 Y4.331 I-0.5525 J-0.6467
G02 X4.893 Y4.000 I-0.7823 J-0.3961
G02 X4.849 Y3.648 I-0.9008 J-0.0666
G02 X4.668 Y3.332 I-0.8820 J0.2933
G02 X4.372 Y3.103 I-0.7213 J0.6272
G02 X4.000 Y3.003 I-0.4365 J0.8798
G02 X3.608 Y3.054 I-0.0666 J1.0063
G02 X3.258 Y3.258 I0.3337 J0.9795
G02 X3.006 Y3.588 I0.7018 J0.7959
G02 X2.900 Y4.000 I0.9792 J0.4707
G02 X2.984 Y4.421 I1.1000 J0.0000
G02 X3.222 Y4.778 I1.0163 J-0.4210
G02 X3.579 Y5.016 I0.7778 J-0.7778
G02 X4.000 Y5.100 I0.4210 J-1.0163
G02 X4.421 Y5.016 I0.0000 J-1.1000
G02 X4.778 Y4.778 I-0.4210 J-1.0163
G02 X5.016 Y4.421 I-0.7778 J-0.7778
G02 X5.100 Y4.000 I-1.0163 J-0.4210
G02 X3.450 Y3.047 I-1.1000 J0.0000
G02 Y4.953 I0.5500 J0.9526
G02 X5.100 Y4.000 I0.5500 J-0.9526
G02 X3.528 I-0.7863 J0.0000
G02 X4.473 I0.4725 J0.0000
G02 X3.764 Y3.591 Z-2.133 I-0.4725 J0.0000 F120
G02 Y4.409 Z-2.267 I0.2363 J0.4092
G02 X4.473 Y4.000 Z-2.400 I0.2363 J-0.4092
G02 X3.764 Y3.591 I-0.4725 J0.0000
G02 Y4.409 I0.2363 J0.4092
G02 X4.473 Y4.000 I0.2363 J-0.4092
G02 X4.461 Y3.809 I-0.4767 J-0.0665 F400
G02 X4.371 Y3.629 I-0.4905 J0.1311
G02 X4.211 Y3.491 I-0.4219 J0.3277
G02 X4.000 Y3.423 I-0.2745 J0.4888
G02 X3.769 Y3.442 I-0.0666 J0.5832
G02 X3.555 Y3.555 I0.1718 J0.5888
G02 X3.394 Y3.749 I0.4028 J0.4970
G02 X3.318 Y4.000 I0.5869 J0.3152
G02 X3.345 Y4.271 I0.6893 J0.0666
G02 X3.480 Y4.520 I0.6868 J-0.2124
G02 X3.709 Y4.703 I0.5720 J-0.4777
G02 X4.000 Y4.788 I0.3557 J-0.6847
G02 X4.311 Y4.752 I0.0666 J-0.7951
G02 X4.594 Y4.594 I-0.2529 J-0.7845
G02 X4.800 Y4.331 I-0.5525 J-0.6467
G02 X4.893 Y4.000 I-0.7823 J-0.3961
G02 X4.849 Y3.648 I-0.9008 J-0.0666
G02 X4.668 Y3.332 I-0.8820 J0.2933
G02 X4.372 Y3.103 I-0.7213 J0.6272
G02 X4.000 Y3.003 I-0.4365 J0.8798
G02 X3.608 Y3.054 I-0.0666 J1.0063
G02 X3.258 Y3.258 I0.3337 J0.9795
G02 X3.006 Y3.588 I0.7018 J0.7959
G02 X2.900 Y4.000 I0.9792 J0.4707
G02 X2.984 Y4.421 I1.1000 J0.0000
G02 X3.222 Y4.778 I1.0163 J-0.4210
G02 X3.579 Y5.016 I0.7778 J-0.7778
G02 X4.000 Y5.100 I0.4210 J-1.0163
G02 X4.421 Y5.016 I0.0000 J-1.1000
G02 X4.778 Y4.778 I-0.4210 J-1.0163
G02 X5.016 Y4.421 I-0.7778 J-0.7778
G02 X5.100 Y4.000 I-1.0163 J-0.4210
G02 X3.450 Y3.047 I-1.1000 J0.0000
G02 Y4.953 I0.5500 J0.9526
G02 X5.100 Y4.000 I0.5500 J-0.9526
G02 X3.528 I-0.7863 J0.0000
G02 X4.473 I0.4725 J0.0000
G02 X3.764 Y3.591 Z-2.533 I-0.4725 J0.0000 F120
G02 Y4.409 Z-2.667 I0.2363 J0.4092
G02 X4.473 Y4.000 Z-2.800 I0.2363 J-0.4092
G02 X3.764 Y3.591 I-0.4725 J0.0000
G02 Y4.409 I0.2363 J0.4092
G02 X4.473 Y4.000 I0.2363 J-0.4092
G02 X4.461 Y3.809 I-0.4767 J-0.0665 F400
G02 X4.371 Y3.629 I-0.4905 J0.1311
G02 X4.211 Y3.491 I-0.4219 J0.3277
G02 X4.000 Y3.423 I-0.2745 J0.4888
G02 X3.769 Y3.442 I-0.0666 J0.5832
G02 X3.555 Y3.555 I0.1718 J0.5888
G02 X3.394 Y3.749 I0.4028 J0.4970
G02 X3.318 Y4.000 I0.5869 J0.3152
G02 X3.345 Y4.271 I0.6893 J0.0666
G02 X3.480 Y4.520 I0.6868 J-0.2124
G02 X3.709 Y4.703 I0.5720 J-0.4777
G02 X4.000 Y4.788 I0.3557 J-0.6847
G02 X4.311 Y4.752 I0.0666 J-0.7951
G02 X4.594 Y4.594 I-0.2529 J-0.7845
G02 X4.800 Y4.331 I-0.5525 J-0.6467
G02 X4.893 Y4.000 I-0.7823 J-0.3961
G02 X4.849 Y3.648 I-0.9008 J-0.0666
G02 X4.668 Y3.332 I-0.8820 J0.2933
G02 X4.372 Y3.103 I-0.7213 J0.6272
G02 X4.000 Y3.003 I-0.4365 J0.8798
G02 X3.608 Y3.054 I-0.0666 J1.0063
G02 X3.258 Y3.258 I0.3337 J0.9795
G02 X3.006 Y3.588 I0.7018 J0.7959
G02 X2.900 Y4.000 I0.9792 J0.4707
G02 X2.984 Y4.421 I1.1000 J0.0000
G02 X3.222 Y4.778 I1.0163 J-0.4210
G02 X3.579 Y5.016 I0.7778 J-0.7778
G02 X4.000 Y5.100 I0.4210 J-1.0163
G02 X4.421 Y5.016 I0.0000 J-1.1000
G02 X4.778 Y4.778 I-0.4210 J-1.0163
G02 X5.016 Y4.421 I-0.7778 J-0.7778
G02 X5.100 Y4.000 I-1.0163 J-0.4210
G02 X3.450 Y3.047 I-1.1000 J0.0000
G02 Y4.953 I0.5500 J0.9526
G02 X5.100 Y4.000 I0.5500 J-0.9526
G02 X3.528 I-0.7863 J0.0000
G02 X4.473 I0.4725 J0.0000
G02 X3.764 Y3.591 Z-2.933 I-0.4725 J0.0000 F120
G02 Y4.409 Z-3.067 I0.2363 J0.4092
G02 X4.473 Y4.000 Z-3.200 I0.2363 J-0.4092
G02 X3.764 Y3.591 I-0.4725 J0.0000
G02 Y4.409 I0.2363 J0.4092
G02 X4.473 Y4.000 I0.2363 J-0.4092
G02 X4.461 Y3.809 I-0.4767 J-0.0665 F400
G02 X4.371 Y3.629 I-0.4905 J0.1311
G02 X4.211 Y3.491 I-0.4219 J0.3277
G02 X4.000 Y3.423 I-0.2745 J0.4888
G02 X3.769 Y3.442 I-0.0666 J0.5832
G02 X3.555 Y3.555 I0.1718 J0.5888
G02 X3.394 Y3.749 I0.4028 J0.4970
G02 X3.318 Y4.000 I0.5869 J0.3152
G02 X3.345 Y4.271 I0.6893 J0.0666
G02 X3.480 Y4.520 I0.6868 J-0.2124
G02 X3.709 Y4.703 I0.5720 J-0.4777
G02 X4.000 Y4.788 I0.3557 J-0.6847
G02 X4.311 Y4.752 I0.0666 J-0.7951
G02 X4.594 Y4.594 I-0.2529 J-0.7845
G02 X4.800 Y4.331 I-0.5525 J-0.6467
G02 X4.893 Y4.000 I-0.7823 J-0.3961
G02 X4.849 Y3.648 I-0.9008 J-0.0666
G02 X4.668 Y3.332 I-0.8820 J0.2933
G02 X4.372 Y3.103 I-0.7213 J0.6272
G02 X4.000 Y3.003 I-0.4365 J0.8798
G02 X3.608 Y3.054 I-0.0666 J1.0063
G02 X3.258 Y3.258 I0.3337 J0.9795
G02 X3.006 Y3.588 I0.7018 J0.7959
G02 X2.900 Y4.000 I0.9792 J0.4707
G02 X2.984 Y4.421 I1.1000 J0.0000
G02 X3.222 Y4.778 I1.0163 J-0.4210
G02 X3.579 Y5.016 I0.7778 J-0.7778
G02 X4.000 Y5.100 I0.4210 J-1.0163
G02 X4.421 Y5.016 I0.0000 J-1.1000
G02 X4.778 Y4.778 I-0.4210 J-1.0163
G02 X5.016 Y4.421 I-0.7778 J-0.7778
G02 X5.100 Y4.000 I-1.0163 J-0.4210
G02 X3.450 Y3.047 I-1.1000 J0.0000
G02 Y4.953 I0.5500 J0.9526
G02 X5.100 Y4.000 I0.5500 J-0.9526
G02 X3.528 I-0.7863 J0.0000
G02 X4.473 I0.4725 J0.0000
G02 X3.764 Y3.591 Z-3.300 I-0.4725 J0.0000 F120
G02 Y4.409 Z-3.400 I0.2363 J0.4092
G02 X4.473 Y4.000 Z-3.500 I0.2363 J-0.4092
G02 X3.764 Y3.591 I-0.4725 J0.0000
G02 Y4.409 I0.2363 J0.4092
G02 X4.473 Y4.000 I0.2363 J-0.4092
G02 X4.461 Y3.809 I-0.4767 J-0.0665 F400
G02 X4.371 Y3.629 I-0.4905 J0.1311
G02 X4.211 Y3.491 I-0.4219 J0.3277
G02 X4.000 Y3.423 I-0.2745 J0.4888
G02 X3.769 Y3.442 I-0.0666 J0.5832
G02 X3.555 Y3.555 I0.1718 J0.5888
G02 X3.394 Y3.749 I0.4028 J0.4970
G02 X3.318 Y4.000 I0.5869 J0.3152
G02 X3.345 Y4.271 I0.6893 J0.0666
G02 X3.480 Y4.520 I0.6868 J-0.2124
G02 X3.709 Y4.703 I0.5720 J-0.4777
G02 X4.000 Y4.788 I0.3557 J-0.6847
G02 X4.311 Y4.752 I0.0666 J-0.7951
G02 X4.594 Y4.594 I-0.2529 J-0.7845
G02 X4.800 Y4.331 I-0.5525 J-0.6467
G02 X4.893 Y4.000 I-0.7823 J-0.3961
G02 X4.849 Y3.648 I-0.9008 J-0.0666
G02 X4.668 Y3.332 I-0.8820 J0.2933
G02 X4.372 Y3.103 I-0.7213 J0.6272
G02 X4.000 Y3.003 I-0.4365 J0.8798
G02 X3.608 Y3.054 I-0.0666 J1.0063
G02 X3.258 Y3.258 I0.3337 J0.9795
G02 X3.006 Y3.588 I0.7018 J0.7959
G02 X2.900 Y4.000 I0.9792 J0.4707
G02 X2.984 Y4.421 I1.1000 J0.0000
G02 X3.222 Y4.778 I1.0163 J-0.4210
G02 X3.579 Y5.016 I0.7778 J-0.7778
G02 X4.000 Y5.100 I0.4210 J-1.0163
G02 X4.421 Y5.016 I0.0000 J-1.1000
G02 X4.778 Y4.778 I-0.4210 J-1.0163
G02 X5.016 Y4.421 I-0.7778 J-0.7778
G02 X5.100 Y4.000 I-1.0163 J-0.4210
G02 X3.450 Y3.047 I-1.1000 J0.0000
G02 Y4.953 I0.5500 J0.9526
G02 X5.100 Y4.000 I0.5500 J-0.9526
G02 X4.575 Y3.475 Z-3.000 I-0.5250 J0.0000 F120
G00 Z20.000


(No. 9 Helical drill: Helical drill 3)
G00 X4.473 Y31.000 Z20.000
G00 Z0.500
G02 X3.764 Y30.591 Z0.367 I-0.4725 J0.0000 F120
G02 Y31.409 Z0.233 I0.2363 J0.4092
G02 X4.473 Y31.000 Z0.100 I0.2363 J-0.4092
G02 X3.764 Y30.591 Z0.067 I-0.4725 J0.0000
G02 Y31.409 Z0.033 I0.2363 J0.4092
G02 X4.473 Y31.000 Z0.000 I0.2363 J-0.4092
G02 X3.764 Y30.591 I-0.4725 J0.0000
G02 Y31.409 I0.2363 J0.4092
G02 X4.473 Y31.000 I0.2363 J-0.4092
G02 X3.764 Y30.591 Z-0.133 I-0.4725 J0.0000
G02 Y31.409 Z-0.267 I0.2363 J0.4092
G02 X4.473 Y31.000 Z-0.400 I0.2363 J-0.4092
G02 X3.764 Y30.591 I-0.4725 J0.0000
G02 Y31.409 I0.2363 J0.4092
G02 X4.473 Y31.000 I0.2363 J-0.4092
G02 X4.461 Y30.809 I-0.4767 J-0.0665 F400
G02 X4.371 Y30.629 I-0.4905 J0.1311
G02 X4.211 Y30.491 I-0.4219 J0.3277
G02 X4.000 Y30.423 I-0.2745 J0.4888
G02 X3.769 Y30.442 I-0.0666 J0.5832
G02 X3.555 Y30.555 I0.1718 J0.5888
G02 X3.394 Y30.749 I0.4028 J0.4970
G02 X3.318 Y31.000 I0.5869 J0.3152
G02 X3.345 Y31.271 I0.6893 J0.0666
G02 X3.480 Y31.520 I0.6868 J-0.2124
G02 X3.709 Y31.703 I0.5720 J-0.4777
G02 X4.000 Y31.788 I0.3557 J-0.6847
G02 X4.311 Y31.752 I0.0666 J-0.7951
G02 X4.594 Y31.594 I-0.2529 J-0.7845
G02 X4.800 Y31.331 I-0.5525 J-0.6467
G02 X4.893 Y31.000 I-0.7823 J-0.3961
G02 X4.849 Y30.648 I-0.9008 J-0.0666
G02 X4.668 Y30.332 I-0.8820 J0.2933
G02 X4.372 Y30.103 I-0.7213 J0.6272
G02 X4.000 Y30.003 I-0.4365 J0.8798
G02 X3.608 Y30.054 I-0.0666 J1.0063
G02 X3.258 Y30.258 I0.3337 J0.9795
G02 X3.006 Y30.588 I0.7018 J0.7959
G02 X2.900 Y31.000 I0.9792 J0.4707
G02 X2.984 Y31.421 I1.1000 J0.0000
G02 X3.222 Y31.778 I1.0163 J-0.4210
G02 X3.579 Y32.016 I0.7778 J-0.7778
G02 X4.000 Y32.100 I0.4210 J-1.0163
G02 X4.421 Y32.016 I0.0000 J-1.1000
G02 X4.778 Y31.778 I-0.4210 J-1.0163
G02 X5.016 Y31.421 I-0.7778 J-0.7778
G02 X5.100 Y31.000 I-1.0163 J-0.4210
G02 X3.450 Y30.047 I-1.1000 J0.0000
G02 Y31.953 I0.5500 J0.9526
G02 X5.100 Y31.000 I0.5500 J-0.9526
G02 X3.528 I-0.7862 J0.0000
G02 X4.473 I0.4725 J0.0000
G02 X3.764 Y30.591 Z-0.533 I-0.4725 J0.0000 F120
G02 Y31.409 Z-0.667 I0.2363 J0.4092
G02 X4.473 Y31.000 Z-0.800 I0.2363 J-0.4092
G02 X3.764 Y30.591 I-0.4725 J0.0000
G02 Y31.409 I0.2363 J0.4092
G02 X4.473 Y31.000 I0.2363 J-0.4092
G02 X4.461 Y30.809 I-0.4767 J-0.0665 F400
G02 X4.371 Y30.629 I-0.4905 J0.1311
G02 X4.211 Y30.491 I-0.4219 J0.3277
G02 X4.000 Y30.423 I-0.2745 J0.4888
G02 X3.769 Y30.442 I-0.0666 J0.5832
G02 X3.555 Y30.555 I0.1718 J0.5888
G02 X3.394 Y30.749 I0.4028 J0.4970
G02 X3.318 Y31.000 I0.5869 J0.3152
G02 X3.345 Y31.271 I0.6893 J0.0666
G02 X3.480 Y31.520 I0.6868 J-0.2124
G02 X3.709 Y31.703 I0.5720 J-0.4777
G02 X4.000 Y31.788 I0.3557 J-0.6847
G02 X4.311 Y31.752 I0.0666 J-0.7951
G02 X4.594 Y31.594 I-0.2529 J-0.7845
G02 X4.800 Y31.331 I-0.5525 J-0.6467
G02 X4.893 Y31.000 I-0.7823 J-0.3961
G02 X4.849 Y30.648 I-0.9008 J-0.0666
G02 X4.668 Y30.332 I-0.8820 J0.2933
G02 X4.372 Y30.103 I-0.7213 J0.6272
G02 X4.000 Y30.003 I-0.4365 J0.8798
G02 X3.608 Y30.054 I-0.0666 J1.0063
G02 X3.258 Y30.258 I0.3337 J0.9795
G02 X3.006 Y30.588 I0.7018 J0.7959
G02 X2.900 Y31.000 I0.9792 J0.4707
G02 X2.984 Y31.421 I1.1000 J0.0000
G02 X3.222 Y31.778 I1.0163 J-0.4210
G02 X3.579 Y32.016 I0.7778 J-0.7778
G02 X4.000 Y32.100 I0.4210 J-1.0163
G02 X4.421 Y32.016 I0.0000 J-1.1000
G02 X4.778 Y31.778 I-0.4210 J-1.0163
G02 X5.016 Y31.421 I-0.7778 J-0.7778
G02 X5.100 Y31.000 I-1.0163 J-0.4210
G02 X3.450 Y30.047 I-1.1000 J0.0000
G02 Y31.953 I0.5500 J0.9526
G02 X5.100 Y31.000 I0.5500 J-0.9526
G02 X3.528 I-0.7862 J0.0000
G02 X4.473 I0.4725 J0.0000
G02 X3.764 Y30.591 Z-0.933 I-0.4725 J0.0000 F120
G02 Y31.409 Z-1.067 I0.2363 J0.4092
G02 X4.473 Y31.000 Z-1.200 I0.2363 J-0.4092
G02 X3.764 Y30.591 I-0.4725 J0.0000
G02 Y31.409 I0.2363 J0.4092
G02 X4.473 Y31.000 I0.2363 J-0.4092
G02 X4.461 Y30.809 I-0.4767 J-0.0665 F400
G02 X4.371 Y30.629 I-0.4905 J0.1311
G02 X4.211 Y30.491 I-0.4219 J0.3277
G02 X4.000 Y30.423 I-0.2745 J0.4888
G02 X3.769 Y30.442 I-0.0666 J0.5832
G02 X3.555 Y30.555 I0.1718 J0.5888
G02 X3.394 Y30.749 I0.4028 J0.4970
G02 X3.318 Y31.000 I0.5869 J0.3152
G02 X3.345 Y31.271 I0.6893 J0.0666
G02 X3.480 Y31.520 I0.6868 J-0.2124
G02 X3.709 Y31.703 I0.5720 J-0.4777
G02 X4.000 Y31.788 I0.3557 J-0.6847
G02 X4.311 Y31.752 I0.0666 J-0.7951
G02 X4.594 Y31.594 I-0.2529 J-0.7845
G02 X4.800 Y31.331 I-0.5525 J-0.6467
G02 X4.893 Y31.000 I-0.7823 J-0.3961
G02 X4.849 Y30.648 I-0.9008 J-0.0666
G02 X4.668 Y30.332 I-0.8820 J0.2933
G02 X4.372 Y30.103 I-0.7213 J0.6272
G02 X4.000 Y30.003 I-0.4365 J0.8798
G02 X3.608 Y30.054 I-0.0666 J1.0063
G02 X3.258 Y30.258 I0.3337 J0.9795
G02 X3.006 Y30.588 I0.7018 J0.7959
G02 X2.900 Y31.000 I0.9792 J0.4707
G02 X2.984 Y31.421 I1.1000 J0.0000
G02 X3.222 Y31.778 I1.0163 J-0.4210
G02 X3.579 Y32.016 I0.7778 J-0.7778
G02 X4.000 Y32.100 I0.4210 J-1.0163
G02 X4.421 Y32.016 I0.0000 J-1.1000
G02 X4.778 Y31.778 I-0.4210 J-1.0163
G02 X5.016 Y31.421 I-0.7778 J-0.7778
G02 X5.100 Y31.000 I-1.0163 J-0.4210
G02 X3.450 Y30.047 I-1.1000 J0.0000
G02 Y31.953 I0.5500 J0.9526
G02 X5.100 Y31.000 I0.5500 J-0.9526
G02 X3.528 I-0.7862 J0.0000
G02 X4.473 I0.4725 J0.0000
G02 X3.764 Y30.591 Z-1.333 I-0.4725 J0.0000 F120
G02 Y31.409 Z-1.467 I0.2363 J0.4092
G02 X4.473 Y31.000 Z-1.600 I0.2363 J-0.4092
G02 X3.764 Y30.591 I-0.4725 J0.0000
G02 Y31.409 I0.2363 J0.4092
G02 X4.473 Y31.000 I0.2363 J-0.4092
G02 X4.461 Y30.809 I-0.4767 J-0.0665 F400
G02 X4.371 Y30.629 I-0.4905 J0.1311
G02 X4.211 Y30.491 I-0.4219 J0.3277
G02 X4.000 Y30.423 I-0.2745 J0.4888
G02 X3.769 Y30.442 I-0.0666 J0.5832
G02 X3.555 Y30.555 I0.1718 J0.5888
G02 X3.394 Y30.749 I0.4028 J0.4970
G02 X3.318 Y31.000 I0.5869 J0.3152
G02 X3.345 Y31.271 I0.6893 J0.0666
G02 X3.480 Y31.520 I0.6868 J-0.2124
G02 X3.709 Y31.703 I0.5720 J-0.4777
G02 X4.000 Y31.788 I0.3557 J-0.6847
G02 X4.311 Y31.752 I0.0666 J-0.7951
G02 X4.594 Y31.594 I-0.2529 J-0.7845
G02 X4.800 Y31.331 I-0.5525 J-0.6467
G02 X4.893 Y31.000 I-0.7823 J-0.3961
G02 X4.849 Y30.648 I-0.9008 J-0.0666
G02 X4.668 Y30.332 I-0.8820 J0.2933
G02 X4.372 Y30.103 I-0.7213 J0.6272
G02 X4.000 Y30.003 I-0.4365 J0.8798
G02 X3.608 Y30.054 I-0.0666 J1.0063
G02 X3.258 Y30.258 I0.3337 J0.9795
G02 X3.006 Y30.588 I0.7018 J0.7959
G02 X2.900 Y31.000 I0.9792 J0.4707
G02 X2.984 Y31.421 I1.1000 J0.0000
G02 X3.222 Y31.778 I1.0163 J-0.4210
G02 X3.579 Y32.016 I0.7778 J-0.7778
G02 X4.000 Y32.100 I0.4210 J-1.0163
G02 X4.421 Y32.016 I0.0000 J-1.1000
G02 X4.778 Y31.778 I-0.4210 J-1.0163
G02 X5.016 Y31.421 I-0.7778 J-0.7778
G02 X5.100 Y31.000 I-1.0163 J-0.4210
G02 X3.450 Y30.047 I-1.1000 J0.0000
G02 Y31.953 I0.5500 J0.9526
G02 X5.100 Y31.000 I0.5500 J-0.9526
G02 X3.528 I-0.7862 J0.0000
G02 X4.473 I0.4725 J0.0000
G02 X3.764 Y30.591 Z-1.733 I-0.4725 J0.0000 F120
G02 Y31.409 Z-1.867 I0.2363 J0.4092
G02 X4.473 Y31.000 Z-2.000 I0.2363 J-0.4092
G02 X3.764 Y30.591 I-0.4725 J0.0000
G02 Y31.409 I0.2363 J0.4092
G02 X4.473 Y31.000 I0.2363 J-0.4092
G02 X4.461 Y30.809 I-0.4767 J-0.0665 F400
G02 X4.371 Y30.629 I-0.4905 J0.1311
G02 X4.211 Y30.491 I-0.4219 J0.3277
G02 X4.000 Y30.423 I-0.2745 J0.4888
G02 X3.769 Y30.442 I-0.0666 J0.5832
G02 X3.555 Y30.555 I0.1718 J0.5888
G02 X3.394 Y30.749 I0.4028 J0.4970
G02 X3.318 Y31.000 I0.5869 J0.3152
G02 X3.345 Y31.271 I0.6893 J0.0666
G02 X3.480 Y31.520 I0.6868 J-0.2124
G02 X3.709 Y31.703 I0.5720 J-0.4777
G02 X4.000 Y31.788 I0.3557 J-0.6847
G02 X4.311 Y31.752 I0.0666 J-0.7951
G02 X4.594 Y31.594 I-0.2529 J-0.7845
G02 X4.800 Y31.331 I-0.5525 J-0.6467
G02 X4.893 Y31.000 I-0.7823 J-0.3961
G02 X4.849 Y30.648 I-0.9008 J-0.0666
G02 X4.668 Y30.332 I-0.8820 J0.2933
G02 X4.372 Y30.103 I-0.7213 J0.6272
G02 X4.000 Y30.003 I-0.4365 J0.8798
G02 X3.608 Y30.054 I-0.0666 J1.0063
G02 X3.258 Y30.258 I0.3337 J0.9795
G02 X3.006 Y30.588 I0.7018 J0.7959
G02 X2.900 Y31.000 I0.9792 J0.4707
G02 X2.984 Y31.421 I1.1000 J0.0000
G02 X3.222 Y31.778 I1.0163 J-0.4210
G02 X3.579 Y32.016 I0.7778 J-0.7778
G02 X4.000 Y32.100 I0.4210 J-1.0163
G02 X4.421 Y32.016 I0.0000 J-1.1000
G02 X4.778 Y31.778 I-0.4210 J-1.0163
G02 X5.016 Y31.421 I-0.7778 J-0.7778
G02 X5.100 Y31.000 I-1.0163 J-0.4210
G02 X3.450 Y30.047 I-1.1000 J0.0000
G02 Y31.953 I0.5500 J0.9526
G02 X5.100 Y31.000 I0.5500 J-0.9526
G02 X3.528 I-0.7862 J0.0000
G02 X4.473 I0.4725 J0.0000
G02 X3.764 Y30.591 Z-2.133 I-0.4725 J0.0000 F120
G02 Y31.409 Z-2.267 I0.2363 J0.4092
G02 X4.473 Y31.000 Z-2.400 I0.2363 J-0.4092
G02 X3.764 Y30.591 I-0.4725 J0.0000
G02 Y31.409 I0.2363 J0.4092
G02 X4.473 Y31.000 I0.2363 J-0.4092
G02 X4.461 Y30.809 I-0.4767 J-0.0665 F400
G02 X4.371 Y30.629 I-0.4905 J0.1311
G02 X4.211 Y30.491 I-0.4219 J0.3277
G02 X4.000 Y30.423 I-0.2745 J0.4888
G02 X3.769 Y30.442 I-0.0666 J0.5832
G02 X3.555 Y30.555 I0.1718 J0.5888
G02 X3.394 Y30.749 I0.4028 J0.4970
G02 X3.318 Y31.000 I0.5869 J0.3152
G02 X3.345 Y31.271 I0.6893 J0.0666
G02 X3.480 Y31.520 I0.6868 J-0.2124
G02 X3.709 Y31.703 I0.5720 J-0.4777
G02 X4.000 Y31.788 I0.3557 J-0.6847
G02 X4.311 Y31.752 I0.0666 J-0.7951
G02 X4.594 Y31.594 I-0.2529 J-0.7845
G02 X4.800 Y31.331 I-0.5525 J-0.6467
G02 X4.893 Y31.000 I-0.7823 J-0.3961
G02 X4.849 Y30.648 I-0.9008 J-0.0666
G02 X4.668 Y30.332 I-0.8820 J0.2933
G02 X4.372 Y30.103 I-0.7213 J0.6272
G02 X4.000 Y30.003 I-0.4365 J0.8798
G02 X3.608 Y30.054 I-0.0666 J1.0063
G02 X3.258 Y30.258 I0.3337 J0.9795
G02 X3.006 Y30.588 I0.7018 J0.7959
G02 X2.900 Y31.000 I0.9792 J0.4707
G02 X2.984 Y31.421 I1.1000 J0.0000
G02 X3.222 Y31.778 I1.0163 J-0.4210
G02 X3.579 Y32.016 I0.7778 J-0.7778
G02 X4.000 Y32.100 I0.4210 J-1.0163
G02 X4.421 Y32.016 I0.0000 J-1.1000
G02 X4.778 Y31.778 I-0.4210 J-1.0163
G02 X5.016 Y31.421 I-0.7778 J-0.7778
G02 X5.100 Y31.000 I-1.0163 J-0.4210
G02 X3.450 Y30.047 I-1.1000 J0.0000
G02 Y31.953 I0.5500 J0.9526
G02 X5.100 Y31.000 I0.5500 J-0.9526
G02 X3.528 I-0.7862 J0.0000
G02 X4.473 I0.4725 J0.0000
G02 X3.764 Y30.591 Z-2.533 I-0.4725 J0.0000 F120
G02 Y31.409 Z-2.667 I0.2363 J0.4092
G02 X4.473 Y31.000 Z-2.800 I0.2363 J-0.4092
G02 X3.764 Y30.591 I-0.4725 J0.0000
G02 Y31.409 I0.2363 J0.4092
G02 X4.473 Y31.000 I0.2363 J-0.4092
G02 X4.461 Y30.809 I-0.4767 J-0.0665 F400
G02 X4.371 Y30.629 I-0.4905 J0.1311
G02 X4.211 Y30.491 I-0.4219 J0.3277
G02 X4.000 Y30.423 I-0.2745 J0.4888
G02 X3.769 Y30.442 I-0.0666 J0.5832
G02 X3.555 Y30.555 I0.1718 J0.5888
G02 X3.394 Y30.749 I0.4028 J0.4970
G02 X3.318 Y31.000 I0.5869 J0.3152
G02 X3.345 Y31.271 I0.6893 J0.0666
G02 X3.480 Y31.520 I0.6868 J-0.2124
G02 X3.709 Y31.703 I0.5720 J-0.4777
G02 X4.000 Y31.788 I0.3557 J-0.6847
G02 X4.311 Y31.752 I0.0666 J-0.7951
G02 X4.594 Y31.594 I-0.2529 J-0.7845
G02 X4.800 Y31.331 I-0.5525 J-0.6467
G02 X4.893 Y31.000 I-0.7823 J-0.3961
G02 X4.849 Y30.648 I-0.9008 J-0.0666
G02 X4.668 Y30.332 I-0.8820 J0.2933
G02 X4.372 Y30.103 I-0.7213 J0.6272
G02 X4.000 Y30.003 I-0.4365 J0.8798
G02 X3.608 Y30.054 I-0.0666 J1.0063
G02 X3.258 Y30.258 I0.3337 J0.9795
G02 X3.006 Y30.588 I0.7018 J0.7959
G02 X2.900 Y31.000 I0.9792 J0.4707
G02 X2.984 Y31.421 I1.1000 J0.0000
G02 X3.222 Y31.778 I1.0163 J-0.4210
G02 X3.579 Y32.016 I0.7778 J-0.7778
G02 X4.000 Y32.100 I0.4210 J-1.0163
G02 X4.421 Y32.016 I0.0000 J-1.1000
G02 X4.778 Y31.778 I-0.4210 J-1.0163
G02 X5.016 Y31.421 I-0.7778 J-0.7778
G02 X5.100 Y31.000 I-1.0163 J-0.4210
G02 X3.450 Y30.047 I-1.1000 J0.0000
G02 Y31.953 I0.5500 J0.9526
G02 X5.100 Y31.000 I0.5500 J-0.9526
G02 X3.528 I-0.7862 J0.0000
G02 X4.473 I0.4725 J0.0000
G02 X3.764 Y30.591 Z-2.933 I-0.4725 J0.0000 F120
G02 Y31.409 Z-3.067 I0.2363 J0.4092
G02 X4.473 Y31.000 Z-3.200 I0.2363 J-0.4092
G02 X3.764 Y30.591 I-0.4725 J0.0000
G02 Y31.409 I0.2363 J0.4092
G02 X4.473 Y31.000 I0.2363 J-0.4092
G02 X4.461 Y30.809 I-0.4767 J-0.0665 F400
G02 X4.371 Y30.629 I-0.4905 J0.1311
G02 X4.211 Y30.491 I-0.4219 J0.3277
G02 X4.000 Y30.423 I-0.2745 J0.4888
G02 X3.769 Y30.442 I-0.0666 J0.5832
G02 X3.555 Y30.555 I0.1718 J0.5888
G02 X3.394 Y30.749 I0.4028 J0.4970
G02 X3.318 Y31.000 I0.5869 J0.3152
G02 X3.345 Y31.271 I0.6893 J0.0666
G02 X3.480 Y31.520 I0.6868 J-0.2124
G02 X3.709 Y31.703 I0.5720 J-0.4777
G02 X4.000 Y31.788 I0.3557 J-0.6847
G02 X4.311 Y31.752 I0.0666 J-0.7951
G02 X4.594 Y31.594 I-0.2529 J-0.7845
G02 X4.800 Y31.331 I-0.5525 J-0.6467
G02 X4.893 Y31.000 I-0.7823 J-0.3961
G02 X4.849 Y30.648 I-0.9008 J-0.0666
G02 X4.668 Y30.332 I-0.8820 J0.2933
G02 X4.372 Y30.103 I-0.7213 J0.6272
G02 X4.000 Y30.003 I-0.4365 J0.8798
G02 X3.608 Y30.054 I-0.0666 J1.0063
G02 X3.258 Y30.258 I0.3337 J0.9795
G02 X3.006 Y30.588 I0.7018 J0.7959
G02 X2.900 Y31.000 I0.9792 J0.4707
G02 X2.984 Y31.421 I1.1000 J0.0000
G02 X3.222 Y31.778 I1.0163 J-0.4210
G02 X3.579 Y32.016 I0.7778 J-0.7778
G02 X4.000 Y32.100 I0.4210 J-1.0163
G02 X4.421 Y32.016 I0.0000 J-1.1000
G02 X4.778 Y31.778 I-0.4210 J-1.0163
G02 X5.016 Y31.421 I-0.7778 J-0.7778
G02 X5.100 Y31.000 I-1.0163 J-0.4210
G02 X3.450 Y30.047 I-1.1000 J0.0000
G02 Y31.953 I0.5500 J0.9526
G02 X5.100 Y31.000 I0.5500 J-0.9526
G02 X3.528 I-0.7862 J0.0000
G02 X4.473 I0.4725 J0.0000
G02 X3.764 Y30.591 Z-3.300 I-0.4725 J0.0000 F120
G02 Y31.409 Z-3.400 I0.2363 J0.4092
G02 X4.473 Y31.000 Z-3.500 I0.2363 J-0.4092
G02 X3.764 Y30.591 I-0.4725 J0.0000
G02 Y31.409 I0.2363 J0.4092
G02 X4.473 Y31.000 I0.2363 J-0.4092
G02 X4.461 Y30.809 I-0.4767 J-0.0665 F400
G02 X4.371 Y30.629 I-0.4905 J0.1311
G02 X4.211 Y30.491 I-0.4219 J0.3277
G02 X4.000 Y30.423 I-0.2745 J0.4888
G02 X3.769 Y30.442 I-0.0666 J0.5832
G02 X3.555 Y30.555 I0.1718 J0.5888
G02 X3.394 Y30.749 I0.4028 J0.4970
G02 X3.318 Y31.000 I0.5869 J0.3152
G02 X3.345 Y31.271 I0.6893 J0.0666
G02 X3.480 Y31.520 I0.6868 J-0.2124
G02 X3.709 Y31.703 I0.5720 J-0.4777
G02 X4.000 Y31.788 I0.3557 J-0.6847
G02 X4.311 Y31.752 I0.0666 J-0.7951
G02 X4.594 Y31.594 I-0.2529 J-0.7845
G02 X4.800 Y31.331 I-0.5525 J-0.6467
G02 X4.893 Y31.000 I-0.7823 J-0.3961
G02 X4.849 Y30.648 I-0.9008 J-0.0666
G02 X4.668 Y30.332 I-0.8820 J0.2933
G02 X4.372 Y30.103 I-0.7213 J0.6272
G02 X4.000 Y30.003 I-0.4365 J0.8798
G02 X3.608 Y30.054 I-0.0666 J1.0063
G02 X3.258 Y30.258 I0.3337 J0.9795
G02 X3.006 Y30.588 I0.7018 J0.7959
G02 X2.900 Y31.000 I0.9792 J0.4707
G02 X2.984 Y31.421 I1.1000 J0.0000
G02 X3.222 Y31.778 I1.0163 J-0.4210
G02 X3.579 Y32.016 I0.7778 J-0.7778
G02 X4.000 Y32.100 I0.4210 J-1.0163
G02 X4.421 Y32.016 I0.0000 J-1.1000
G02 X4.778 Y31.778 I-0.4210 J-1.0163
G02 X5.016 Y31.421 I-0.7778 J-0.7778
G02 X5.100 Y31.000 I-1.0163 J-0.4210
G02 X3.450 Y30.047 I-1.1000 J0.0000
G02 Y31.953 I0.5500 J0.9526
G02 X5.100 Y31.000 I0.5500 J-0.9526
G02 X4.575 Y30.475 Z-3.000 I-0.5250 J0.0000 F120
G00 Z20.000


(No. 10 Helical drill: Helical drill 4)
G00 X33.972 Y31.000 Z20.000
G00 Z0.500
G02 X33.264 Y30.591 Z0.367 I-0.4725 J0.0000 F120
G02 Y31.409 Z0.233 I0.2362 J0.4092
G02 X33.972 Y31.000 Z0.100 I0.2362 J-0.4092
G02 X33.264 Y30.591 Z0.067 I-0.4725 J0.0000
G02 Y31.409 Z0.033 I0.2362 J0.4092
G02 X33.972 Y31.000 Z0.000 I0.2362 J-0.4092
G02 X33.264 Y30.591 I-0.4725 J0.0000
G02 Y31.409 I0.2362 J0.4092
G02 X33.972 Y31.000 I0.2362 J-0.4092
G02 X33.264 Y30.591 Z-0.133 I-0.4725 J0.0000
G02 Y31.409 Z-0.267 I0.2362 J0.4092
G02 X33.972 Y31.000 Z-0.400 I0.2362 J-0.4092
G02 X33.264 Y30.591 I-0.4725 J0.0000
G02 Y31.409 I0.2362 J0.4092
G02 X33.972 Y31.000 I0.2362 J-0.4092
G02 X33.961 Y30.809 I-0.4767 J-0.0665 F400
G02 X33.871 Y30.629 I-0.4905 J0.1311
G02 X33.711 Y30.491 I-0.4219 J0.3277
G02 X33.500 Y30.423 I-0.2745 J0.4888
G02 X33.269 Y30.442 I-0.0666 J0.5832
G02 X33.055 Y30.555 I0.1718 J0.5888
G02 X32.894 Y30.749 I0.4028 J0.4970
G02 X32.817 Y31.000 I0.5869 J0.3152
G02 X32.845 Y31.271 I0.6893 J0.0666
G02 X32.980 Y31.520 I0.6868 J-0.2124
G02 X33.209 Y31.703 I0.5720 J-0.4777
G02 X33.500 Y31.788 I0.3557 J-0.6847
G02 X33.811 Y31.752 I0.0666 J-0.7951
G02 X34.094 Y31.594 I-0.2529 J-0.7845
G02 X34.300 Y31.331 I-0.5525 J-0.6467
G02 X34.392 Y31.000 I-0.7823 J-0.3961
G02 X34.349 Y30.648 I-0.9008 J-0.0666
G02 X34.168 Y30.332 I-0.8820 J0.2933
G02 X33.872 Y30.103 I-0.7213 J0.6272
G02 X33.500 Y30.003 I-0.4365 J0.8798
G02 X33.108 Y30.054 I-0.0666 J1.0063
G02 X32.758 Y30.258 I0.3337 J0.9795
G02 X32.506 Y30.588 I0.7018 J0.7959
G02 X32.400 Y31.000 I0.9792 J0.4707
G02 X32.484 Y31.421 I1.1000 J0.0000
G02 X32.722 Y31.778 I1.0163 J-0.4210
G02 X33.079 Y32.016 I0.7778 J-0.7778
G02 X33.500 Y32.100 I0.4210 J-1.0163
G02 X33.921 Y32.016 I0.0000 J-1.1000
G02 X34.278 Y31.778 I-0.4210 J-1.0163
G02 X34.516 Y31.421 I-0.7778 J-0.7778
G02 X34.600 Y31.000 I-1.0163 J-0.4210
G02 X32.950 Y30.047 I-1.1000 J0.0000
G02 Y31.953 I0.5500 J0.9526
G02 X34.600 Y31.000 I0.5500 J-0.9526
G02 X33.027 I-0.7863 J0.0000
G02 X33.972 I0.4725 J0.0000
G02 X33.264 Y30.591 Z-0.533 I-0.4725 J0.0000 F120
G02 Y31.409 Z-0.667 I0.2362 J0.4092
G02 X33.972 Y31.000 Z-0.800 I0.2362 J-0.4092
G02 X33.264 Y30.591 I-0.4725 J0.0000
G02 Y31.409 I0.2362 J0.4092
G02 X33.972 Y31.000 I0.2362 J-0.4092
G02 X33.961 Y30.809 I-0.4767 J-0.0665 F400
G02 X33.871 Y30.629 I-0.4905 J0.1311
G02 X33.711 Y30.491 I-0.4219 J0.3277
G02 X33.500 Y30.423 I-0.2745 J0.4888
G02 X33.269 Y30.442 I-0.0666 J0.5832
G02 X33.055 Y30.555 I0.1718 J0.5888
G02 X32.894 Y30.749 I0.4028 J0.4970
G02 X32.817 Y31.000 I0.5869 J0.3152
G02 X32.845 Y31.271 I0.6893 J0.0666
G02 X32.980 Y31.520 I0.6868 J-0.2124
G02 X33.209 Y31.703 I0.5720 J-0.4777
G02 X33.500 Y31.788 I0.3557 J-0.6847
G02 X33.811 Y31.752 I0.0666 J-0.7951
G02 X34.094 Y31.594 I-0.2529 J-0.7845
G02 X34.300 Y31.331 I-0.5525 J-0.6467
G02 X34.392 Y31.000 I-0.7823 J-0.3961
G02 X34.349 Y30.648 I-0.9008 J-0.0666
G02 X34.168 Y30.332 I-0.8820 J0.2933
G02 X33.872 Y30.103 I-0.7213 J0.6272
G02 X33.500 Y30.003 I-0.4365 J0.8798
G02 X33.108 Y30.054 I-0.0666 J1.0063
G02 X32.758 Y30.258 I0.3337 J0.9795
G02 X32.506 Y30.588 I0.7018 J0.7959
G02 X32.400 Y31.000 I0.9792 J0.4707
G02 X32.484 Y31.421 I1.1000 J0.0000
G02 X32.722 Y31.778 I1.0163 J-0.4210
G02 X33.079 Y32.016 I0.7778 J-0.7778
G02 X33.500 Y32.100 I0.4210 J-1.0163
G02 X33.921 Y32.016 I0.0000 J-1.1000
G02 X34.278 Y31.778 I-0.4210 J-1.0163
G02 X34.516 Y31.421 I-0.7778 J-0.7778
G02 X34.600 Y31.000 I-1.0163 J-0.4210
G02 X32.950 Y30.047 I-1.1000 J0.0000
G02 Y31.953 I0.5500 J0.9526
G02 X34.600 Y31.000 I0.5500 J-0.9526
G02 X33.027 I-0.7863 J0.0000
G02 X33.972 I0.4725 J0.0000
G02 X33.264 Y30.591 Z-0.933 I-0.4725 J0.0000 F120
G02 Y31.409 Z-1.067 I0.2362 J0.4092
G02 X33.972 Y31.000 Z-1.200 I0.2362 J-0.4092
G02 X33.264 Y30.591 I-0.4725 J0.0000
G02 Y31.409 I0.2362 J0.4092
G02 X33.972 Y31.000 I0.2362 J-0.4092
G02 X33.961 Y30.809 I-0.4767 J-0.0665 F400
G02 X33.871 Y30.629 I-0.4905 J0.1311
G02 X33.711 Y30.491 I-0.4219 J0.3277
G02 X33.500 Y30.423 I-0.2745 J0.4888
G02 X33.269 Y30.442 I-0.0666 J0.5832
G02 X33.055 Y30.555 I0.1718 J0.5888
G02 X32.894 Y30.749 I0.4028 J0.4970
G02 X32.817 Y31.000 I0.5869 J0.3152
G02 X32.845 Y31.271 I0.6893 J0.0666
G02 X32.980 Y31.520 I0.6868 J-0.2124
G02 X33.209 Y31.703 I0.5720 J-0.4777
G02 X33.500 Y31.788 I0.3557 J-0.6847
G02 X33.811 Y31.752 I0.0666 J-0.7951
G02 X34.094 Y31.594 I-0.2529 J-0.7845
G02 X34.300 Y31.331 I-0.5525 J-0.6467
G02 X34.392 Y31.000 I-0.7823 J-0.3961
G02 X34.349 Y30.648 I-0.9008 J-0.0666
G02 X34.168 Y30.332 I-0.8820 J0.2933
G02 X33.872 Y30.103 I-0.7213 J0.6272
G02 X33.500 Y30.003 I-0.4365 J0.8798
G02 X33.108 Y30.054 I-0.0666 J1.0063
G02 X32.758 Y30.258 I0.3337 J0.9795
G02 X32.506 Y30.588 I0.7018 J0.7959
G02 X32.400 Y31.000 I0.9792 J0.4707
G02 X32.484 Y31.421 I1.1000 J0.0000
G02 X32.722 Y31.778 I1.0163 J-0.4210
G02 X33.079 Y32.016 I0.7778 J-0.7778
G02 X33.500 Y32.100 I0.4210 J-1.0163
G02 X33.921 Y32.016 I0.0000 J-1.1000
G02 X34.278 Y31.778 I-0.4210 J-1.0163
G02 X34.516 Y31.421 I-0.7778 J-0.7778
G02 X34.600 Y31.000 I-1.0163 J-0.4210
G02 X32.950 Y30.047 I-1.1000 J0.0000
G02 Y31.953 I0.5500 J0.9526
G02 X34.600 Y31.000 I0.5500 J-0.9526
G02 X33.027 I-0.7863 J0.0000
G02 X33.972 I0.4725 J0.0000
G02 X33.264 Y30.591 Z-1.333 I-0.4725 J0.0000 F120
G02 Y31.409 Z-1.467 I0.2362 J0.4092
G02 X33.972 Y31.000 Z-1.600 I0.2362 J-0.4092
G02 X33.264 Y30.591 I-0.4725 J0.0000
G02 Y31.409 I0.2362 J0.4092
G02 X33.972 Y31.000 I0.2362 J-0.4092
G02 X33.961 Y30.809 I-0.4767 J-0.0665 F400
G02 X33.871 Y30.629 I-0.4905 J0.1311
G02 X33.711 Y30.491 I-0.4219 J0.3277
G02 X33.500 Y30.423 I-0.2745 J0.4888
G02 X33.269 Y30.442 I-0.0666 J0.5832
G02 X33.055 Y30.555 I0.1718 J0.5888
G02 X32.894 Y30.749 I0.4028 J0.4970
G02 X32.817 Y31.000 I0.5869 J0.3152
G02 X32.845 Y31.271 I0.6893 J0.0666
G02 X32.980 Y31.520 I0.6868 J-0.2124
G02 X33.209 Y31.703 I0.5720 J-0.4777
G02 X33.500 Y31.788 I0.3557 J-0.6847
G02 X33.811 Y31.752 I0.0666 J-0.7951
G02 X34.094 Y31.594 I-0.2529 J-0.7845
G02 X34.300 Y31.331 I-0.5525 J-0.6467
G02 X34.392 Y31.000 I-0.7823 J-0.3961
G02 X34.349 Y30.648 I-0.9008 J-0.0666
G02 X34.168 Y30.332 I-0.8820 J0.2933
G02 X33.872 Y30.103 I-0.7213 J0.6272
G02 X33.500 Y30.003 I-0.4365 J0.8798
G02 X33.108 Y30.054 I-0.0666 J1.0063
G02 X32.758 Y30.258 I0.3337 J0.9795
G02 X32.506 Y30.588 I0.7018 J0.7959
G02 X32.400 Y31.000 I0.9792 J0.4707
G02 X32.484 Y31.421 I1.1000 J0.0000
G02 X32.722 Y31.778 I1.0163 J-0.4210
G02 X33.079 Y32.016 I0.7778 J-0.7778
G02 X33.500 Y32.100 I0.4210 J-1.0163
G02 X33.921 Y32.016 I0.0000 J-1.1000
G02 X34.278 Y31.778 I-0.4210 J-1.0163
G02 X34.516 Y31.421 I-0.7778 J-0.7778
G02 X34.600 Y31.000 I-1.0163 J-0.4210
G02 X32.950 Y30.047 I-1.1000 J0.0000
G02 Y31.953 I0.5500 J0.9526
G02 X34.600 Y31.000 I0.5500 J-0.9526
G02 X33.027 I-0.7863 J0.0000
G02 X33.972 I0.4725 J0.0000
G02 X33.264 Y30.591 Z-1.733 I-0.4725 J0.0000 F120
G02 Y31.409 Z-1.867 I0.2362 J0.4092
G02 X33.972 Y31.000 Z-2.000 I0.2362 J-0.4092
G02 X33.264 Y30.591 I-0.4725 J0.0000
G02 Y31.409 I0.2362 J0.4092
G02 X33.972 Y31.000 I0.2362 J-0.4092
G02 X33.961 Y30.809 I-0.4767 J-0.0665 F400
G02 X33.871 Y30.629 I-0.4905 J0.1311
G02 X33.711 Y30.491 I-0.4219 J0.3277
G02 X33.500 Y30.423 I-0.2745 J0.4888
G02 X33.269 Y30.442 I-0.0666 J0.5832
G02 X33.055 Y30.555 I0.1718 J0.5888
G02 X32.894 Y30.749 I0.4028 J0.4970
G02 X32.817 Y31.000 I0.5869 J0.3152
G02 X32.845 Y31.271 I0.6893 J0.0666
G02 X32.980 Y31.520 I0.6868 J-0.2124
G02 X33.209 Y31.703 I0.5720 J-0.4777
G02 X33.500 Y31.788 I0.3557 J-0.6847
G02 X33.811 Y31.752 I0.0666 J-0.7951
G02 X34.094 Y31.594 I-0.2529 J-0.7845
G02 X34.300 Y31.331 I-0.5525 J-0.6467
G02 X34.392 Y31.000 I-0.7823 J-0.3961
