(Project nrf51822-v7)
(Created by Estlcam version 11 build 11.118)
(Machining time about 00:31:34 hours)

(Required tools:)
(End 1.000mm)
G21
G90
G94
M03 S24000.0
G00 Z20.000


(No. 1 Parallel pocket: Hole 1)
G00 X13.625 Y10.933
G00 Z0.500
G01 Z-0.400 F120 S24000.0
G03 X13.542 Y14.540 I-14.1179 J1.4821 F400
G01 X13.822 Y14.549
G01 X14.300 Y14.614
G01 Y13.495
G02 X13.625 Y10.933 I-1.7959 J-0.8960
G01 X13.202 Y10.974
G03 X13.040 Y14.936 I-13.3542 J1.4369
G01 X13.789 Y14.969
G01 X14.720 Y15.092
G01 Y13.560
G02 X13.106 Y10.233 I-2.2122 J-0.9818
G01 X13.188 Y10.819
G01 X13.202 Y10.974
G01 X12.784 Y11.027
G01 X12.797 Y11.129
G03 X12.513 Y15.347 I-12.6996 J1.2640
G03 X14.983 Y15.562 I0.2028 J12.0196
G01 X15.140 Y15.438
G01 Y13.626
G02 X12.579 Y9.731 I-2.6379 J-1.0551
G01 X12.707 Y10.427
G01 X12.784 Y11.027
G01 X12.361 Y11.070
G03 X11.961 Y15.784 I-12.0081 J1.3554
G03 X15.082 Y16.006 I0.6598 J12.7542
G01 X15.346 Y15.825
G01 X15.560 Y15.611
G01 Y13.700
G02 X12.035 Y9.336 I-3.0559 J-1.1377
G03 X12.347 Y10.933 I-11.5556 J3.0830
G01 X12.361 Y11.070
G01 X11.941 Y11.121
G03 X11.409 Y16.138 I-11.5004 J1.3180
G01 X11.805 Y16.179
G01 X12.060 Y16.237
G03 X15.173 Y16.459 I0.9186 J9.0411
G01 X15.618 Y16.146
G01 X15.980 Y15.792
G01 Y13.766
G02 X11.500 Y9.015 I-3.4762 J-1.2102
G03 X11.941 Y11.121 I-10.5461 J3.3066
G01 X11.524 Y11.176
G01 X11.545 Y11.335
G03 X10.808 Y16.525 I-10.8903 J1.1010
G03 X12.068 Y16.665 I0.0371 J5.4063
G03 X15.214 Y16.912 I0.9424 J8.1511
G02 X16.400 Y15.949 I-1.6374 J-3.2267
G01 Y13.840
G02 X10.965 Y8.759 I-3.8869 J-1.2897
G03 X11.524 Y11.176 I-10.0251 J3.5941
G01 X11.111 Y11.217
G03 X10.150 Y16.953 I-10.3124 J1.2212
G03 X12.052 Y17.085 I0.4776 J6.9022
G03 X15.255 Y17.365 I0.9369 J7.7465
G02 X16.820 Y16.113 I-1.9627 J-4.0572
G01 Y13.915
G02 X10.429 Y8.545 I-4.2996 J-1.3702
G03 X11.111 Y11.217 I-9.4783 J3.8393
G01 X10.696 Y11.257
G03 X9.400 Y17.464 I-9.8252 J1.1875
G03 X12.035 Y17.505 I1.2106 J6.8698
G03 X15.288 Y17.818 I0.9092 J7.6116
G02 X17.240 Y16.261 I-2.0653 J-4.5918
G01 Y13.989
G02 X9.886 Y8.372 I-4.7208 J-1.4414
G03 X10.696 Y11.257 I-8.7990 J4.0269
G01 X10.273 Y11.304
G03 X8.758 Y17.686 I-9.2992 J1.1632
G01 X8.750 Y17.727
G01 X8.898 Y17.851
G01 X9.079 Y17.958
G03 X12.052 Y17.933 I1.5403 J6.4703
G03 X15.288 Y18.279 I0.9068 J6.8298
G02 X17.693 Y16.360 I-2.0847 J-5.0788
G01 X17.660 Y16.204
G01 Y14.063
G02 X9.342 Y8.224 I-5.1428 J-1.5174
G03 X10.273 Y11.304 I-8.1263 J4.1363
G01 X9.857 Y11.366
G01 X9.861 Y11.388
G03 X8.214 Y17.736 I-8.9131 J1.0754
G02 X9.062 Y18.403 I1.3982 J-0.9051
G03 X12.052 Y18.361 I1.5775 J5.9916
G03 X15.338 Y18.740 I0.9083 J6.5608
G02 X18.146 Y16.459 I-2.4162 J-5.8435
G01 Y16.393
G01 X18.080 Y16.130
G01 Y14.137
G02 X8.799 Y8.109 I-5.5617 J-1.5956
G03 X9.857 Y11.366 I-7.8356 J4.3469
G01 X9.436 Y11.410
G03 X7.654 Y17.785 I-8.4828 J1.0660
G02 X9.013 Y18.847 I2.8191 J-2.2057
G03 X12.068 Y18.790 I1.6400 J5.9314
G03 X15.370 Y19.201 I0.9260 J6.0215
G02 X18.607 Y16.525 I-2.6345 J-6.4807
G01 X18.500 Y16.056
G01 Y14.211
G02 X8.255 Y8.026 I-5.9766 J-1.6769
G03 X9.436 Y11.410 I-7.2442 J4.4245
G01 X9.015 Y11.460
G03 X7.267 Y17.596 I-8.0259 J1.0310
G01 X7.201 Y17.834
G01 X7.160 Y17.908
G02 X8.972 Y19.300 I4.0198 J-3.3579
G03 X11.252 Y19.106 I1.5483 J4.6928
G01 X11.682 Y19.154
G01 X12.109 Y19.218
G03 X15.354 Y19.663 I0.9187 J5.3561
G02 X19.068 Y16.583 I-2.5517 J-6.8564
G01 X18.920 Y15.982
G01 Y14.285
G02 X7.712 Y7.969 I-6.3982 J-1.7487
G03 X9.015 Y11.460 I-6.6716 J4.4782
G01 X8.600 Y11.514
G03 X6.888 Y17.398 I-7.5661 J0.9897
G03 X6.674 Y17.941 I-1.6211 J-0.3247
G01 X6.666 Y17.999
G02 X8.964 Y19.761 I4.8293 J-3.9173
G03 X11.517 Y19.580 I1.5733 J4.0922
G01 X12.142 Y19.638
G03 X15.321 Y20.124 I0.8741 J4.9222
G02 X19.537 Y16.616 I-2.4641 J-7.2494
G01 X19.422 Y16.286
G01 X19.340 Y15.907
G01 Y14.359
G02 X7.210 Y7.887 I-6.8193 J-1.8229
G01 X7.218 Y8.010
G03 X8.600 Y11.514 I-6.1416 J4.4479
G01 X8.180 Y11.571
G03 X6.510 Y17.200 I-7.1817 J0.9319
G01 X6.411 Y17.521
G01 X6.164 Y18.040
G02 X8.964 Y20.223 I5.4058 J-4.0485
G03 X11.394 Y19.984 I1.5723 J3.5190
G02 X12.948 Y20.014 I0.8754 J-5.0845
G03 X15.263 Y20.585 I0.2413 J4.0037
G02 X20.007 Y16.640 I-2.3531 J-7.6538
G01 X19.842 Y16.204
G01 X19.760 Y15.833
G01 Y14.433
G02 X8.360 Y6.328 I-7.2316 J-1.8984
G02 X7.144 Y7.368 I4.1604 J6.0989
G01 X6.757 Y7.738
G01 X6.814 Y8.166
G03 X8.180 Y11.571 I-5.7802 J4.2945
G01 X7.753 Y11.630
G01 X7.773 Y11.772
G03 X6.123 Y17.011 I-6.8583 J0.7183
G01 X6.007 Y17.406
G01 X5.950 Y17.521
G01 X5.661 Y18.114
G02 X8.972 Y20.684 I6.1644 J-4.5253
G03 X10.899 Y20.313 I1.6714 J3.4956
G02 X12.933 Y20.432 I1.3386 J-5.4410
G03 X15.189 Y21.046 I0.2301 J3.6062
G02 X20.468 Y16.657 I-2.2476 J-8.0717
G02 X20.327 Y16.303 I-3.0110 J0.9959
G03 X20.180 Y15.751 I2.6158 J-0.9925
G01 Y14.507
G02 X7.119 Y6.750 I-7.6683 J-1.9627
G03 X6.287 Y7.590 I-4.5118 J-3.6358
G01 X6.361 Y7.969
G01 X6.403 Y8.315
G03 X7.753 Y11.630 I-5.4426 J4.1505
G01 X7.335 Y11.691
G01 X7.349 Y11.791
G03 X5.727 Y16.830 I-6.4546 J0.7026
G03 X5.134 Y18.090 I-3.1852 J-0.7294
G02 X9.038 Y21.161 I6.6639 J-4.4524
G03 X11.236 Y20.809 I1.5009 J2.3313
G02 X12.916 Y20.846 I0.9629 J-5.5528
G03 X15.091 Y21.507 I0.2432 J3.1054
G02 X20.946 Y16.632 I-2.1505 J-8.5364
G03 X20.600 Y15.677 I2.5412 J-1.4603
G01 Y14.582
G02 X6.773 Y6.495 I-8.0872 J-2.0363
G03 X5.785 Y7.442 I-3.5838 J-2.7505
G03 X5.991 Y8.471 I-3.2837 J1.1920
G03 X7.335 Y11.691 I-5.0629 J4.0032
G01 X6.915 Y11.754
G01 X6.923 Y11.807
G03 X5.332 Y16.640 I-6.0554 J0.6856
G03 X4.591 Y18.065 I-2.5771 J-0.4356
G02 X9.079 Y21.639 I7.3637 J-4.6421
G03 X11.158 Y21.220 I1.4788 J1.9677
G02 X12.754 Y21.283 I1.0462 J-6.2296
G03 X14.992 Y21.977 I0.3785 J2.7339
G02 X21.407 Y16.665 I-2.0713 J-9.0313
G01 X21.415 Y16.607
G03 X21.020 Y15.594 I2.5448 J-1.5767
G01 Y14.656
G02 X6.386 Y6.281 I-8.5055 J-2.1104
G03 X5.258 Y7.277 I-2.8593 J-2.1005
G03 X5.579 Y8.628 I-3.0678 J1.4430
G03 X6.915 Y11.754 I-4.6930 J3.8536
G01 X6.497 Y11.819
G03 X4.929 Y16.459 I-5.6589 J0.6726
G03 X4.023 Y17.991 I-2.1341 J-0.2284
G02 X9.145 Y22.125 I8.1512 J-4.8594
G03 X11.293 Y21.656 I1.4919 J1.6796
G02 X12.620 Y21.730 I1.0313 J-6.6029
G03 X14.876 Y22.454 I0.4961 J2.3305
G02 X21.901 Y16.583 I-2.0231 J-9.5580
G03 X21.440 Y15.520 I2.3470 J-1.6501
G01 Y14.730
G02 X5.950 Y6.116 I-8.9255 J-2.1840
G03 X4.616 Y7.079 I-1.9860 J-1.3445
G03 X5.159 Y8.776 I-2.0826 J1.6025
G03 X6.497 Y11.819 I-4.3209 J3.7151
G01 X6.074 Y11.854
G03 X4.509 Y16.286 I-5.2548 J0.6365
G03 X4.052 Y17.369 I-1.5556 J-0.0181
G03 X3.454 Y17.892 I-2.0388 J-1.7266
G02 X9.244 Y22.611 I8.8296 J-4.9221
G03 X11.222 Y22.068 I1.4121 J1.2704
G02 X12.653 Y22.150 I1.1778 J-8.0601
G03 X14.720 Y22.924 I0.4495 J1.9465
G02 X22.387 Y16.467 I-1.8745 J-10.0063
G03 X21.860 Y15.446 I1.3498 J-1.3432
G01 Y14.804
G02 X5.637 Y5.828 I-9.3452 J-2.2583
G03 X3.652 Y6.750 I-1.7204 J-1.1055
G01 X3.611 Y6.808
G01 Y6.849
G03 X4.739 Y8.932 I-0.8767 J1.8219
G03 X6.074 Y11.854 I-3.9173 J3.5547
G01 X5.650 Y11.894
G03 X4.089 Y16.113 I-4.8480 J0.6042
G03 X3.677 Y17.126 I-1.2297 J0.0903
G01 X2.911 Y17.810
G02 X9.392 Y23.105 I9.5007 J-5.0147
G03 X11.212 Y22.487 I1.2998 J0.8398
G02 X12.686 Y22.570 I1.2263 J-8.7114
G03 X14.506 Y23.393 I0.4069 J1.5235
G02 X22.897 Y16.352 I-1.6956 J-10.5418
G03 X22.280 Y15.364 I0.8949 J-1.2464
G01 Y14.878
G02 X4.912 Y5.992 I-9.7623 J-2.3348
G03 X3.463 Y6.281 I-0.9880 J-1.1800
G01 X3.199 Y6.668
G01 X2.977 Y7.038
G01 X2.993 Y7.079
G03 X4.278 Y9.056 I-0.2887 J1.5934
G03 X5.650 Y11.894 I-3.4637 J3.4248
G01 X5.231 Y11.947
G03 X3.660 Y15.916 I-4.3893 J0.5587
G01 X3.669 Y16.261
G03 X3.463 Y16.747 I-1.0803 J-0.1712
G01 X2.507 Y17.604
G01 X2.359 Y17.703
G02 X9.622 Y23.599 I10.1078 J-5.0295
G03 X10.701 Y22.825 I1.0540 J0.3301
G02 X12.735 Y22.989 I1.8470 J-10.1679
G03 X14.234 Y23.862 I0.3393 J1.1406
G02 X23.416 Y16.163 I-1.4528 J-11.0572
G03 X22.700 Y15.290 I0.4298 J-1.0832
G01 Y14.952
G02 X4.653 Y5.654 I-10.1786 J-2.4067
G03 X3.323 Y5.762 I-0.7392 J-0.8585
G02 X2.384 Y7.261 I6.8942 J5.3617
G01 X2.392 Y7.285
G01 X3.314 Y7.664
G03 X3.784 Y9.163 I-0.5566 J0.9972
G03 X5.231 Y11.947 I-2.9587 J3.3055
G01 X4.811 Y12.002
G03 X3.166 Y15.776 I-4.0011 J0.5015
G03 X3.117 Y16.500 I-0.5770 J0.3247
G01 X2.211 Y17.299
G01 X2.079 Y17.373
G01 X1.775 Y17.489
G02 X9.960 Y24.118 I10.7252 J-4.8750
G01 X10.010 Y23.780
G03 X10.759 Y23.253 I0.6707 J0.1574
G02 X13.304 Y23.397 I1.9535 J-12.0018
G03 X13.814 Y24.332 I-0.2272 J0.7304
G02 X23.951 Y15.850 I-1.0205 J-11.5184
G01 X23.597 Y15.776
G03 X23.120 Y15.224 I0.1987 J-0.6546
G01 Y15.026
G02 X4.283 Y5.420 I-10.6059 J-2.4744
G03 X3.306 Y5.136 I-0.3418 J-0.6457
G01 X3.273 Y5.128
G02 X1.807 Y7.499 I7.9313 J6.5408
G01 X3.092 Y8.026
G01 X3.174 Y8.076
G01 X3.356 Y8.265
G03 X3.224 Y9.254 I-0.7557 J0.4021
G03 X4.811 Y12.002 I-2.4028 J3.2194
G00 Z20.000
G00 X4.810 Y12.001
G00 Z0.100
G01 Z-0.400 F120
G01 X4.595 Y12.030 F400
G01 X4.610 Y12.146
G01 X4.616 Y12.208
G01 X4.626 Y12.500
G01 Y12.562
G01 X4.609 Y12.853
G01 X4.604 Y12.915
G01 X4.561 Y13.203
G01 X4.550 Y13.264
G01 X4.480 Y13.547
G01 X4.463 Y13.607
G01 X4.368 Y13.883
G01 X4.346 Y13.941
G01 X4.226 Y14.207
G01 X4.198 Y14.262
G01 X4.054 Y14.516
G01 X4.022 Y14.569
G01 X3.855 Y14.808
G01 X3.818 Y14.858
G01 X3.630 Y15.081
G01 X3.589 Y15.127
G01 X3.381 Y15.332
G01 X3.335 Y15.374
G01 X3.110 Y15.559
G01 X3.061 Y15.597
G01 X2.885 Y15.715
G01 X2.888 Y15.726
G01 X2.883 Y15.717
G01 X2.987 Y15.913
G03 X2.869 Y16.454 I-0.4148 J0.1931
G01 X2.119 Y17.094
G03 X1.480 Y17.380 I-0.9316 J-1.2244
G01 X1.549 Y17.543
G02 X10.131 Y24.382 I10.9658 J-4.9567
G01 X10.222 Y23.837
G03 X10.732 Y23.478 I0.4476 J0.0945
G02 X13.192 Y23.601 I1.8007 J-11.3966
G03 X13.590 Y24.036 I-0.0593 J0.4536
G01 X13.611 Y24.568
G01 X13.817 Y24.556
G02 X24.214 Y15.697 I-1.0473 J-11.7596
G01 X23.670 Y15.572
G03 X23.335 Y15.132 I0.1218 J-0.4410
G01 X23.337 Y15.086
G01 X23.344 Y15.041
G02 X4.239 Y5.189 I-10.8067 J-2.4939
G03 X3.650 Y5.170 I-0.2834 J-0.3591
G01 X3.253 Y4.813
G01 X3.201 Y4.874
G02 X1.514 Y7.619 I9.0614 J7.4593
G01 X2.984 Y8.220
G03 X3.191 Y8.843 I-0.1990 J0.4120
G01 X2.948 Y9.310
G01 X2.957 Y9.328
G01 X3.113 Y9.439
G01 X3.163 Y9.476
G01 X3.384 Y9.666
G01 X3.430 Y9.708
G01 X3.633 Y9.917
G01 X3.675 Y9.963
G01 X3.858 Y10.190
G01 X3.895 Y10.240
G01 X4.057 Y10.483
G01 X4.089 Y10.536
G01 X4.228 Y10.792
G01 X4.255 Y10.848
G01 X4.369 Y11.116
G01 X4.392 Y11.174
G01 X4.481 Y11.452
G01 X4.498 Y11.511
G01 X4.561 Y11.796
G01 X4.573 Y11.857
G01 X4.595 Y12.030
G00 Z20.000
G00 X13.651 Y11.225
G00 Z0.100
G01 Z-0.800 F120
G03 X13.542 Y14.540 I-14.0136 J1.2023 F400
G01 X13.822 Y14.549
G01 X14.300 Y14.614
G01 Y13.495
G02 X13.625 Y10.933 I-1.7959 J-0.8960
G01 X13.651 Y11.225
G01 X13.230 Y11.265
G01 X13.244 Y11.407
G03 X13.040 Y14.936 I-13.4989 J0.9911
G01 X13.789 Y14.969
G01 X14.720 Y15.092
G01 Y13.560
G02 X13.106 Y10.233 I-2.2122 J-0.9818
G01 X13.188 Y10.819
G01 X13.230 Y11.265
G01 X12.809 Y11.295
G03 X12.513 Y15.347 I-12.6078 J1.1171
G03 X14.983 Y15.562 I0.2028 J12.0196
G01 X15.140 Y15.438
G01 Y13.626
G02 X12.579 Y9.731 I-2.6379 J-1.0551
G01 X12.707 Y10.427
G01 X12.797 Y11.129
G01 X12.809 Y11.295
G01 X12.388 Y11.338
G01 X12.402 Y11.472
G03 X11.961 Y15.784 I-12.1108 J0.9401
G03 X15.082 Y16.006 I0.6598 J12.7542
G01 X15.346 Y15.825
G01 X15.560 Y15.611
G01 Y13.700
G02 X12.035 Y9.336 I-3.0559 J-1.1377
G03 X12.388 Y11.338 I-11.2315 J3.0121
G01 X11.969 Y11.367
G03 X11.409 Y16.138 I-11.5811 J1.0595
G01 X11.805 Y16.179
G01 X12.060 Y16.237
G03 X15.173 Y16.459 I0.9186 J9.0411
G01 X15.618 Y16.146
G01 X15.980 Y15.792
G01 Y13.766
G02 X11.500 Y9.015 I-3.4762 J-1.2102
G03 X11.969 Y11.367 I-10.8447 J3.3862
G01 X11.550 Y11.397
G03 X10.808 Y16.525 I-10.8655 J1.0473
G03 X12.068 Y16.665 I0.0371 J5.4063
G03 X15.214 Y16.912 I0.9424 J8.1511
G02 X16.400 Y15.949 I-1.6374 J-3.2267
G01 Y13.840
G02 X10.965 Y8.759 I-3.8869 J-1.2897
G03 X11.550 Y11.397 I-10.1129 J3.6260
G01 X11.132 Y11.437
G03 X10.150 Y16.953 I-10.3055 J1.0099
G03 X12.052 Y17.085 I0.4776 J6.9022
G03 X15.255 Y17.365 I0.9369 J7.7465
G02 X16.820 Y16.113 I-1.9627 J-4.0572
G01 Y13.915
G02 X10.429 Y8.545 I-4.2996 J-1.3702
G03 X11.132 Y11.437 I-9.3558 J3.8042
G01 X10.717 Y11.477
G03 X9.400 Y17.464 I-9.8217 J0.9769
G03 X12.035 Y17.505 I1.2106 J6.8698
G03 X15.288 Y17.818 I0.9092 J7.6116
G02 X17.240 Y16.261 I-2.0653 J-4.5918
G01 Y13.989
G02 X9.886 Y8.372 I-4.7208 J-1.4414
G03 X10.717 Y11.477 I-8.6576 J3.9821
G01 X10.298 Y11.524
G01 X10.319 Y11.720
G03 X8.758 Y17.686 I-9.3773 J0.7334
G01 X8.750 Y17.727
G01 X8.898 Y17.851
G01 X9.079 Y17.958
G03 X12.052 Y17.933 I1.5403 J6.4703
G03 X15.288 Y18.279 I0.9068 J6.8298
G02 X17.693 Y16.360 I-2.0847 J-5.0788
G01 X17.660 Y16.204
G01 Y14.063
G02 X9.342 Y8.224 I-5.1428 J-1.5174
G03 X10.298 Y11.524 I-8.1923 J4.1594
G01 X9.877 Y11.563
G03 X8.214 Y17.736 I-8.9106 J0.9100
G02 X9.062 Y18.403 I1.3982 J-0.9051
G03 X12.052 Y18.361 I1.5775 J5.9916
G03 X15.338 Y18.740 I0.9083 J6.5608
G02 X18.146 Y16.459 I-2.4162 J-5.8435
G01 Y16.393
G01 X18.080 Y16.130
G01 Y14.137
G02 X8.799 Y8.109 I-5.5617 J-1.5956
G03 X9.877 Y11.563 I-7.7765 J4.3222
G01 X9.456 Y11.607
G03 X7.654 Y17.785 I-8.4947 J0.8736
G02 X9.013 Y18.847 I2.8191 J-2.2057
G03 X12.068 Y18.790 I1.6400 J5.9314
G03 X15.370 Y19.201 I0.9260 J6.0215
G02 X18.607 Y16.525 I-2.6345 J-6.4807
G01 X18.500 Y16.056
G01 Y14.211
G02 X8.255 Y8.026 I-5.9766 J-1.6769
G03 X9.456 Y11.607 I-7.2204 J4.4136
G01 X9.038 Y11.657
G01 X9.053 Y11.782
G03 X7.267 Y17.596 I-8.0813 J0.6986
G01 X7.201 Y17.834
G01 X7.160 Y17.908
G02 X8.972 Y19.300 I4.0198 J-3.3579
G03 X11.252 Y19.106 I1.5483 J4.6928
G01 X11.682 Y19.154
G01 X12.109 Y19.218
G03 X15.354 Y19.663 I0.9187 J5.3561
G02 X19.068 Y16.583 I-2.5517 J-6.8564
G01 X18.920 Y15.982
G01 Y14.285
G02 X7.712 Y7.969 I-6.3982 J-1.7487
G03 X9.038 Y11.657 I-6.6928 J4.4888
G01 X8.626 Y11.711
G01 X8.631 Y11.750
G03 X6.888 Y17.398 I-7.6185 J0.7417
G03 X6.674 Y17.941 I-1.6211 J-0.3247
G01 X6.666 Y17.999
G02 X8.964 Y19.761 I4.8293 J-3.9173
G03 X11.517 Y19.580 I1.5733 J4.0922
G01 X12.142 Y19.638
G03 X15.321 Y20.124 I0.8741 J4.9222
G02 X19.537 Y16.616 I-2.4641 J-7.2494
G01 X19.422 Y16.286
G01 X19.340 Y15.907
G01 Y14.359
G02 X7.210 Y7.887 I-6.8193 J-1.8229
G01 X7.218 Y8.010
G03 X8.626 Y11.711 I-6.1891 J4.4734
G01 X8.206 Y11.762
G03 X6.510 Y17.200 I-7.2274 J0.7294
G01 X6.411 Y17.521
G01 X6.164 Y18.040
G02 X8.964 Y20.223 I5.4058 J-4.0485
G03 X11.394 Y19.984 I1.5723 J3.5190
G02 X12.948 Y20.014 I0.8754 J-5.0845
G03 X15.263 Y20.585 I0.2413 J4.0037
G02 X20.007 Y16.640 I-2.3531 J-7.6538
G01 X19.842 Y16.204
G01 X19.760 Y15.833
G01 Y14.433
G02 X8.360 Y6.328 I-7.2316 J-1.8984
G02 X7.144 Y7.368 I4.1604 J6.0989
G01 X6.757 Y7.738
G01 X6.814 Y8.166
G03 X8.206 Y11.762 I-5.8361 J4.3252
G01 X7.775 Y11.793
G03 X6.123 Y17.011 I-6.8561 J0.7001
G01 X6.007 Y17.406
G01 X5.950 Y17.521
G01 X5.661 Y18.114
G02 X8.972 Y20.684 I6.1644 J-4.5253
G03 X10.899 Y20.313 I1.6714 J3.4956
G02 X12.933 Y20.432 I1.3386 J-5.4410
G03 X15.189 Y21.046 I0.2301 J3.6062
G02 X20.468 Y16.657 I-2.2476 J-8.0717
G02 X20.327 Y16.303 I-3.0110 J0.9959
G03 X20.180 Y15.751 I2.6158 J-0.9925
G01 Y14.507
G02 X7.119 Y6.750 I-7.6683 J-1.9627
G03 X6.287 Y7.590 I-4.5118 J-3.6358
G01 X6.361 Y7.969
G01 X6.403 Y8.315
G03 X7.775 Y11.793 I-5.4772 J4.1705
G01 X7.351 Y11.824
G03 X5.727 Y16.830 I-6.4515 J0.6734
G03 X5.134 Y18.090 I-3.1852 J-0.7294
G02 X9.038 Y21.161 I6.6639 J-4.4524
G03 X11.236 Y20.809 I1.5009 J2.3313
G02 X12.916 Y20.846 I0.9629 J-5.5528
G03 X15.091 Y21.507 I0.2432 J3.1054
G02 X20.946 Y16.632 I-2.1505 J-8.5364
G03 X20.600 Y15.677 I2.5412 J-1.4603
G01 Y14.582
G02 X6.773 Y6.495 I-8.0872 J-2.0363
G03 X5.785 Y7.442 I-3.5838 J-2.7505
G03 X5.991 Y8.471 I-3.2837 J1.1920
G03 X7.351 Y11.824 I-5.0809 J4.0144
G01 X6.927 Y11.856
G03 X5.332 Y16.640 I-6.0514 J0.6407
G03 X4.591 Y18.065 I-2.5771 J-0.4356
G02 X9.079 Y21.639 I7.3637 J-4.6421
G03 X11.158 Y21.220 I1.4788 J1.9677
G02 X12.754 Y21.283 I1.0462 J-6.2296
G03 X14.992 Y21.977 I0.3785 J2.7339
G02 X21.407 Y16.665 I-2.0713 J-9.0313
G01 X21.415 Y16.607
G03 X21.020 Y15.594 I2.5448 J-1.5767
G01 Y14.656
G02 X6.386 Y6.281 I-8.5055 J-2.1104
G03 X5.258 Y7.277 I-2.8593 J-2.1005
G03 X5.579 Y8.628 I-3.0678 J1.4430
G03 X6.927 Y11.856 I-4.6903 J3.8529
G01 X6.503 Y11.891
G03 X4.929 Y16.459 I-5.6549 J0.6067
G03 X4.023 Y17.991 I-2.1341 J-0.2284
G02 X9.145 Y22.125 I8.1512 J-4.8594
G03 X11.293 Y21.656 I1.4919 J1.6796
G02 X12.620 Y21.730 I1.0313 J-6.6029
G03 X14.876 Y22.454 I0.4961 J2.3305
G02 X21.901 Y16.583 I-2.0231 J-9.5580
G03 X21.440 Y15.520 I2.3470 J-1.6501
G01 Y14.730
G02 X5.950 Y6.116 I-8.9255 J-2.1840
G03 X4.616 Y7.079 I-1.9860 J-1.3445
G03 X5.159 Y8.776 I-2.0826 J1.6025
G03 X6.503 Y11.891 I-4.2945 J3.6998
G01 X6.080 Y11.926
G03 X4.509 Y16.286 I-5.2515 J0.5705
G03 X4.052 Y17.369 I-1.5556 J-0.0181
G03 X3.454 Y17.892 I-2.0388 J-1.7266
G02 X9.244 Y22.611 I8.8296 J-4.9221
G03 X11.222 Y22.068 I1.4121 J1.2704
G02 X12.653 Y22.150 I1.1778 J-8.0601
G03 X14.720 Y22.924 I0.4495 J1.9465
G02 X22.387 Y16.467 I-1.8745 J-10.0063
G03 X21.860 Y15.446 I1.3498 J-1.3432
G01 Y14.804
G02 X5.637 Y5.828 I-9.3452 J-2.2583
G03 X3.652 Y6.750 I-1.7204 J-1.1055
G01 X3.611 Y6.808
G01 Y6.849
G03 X4.739 Y8.932 I-0.8767 J1.8219
G03 X6.080 Y11.926 I-3.8937 J3.5404
G01 X5.657 Y11.966
G03 X4.089 Y16.113 I-4.8482 J0.5368
G03 X3.677 Y17.126 I-1.2297 J0.0903
G01 X2.911 Y17.810
G02 X9.392 Y23.105 I9.5007 J-5.0147
G03 X11.212 Y22.487 I1.2998 J0.8398
G02 X12.686 Y22.570 I1.2263 J-8.7114
G03 X14.506 Y23.393 I0.4069 J1.5235
G02 X22.897 Y16.352 I-1.6956 J-10.5418
G03 X22.280 Y15.364 I0.8949 J-1.2464
G01 Y14.878
G02 X4.912 Y5.992 I-9.7623 J-2.3348
G03 X3.463 Y6.281 I-0.9880 J-1.1800
G01 X3.199 Y6.668
G01 X2.977 Y7.038
G01 X2.993 Y7.079
G03 X4.278 Y9.056 I-0.2887 J1.5934
G03 X5.657 Y11.966 I-3.4507 J3.4162
G01 X5.240 Y12.018
G01 X5.253 Y12.126
G03 X3.660 Y15.916 I-4.4223 J0.3712
G01 X3.669 Y16.261
G03 X3.463 Y16.747 I-1.0803 J-0.1712
G01 X2.507 Y17.604
G01 X2.359 Y17.703
G02 X9.622 Y23.599 I10.1078 J-5.0295
G03 X10.701 Y22.825 I1.0540 J0.3301
G02 X12.735 Y22.989 I1.8470 J-10.1679
G03 X14.234 Y23.862 I0.3393 J1.1406
G02 X23.416 Y16.163 I-1.4528 J-11.0572
G03 X22.700 Y15.290 I0.4298 J-1.0832
G01 Y14.952
G02 X4.653 Y5.654 I-10.1786 J-2.4067
G03 X3.323 Y5.762 I-0.7392 J-0.8585
G02 X2.384 Y7.261 I6.8942 J5.3617
G01 X2.392 Y7.285
G01 X3.314 Y7.664
G03 X3.784 Y9.163 I-0.5566 J0.9972
G03 X5.240 Y12.018 I-2.9659 J3.3108
G01 X4.820 Y12.074
G01 X4.830 Y12.150
G03 X3.166 Y15.776 I-4.0338 J0.3430
G03 X3.117 Y16.500 I-0.5770 J0.3247
G01 X2.211 Y17.299
G01 X2.079 Y17.373
G01 X1.775 Y17.489
G02 X9.960 Y24.118 I10.7252 J-4.8750
G01 X10.010 Y23.780
G03 X10.759 Y23.253 I0.6707 J0.1574
G02 X13.304 Y23.397 I1.9535 J-12.0018
G03 X13.814 Y24.332 I-0.2272 J0.7304
G02 X23.951 Y15.850 I-1.0205 J-11.5184
G01 X23.597 Y15.776
G03 X23.120 Y15.224 I0.1987 J-0.6546
G01 Y15.026
G02 X4.283 Y5.420 I-10.6059 J-2.4744
G03 X3.306 Y5.136 I-0.3418 J-0.6457
G01 X3.273 Y5.128
G02 X1.807 Y7.499 I7.9313 J6.5408
G01 X3.092 Y8.026
G01 X3.174 Y8.076
G01 X3.356 Y8.265
G03 X3.224 Y9.254 I-0.7557 J0.4021
G03 X4.820 Y12.074 I-2.4118 J3.2269
G00 Z20.000
G00 Y12.073
G00 Z-0.300
G01 Z-0.800 F120
G01 X4.604 Y12.101 F400
G01 X4.610 Y12.146
G01 X4.616 Y12.208
G01 X4.626 Y12.500
G01 Y12.562
G01 X4.609 Y12.853
G01 X4.604 Y12.915
G01 X4.561 Y13.203
G01 X4.550 Y13.264
G01 X4.480 Y13.547
G01 X4.463 Y13.607
G01 X4.368 Y13.883
G01 X4.346 Y13.941
G01 X4.226 Y14.207
G01 X4.198 Y14.262
G01 X4.054 Y14.516
G01 X4.022 Y14.569
G01 X3.855 Y14.808
G01 X3.818 Y14.858
G01 X3.630 Y15.081
G01 X3.589 Y15.127
G01 X3.381 Y15.332
G01 X3.335 Y15.374
G01 X3.110 Y15.559
G01 X3.061 Y15.597
G01 X2.885 Y15.715
G01 X2.888 Y15.726
G01 X2.883 Y15.717
G01 X2.987 Y15.913
G03 X2.869 Y16.454 I-0.4148 J0.1931
G01 X2.119 Y17.094
G03 X1.480 Y17.380 I-0.9316 J-1.2244
G01 X1.549 Y17.543
G02 X10.131 Y24.382 I10.9658 J-4.9567
G01 X10.222 Y23.837
G03 X10.732 Y23.478 I0.4476 J0.0945
G02 X13.192 Y23.601 I1.8007 J-11.3966
G03 X13.590 Y24.036 I-0.0593 J0.4536
G01 X13.611 Y24.568
G01 X13.817 Y24.556
G02 X24.214 Y15.697 I-1.0473 J-11.7596
G01 X23.670 Y15.572
G03 X23.335 Y15.132 I0.1218 J-0.4410
G01 X23.337 Y15.086
G01 X23.344 Y15.041
G02 X4.239 Y5.189 I-10.8067 J-2.4939
G03 X3.650 Y5.170 I-0.2834 J-0.3591
G01 X3.253 Y4.813
G01 X3.201 Y4.874
G02 X1.514 Y7.619 I9.0614 J7.4593
G01 X2.984 Y8.220
G03 X3.191 Y8.843 I-0.1990 J0.4120
G01 X2.948 Y9.310
G01 X2.957 Y9.328
G01 X3.113 Y9.439
G01 X3.163 Y9.476
G01 X3.384 Y9.666
G01 X3.430 Y9.708
G01 X3.633 Y9.917
G01 X3.675 Y9.963
G01 X3.858 Y10.190
G01 X3.895 Y10.240
G01 X4.057 Y10.483
G01 X4.089 Y10.536
G01 X4.228 Y10.792
G01 X4.255 Y10.848
G01 X4.369 Y11.116
G01 X4.392 Y11.174
G01 X4.481 Y11.452
G01 X4.498 Y11.511
G01 X4.561 Y11.796
G01 X4.573 Y11.857
G01 X4.604 Y12.101
G00 Z20.000
G00 X13.676 Y11.585
G00 Z-0.300
G01 Z-1.200 F120
G03 X13.542 Y14.540 I-14.0208 J0.8456 F400
G01 X13.822 Y14.549
G01 X14.300 Y14.614
G01 Y13.495
G02 X13.625 Y10.933 I-1.7959 J-0.8960
G01 X13.665 Y11.384
G01 X13.676 Y11.585
G01 X13.254 Y11.607
G03 X13.040 Y14.936 I-13.3653 J0.8119
G01 X13.789 Y14.969
G01 X14.720 Y15.092
G01 Y13.560
G02 X13.106 Y10.233 I-2.2122 J-0.9818
G01 X13.188 Y10.819
G01 X13.244 Y11.407
G01 X13.254 Y11.607
G01 X12.833 Y11.637
G01 X12.847 Y11.835
G03 X12.513 Y15.347 I-12.7501 J0.5580
G03 X14.983 Y15.562 I0.2028 J12.0196
G01 X15.140 Y15.438
G01 Y13.626
G02 X12.579 Y9.731 I-2.6379 J-1.0551
G01 X12.707 Y10.427
G01 X12.797 Y11.129
G01 X12.833 Y11.637
G01 X12.413 Y11.661
G03 X11.961 Y15.784 I-12.0533 J0.7663
G03 X15.082 Y16.006 I0.6598 J12.7542
G01 X15.346 Y15.825
G01 X15.560 Y15.611
G01 Y13.700
G02 X12.035 Y9.336 I-3.0559 J-1.1377
G03 X12.413 Y11.661 I-11.1173 J2.9975
G01 X11.992 Y11.690
G03 X11.409 Y16.138 I-11.5456 J0.7507
G01 X11.805 Y16.179
G01 X12.060 Y16.237
G03 X15.173 Y16.459 I0.9186 J9.0411
G01 X15.618 Y16.146
G01 X15.980 Y15.792
G01 Y13.766
G02 X11.500 Y9.015 I-3.4762 J-1.2102
G03 X11.992 Y11.690 I-10.6092 J3.3325
G01 X11.572 Y11.720
G03 X10.808 Y16.525 I-10.8160 J0.7435
G03 X12.068 Y16.665 I0.0371 J5.4063
G03 X15.214 Y16.912 I0.9424 J8.1511
G02 X16.400 Y15.949 I-1.6374 J-3.2267
G01 Y13.840
G02 X10.965 Y8.759 I-3.8869 J-1.2897
G03 X11.572 Y11.720 I-9.9648 J3.5879
G01 X11.159 Y11.738
G03 X10.150 Y16.953 I-10.3641 J0.6987
G03 X12.052 Y17.085 I0.4776 J6.9022
G03 X15.255 Y17.365 I0.9369 J7.7465
G02 X16.820 Y16.113 I-1.9627 J-4.0572
G01 Y13.915
G02 X10.429 Y8.545 I-4.2996 J-1.3702
G03 X11.159 Y11.738 I-9.5905 J3.8714
G01 X10.747 Y11.778
G01 X10.748 Y11.789
G03 X9.400 Y17.464 I-9.9201 J0.6416
G03 X12.035 Y17.505 I1.2106 J6.8698
G03 X15.288 Y17.818 I0.9092 J7.6116
G02 X17.240 Y16.261 I-2.0653 J-4.5918
G01 Y13.989
G02 X9.886 Y8.372 I-4.7208 J-1.4414
G03 X10.747 Y11.778 I-8.9262 J4.0673
G01 X10.323 Y11.798
G03 X8.758 Y17.686 I-9.3648 J0.6631
G01 X8.750 Y17.727
G01 X8.898 Y17.851
G01 X9.079 Y17.958
G03 X12.052 Y17.933 I1.5403 J6.4703
G03 X15.288 Y18.279 I0.9068 J6.8298
G02 X17.693 Y16.360 I-2.0847 J-5.0788
G01 X17.660 Y16.204
G01 Y14.063
G02 X9.342 Y8.224 I-5.1428 J-1.5174
G03 X10.323 Y11.798 I-8.3168 J4.2031
G01 X9.902 Y11.837
G01 X9.906 Y11.881
G03 X8.214 Y17.736 I-8.9587 J0.5822
G02 X9.062 Y18.403 I1.3982 J-0.9051
G03 X12.052 Y18.361 I1.5775 J5.9916
G03 X15.338 Y18.740 I0.9083 J6.5608
G02 X18.146 Y16.459 I-2.4162 J-5.8435
G01 Y16.393
G01 X18.080 Y16.130
G01 Y14.137
G02 X8.799 Y8.109 I-5.5617 J-1.5956
G03 X9.902 Y11.837 I-7.8311 J4.3451
G01 X9.481 Y11.856
G03 X7.654 Y17.785 I-8.5350 J0.6161
G02 X9.013 Y18.847 I2.8191 J-2.2057
G03 X12.068 Y18.790 I1.6400 J5.9314
G03 X15.370 Y19.201 I0.9260 J6.0215
G02 X18.607 Y16.525 I-2.6345 J-6.4807
G01 X18.500 Y16.056
G01 Y14.211
G02 X8.255 Y8.026 I-5.9766 J-1.6769
G03 X9.481 Y11.856 I-7.2747 J4.4390
G01 X9.058 Y11.879
G03 X7.267 Y17.596 I-8.0730 J0.6094
G01 X7.201 Y17.834
G01 X7.160 Y17.908
G02 X8.972 Y19.300 I4.0198 J-3.3579
G03 X11.252 Y19.106 I1.5483 J4.6928
G01 X11.682 Y19.154
G01 X12.109 Y19.218
G03 X15.354 Y19.663 I0.9187 J5.3561
G02 X19.068 Y16.583 I-2.5517 J-6.8564
G01 X18.920 Y15.982
G01 Y14.285
G02 X7.712 Y7.969 I-6.3982 J-1.7487
G03 X9.058 Y11.879 I-6.6958 J4.4920
G01 X8.641 Y11.906
G03 X6.888 Y17.398 I-7.6063 J0.5980
G03 X6.674 Y17.941 I-1.6211 J-0.3247
G01 X6.666 Y17.999
G02 X8.964 Y19.761 I4.8293 J-3.9173
G03 X11.517 Y19.580 I1.5733 J4.0922
G01 X12.142 Y19.638
G03 X15.321 Y20.124 I0.8741 J4.9222
G02 X19.537 Y16.616 I-2.4641 J-7.2494
G01 X19.422 Y16.286
G01 X19.340 Y15.907
G01 Y14.359
G02 X7.210 Y7.887 I-6.8193 J-1.8229
G01 X7.218 Y8.010
G03 X8.641 Y11.906 I-6.1515 J4.4554
G01 X8.217 Y11.935
G03 X6.510 Y17.200 I-7.2162 J0.5697
G01 X6.411 Y17.521
G01 X6.164 Y18.040
G02 X8.964 Y20.223 I5.4058 J-4.0485
G03 X11.394 Y19.984 I1.5723 J3.5190
G02 X12.948 Y20.014 I0.8754 J-5.0845
G03 X15.263 Y20.585 I0.2413 J4.0037
G02 X20.007 Y16.640 I-2.3531 J-7.6538
G01 X19.842 Y16.204
G01 X19.760 Y15.833
G01 Y14.433
G02 X8.360 Y6.328 I-7.2316 J-1.8984
G02 X7.144 Y7.368 I4.1604 J6.0989
G01 X6.757 Y7.738
G01 X6.814 Y8.166
G03 X8.217 Y11.935 I-5.7828 J4.2982
G01 X7.787 Y11.965
G03 X6.123 Y17.011 I-6.8487 J0.5388
G01 X6.007 Y17.406
G01 X5.950 Y17.521
G01 X5.661 Y18.114
G02 X8.972 Y20.684 I6.1644 J-4.5253
G03 X10.899 Y20.313 I1.6714 J3.4956
G02 X12.933 Y20.432 I1.3386 J-5.4410
G03 X15.189 Y21.046 I0.2301 J3.6062
G02 X20.468 Y16.657 I-2.2476 J-8.0717
G02 X20.327 Y16.303 I-3.0110 J0.9959
G03 X20.180 Y15.751 I2.6158 J-0.9925
G01 Y14.507
G02 X7.119 Y6.750 I-7.6683 J-1.9627
G03 X6.287 Y7.590 I-4.5118 J-3.6358
G01 X6.361 Y7.969
G01 X6.403 Y8.315
G03 X7.787 Y11.965 I-5.4356 J4.1488
G01 X7.364 Y11.996
G03 X5.727 Y16.830 I-6.4472 J0.5109
G03 X5.134 Y18.090 I-3.1852 J-0.7294
G02 X9.038 Y21.161 I6.6639 J-4.4524
G03 X11.236 Y20.809 I1.5009 J2.3313
G02 X12.916 Y20.846 I0.9629 J-5.5528
G03 X15.091 Y21.507 I0.2432 J3.1054
G02 X20.946 Y16.632 I-2.1505 J-8.5364
G03 X20.600 Y15.677 I2.5412 J-1.4603
G01 Y14.582
G02 X6.773 Y6.495 I-8.0872 J-2.0363
G03 X5.785 Y7.442 I-3.5838 J-2.7505
G03 X5.991 Y8.471 I-3.2837 J1.1920
G03 X7.364 Y11.996 I-5.0474 J3.9964
G01 X6.940 Y12.029
G03 X5.332 Y16.640 I-6.0510 J0.4766
G03 X4.591 Y18.065 I-2.5771 J-0.4356
G02 X9.079 Y21.639 I7.3637 J-4.6421
G03 X11.158 Y21.220 I1.4788 J1.9677
G02 X12.754 Y21.283 I1.0462 J-6.2296
G03 X14.992 Y21.977 I0.3785 J2.7339
G02 X21.407 Y16.665 I-2.0713 J-9.0313
G01 X21.415 Y16.607
G03 X21.020 Y15.594 I2.5448 J-1.5767
G01 Y14.656
G02 X6.386 Y6.281 I-8.5055 J-2.1104
G03 X5.258 Y7.277 I-2.8593 J-2.1005
G03 X5.579 Y8.628 I-3.0678 J1.4430
G03 X6.940 Y12.029 I-4.6667 J3.8398
G01 X6.517 Y12.063
G03 X4.929 Y16.459 I-5.6593 J0.4405
G03 X4.023 Y17.991 I-2.1341 J-0.2284
G02 X9.145 Y22.125 I8.1512 J-4.8594
G03 X11.293 Y21.656 I1.4919 J1.6796
G02 X12.620 Y21.730 I1.0313 J-6.6029
G03 X14.876 Y22.454 I0.4961 J2.3305
G02 X21.901 Y16.583 I-2.0231 J-9.5580
G03 X21.440 Y15.520 I2.3470 J-1.6501
G01 Y14.730
G02 X5.950 Y6.116 I-8.9255 J-2.1840
G03 X4.616 Y7.079 I-1.9860 J-1.3445
G03 X5.159 Y8.776 I-2.0826 J1.6025
G03 X6.517 Y12.063 I-4.2817 J3.6924
G01 X6.094 Y12.098
G03 X4.509 Y16.286 I-5.2593 J0.4028
G03 X4.052 Y17.369 I-1.5556 J-0.0181
G03 X3.454 Y17.892 I-2.0388 J-1.7266
G02 X9.244 Y22.611 I8.8296 J-4.9221
G03 X11.222 Y22.068 I1.4121 J1.2704
G02 X12.653 Y22.150 I1.1778 J-8.0601
G03 X14.720 Y22.924 I0.4495 J1.9465
G02 X22.387 Y16.467 I-1.8745 J-10.0063
G03 X21.860 Y15.446 I1.3498 J-1.3432
G01 Y14.804
G02 X5.637 Y5.828 I-9.3452 J-2.2583
G03 X3.652 Y6.750 I-1.7204 J-1.1055
G01 X3.611 Y6.808
G01 Y6.849
G03 X4.739 Y8.932 I-0.8767 J1.8219
G03 X6.094 Y12.098 I-3.8877 J3.5368
G01 X5.673 Y12.138
G01 X5.682 Y12.231
G03 X4.089 Y16.113 I-4.8872 J0.2628
G03 X3.677 Y17.126 I-1.2297 J0.0903
G01 X2.911 Y17.810
G02 X9.392 Y23.105 I9.5007 J-5.0147
G03 X11.212 Y22.487 I1.2998 J0.8398
G02 X12.686 Y22.570 I1.2263 J-8.7114
G03 X14.506 Y23.393 I0.4069 J1.5235
G02 X22.897 Y16.352 I-1.6956 J-10.5418
G03 X22.280 Y15.364 I0.8949 J-1.2464
G01 Y14.878
G02 X4.912 Y5.992 I-9.7623 J-2.3348
G03 X3.463 Y6.281 I-0.9880 J-1.1800
G01 X3.199 Y6.668
G01 X2.977 Y7.038
G01 X2.993 Y7.079
G03 X4.278 Y9.056 I-0.2887 J1.5934
G03 X5.673 Y12.138 I-3.4608 J3.4229
G01 X5.254 Y12.155
G03 X3.660 Y15.916 I-4.4194 J0.3453
G01 X3.669 Y16.261
G03 X3.463 Y16.747 I-1.0803 J-0.1712
G01 X2.507 Y17.604
G01 X2.359 Y17.703
G02 X9.622 Y23.599 I10.1078 J-5.0295
G03 X10.701 Y22.825 I1.0540 J0.3301
G02 X12.735 Y22.989 I1.8470 J-10.1679
G03 X14.234 Y23.862 I0.3393 J1.1406
G02 X23.416 Y16.163 I-1.4528 J-11.0572
G03 X22.700 Y15.290 I0.4298 J-1.0832
G01 Y14.952
G02 X4.653 Y5.654 I-10.1786 J-2.4067
G03 X3.323 Y5.762 I-0.7392 J-0.8585
G02 X2.384 Y7.261 I6.8942 J5.3617
G01 X2.392 Y7.285
G01 X3.314 Y7.664
G03 X3.784 Y9.163 I-0.5566 J0.9972
G03 X5.254 Y12.155 I-2.9797 J3.3214
G01 X4.831 Y12.171
G03 X3.166 Y15.776 I-4.0320 J0.3247
G03 X3.117 Y16.500 I-0.5770 J0.3247
G01 X2.211 Y17.299
G01 X2.079 Y17.373
G01 X1.775 Y17.489
G02 X9.960 Y24.118 I10.7252 J-4.8750
G01 X10.010 Y23.780
G03 X10.759 Y23.253 I0.6707 J0.1574
G02 X13.304 Y23.397 I1.9535 J-12.0018
G03 X13.814 Y24.332 I-0.2272 J0.7304
G02 X23.951 Y15.850 I-1.0205 J-11.5184
G01 X23.597 Y15.776
G03 X23.120 Y15.224 I0.1987 J-0.6546
G01 Y15.026
G02 X4.283 Y5.420 I-10.6059 J-2.4744
G03 X3.306 Y5.136 I-0.3418 J-0.6457
G01 X3.273 Y5.128
G02 X1.807 Y7.499 I7.9313 J6.5408
G01 X3.092 Y8.026
G01 X3.174 Y8.076
G01 X3.356 Y8.265
G03 X3.224 Y9.254 I-0.7557 J0.4021
G03 X4.831 Y12.171 I-2.4212 J3.2352
G00 Z20.000
G00 Y12.183
G00 Z-0.700
G01 Z-1.200 F120
G01 X4.614 Y12.192 F400
G01 X4.616 Y12.208
G01 X4.626 Y12.500
G01 Y12.562
G01 X4.609 Y12.853
G01 X4.604 Y12.915
G01 X4.561 Y13.203
G01 X4.550 Y13.264
G01 X4.480 Y13.547
G01 X4.463 Y13.607
G01 X4.368 Y13.883
G01 X4.346 Y13.941
G01 X4.226 Y14.207
G01 X4.198 Y14.262
G01 X4.054 Y14.516
G01 X4.022 Y14.569
G01 X3.855 Y14.808
G01 X3.818 Y14.858
G01 X3.630 Y15.081
G01 X3.589 Y15.127
G01 X3.381 Y15.332
G01 X3.335 Y15.374
G01 X3.110 Y15.559
G01 X3.061 Y15.597
G01 X2.885 Y15.715
G01 X2.888 Y15.726
G01 X2.883 Y15.717
G01 X2.987 Y15.913
G03 X2.869 Y16.454 I-0.4148 J0.1931
G01 X2.119 Y17.094
G03 X1.480 Y17.380 I-0.9316 J-1.2244
G01 X1.549 Y17.543
G02 X10.131 Y24.382 I10.9658 J-4.9567
G01 X10.222 Y23.837
G03 X10.732 Y23.478 I0.4476 J0.0945
G02 X13.192 Y23.601 I1.8007 J-11.3966
G03 X13.590 Y24.036 I-0.0593 J0.4536
G01 X13.611 Y24.568
G01 X13.817 Y24.556
G02 X24.214 Y15.697 I-1.0473 J-11.7596
G01 X23.670 Y15.572
G03 X23.335 Y15.132 I0.1218 J-0.4410
G01 X23.337 Y15.086
G01 X23.344 Y15.041
G02 X4.239 Y5.189 I-10.8067 J-2.4939
G03 X3.650 Y5.170 I-0.2834 J-0.3591
G01 X3.253 Y4.813
G01 X3.201 Y4.874
G02 X1.514 Y7.619 I9.0614 J7.4593
G01 X2.984 Y8.220
G03 X3.191 Y8.843 I-0.1990 J0.4120
G01 X2.948 Y9.310
G01 X2.957 Y9.328
G01 X3.113 Y9.439
G01 X3.163 Y9.476
G01 X3.384 Y9.666
G01 X3.430 Y9.708
G01 X3.633 Y9.917
G01 X3.675 Y9.963
G01 X3.858 Y10.190
G01 X3.895 Y10.240
G01 X4.057 Y10.483
G01 X4.089 Y10.536
G01 X4.228 Y10.792
G01 X4.255 Y10.848
G01 X4.369 Y11.116
G01 X4.392 Y11.174
G01 X4.481 Y11.452
G01 X4.498 Y11.511
G01 X4.561 Y11.796
G01 X4.573 Y11.857
G01 X4.610 Y12.146
G01 X4.614 Y12.192
G00 Z20.000
G00 X13.681 Y11.676
G00 Z-0.700
G01 Z-1.600 F120
G03 X13.542 Y14.540 I-14.0244 J0.7550 F400
G01 X13.822 Y14.549
G01 X14.300 Y14.614
G01 Y13.495
G02 X13.625 Y10.933 I-1.7959 J-0.8960
G01 X13.665 Y11.384
G01 X13.681 Y11.676
G01 X13.259 Y11.698
G03 X13.040 Y14.936 I-13.3422 J0.7252
G01 X13.789 Y14.969
G01 X14.720 Y15.092
G01 Y13.560
G02 X13.106 Y10.233 I-2.2122 J-0.9818
G01 X13.188 Y10.819
G01 X13.244 Y11.407
G01 X13.259 Y11.698
G01 X12.840 Y11.728
G01 X12.847 Y11.835
G03 X12.513 Y15.347 I-12.7501 J0.5580
G03 X14.983 Y15.562 I0.2028 J12.0196
G01 X15.140 Y15.438
G01 Y13.626
G02 X12.579 Y9.731 I-2.6379 J-1.0551
G01 X12.707 Y10.427
G01 X12.797 Y11.129
G01 X12.840 Y11.728
G01 X12.418 Y11.752
G03 X11.961 Y15.784 I-12.0501 J0.6775
G03 X15.082 Y16.006 I0.6598 J12.7542
G01 X15.346 Y15.825
G01 X15.560 Y15.611
G01 Y13.700
G02 X12.035 Y9.336 I-3.0559 J-1.1377
G03 X12.418 Y11.752 I-11.1414 J3.0022
G01 X11.998 Y11.781
G01 X12.008 Y11.930
G03 X11.409 Y16.138 I-11.6543 J0.4881
G01 X11.805 Y16.179
G01 X12.060 Y16.237
G03 X15.173 Y16.459 I0.9186 J9.0411
G01 X15.618 Y16.146
G01 X15.980 Y15.792
G01 Y13.766
G02 X11.500 Y9.015 I-3.4762 J-1.2102
G03 X11.998 Y11.781 I-10.7172 J3.3571
G01 X11.579 Y11.810
G01 X11.592 Y11.995
G03 X10.808 Y16.525 I-10.9369 J0.4410
G03 X12.068 Y16.665 I0.0371 J5.4063
G03 X15.214 Y16.912 I0.9424 J8.1511
G02 X16.400 Y15.949 I-1.6374 J-3.2267
G01 Y13.840
G02 X10.965 Y8.759 I-3.8869 J-1.2897
G03 X11.579 Y11.810 I-10.0521 J3.6103
G01 X11.163 Y11.829
G03 X10.150 Y16.953 I-10.3476 J0.6155
G03 X12.052 Y17.085 I0.4776 J6.9022
G03 X15.255 Y17.365 I0.9369 J7.7465
G02 X16.820 Y16.113 I-1.9627 J-4.0572
G01 Y13.915
G02 X10.429 Y8.545 I-4.2996 J-1.3702
G03 X11.163 Y11.829 I-9.5158 J3.8500
G01 X10.750 Y11.844
G03 X9.400 Y17.464 I-9.9097 J0.5921
G03 X12.035 Y17.505 I1.2106 J6.8698
G03 X15.288 Y17.818 I0.9092 J7.6116
G02 X17.240 Y16.261 I-2.0653 J-4.5918
G01 Y13.989
G02 X9.886 Y8.372 I-4.7208 J-1.4414
G03 X10.750 Y11.844 I-8.8785 J4.0522
G01 X10.326 Y11.864
G03 X8.758 Y17.686 I-9.3572 J0.6024
G01 X8.750 Y17.727
G01 X8.898 Y17.851
G01 X9.079 Y17.958
G03 X12.052 Y17.933 I1.5403 J6.4703
G03 X15.288 Y18.279 I0.9068 J6.8298
G02 X17.693 Y16.360 I-2.0847 J-5.0788
G01 X17.660 Y16.204
G01 Y14.063
G02 X9.342 Y8.224 I-5.1428 J-1.5174
G03 X10.326 Y11.864 I-8.2786 J4.1897
G01 X9.906 Y11.881
G03 X8.214 Y17.736 I-8.9587 J0.5822
G02 X9.062 Y18.403 I1.3982 J-0.9051
G03 X12.052 Y18.361 I1.5775 J5.9916
G03 X15.338 Y18.740 I0.9083 J6.5608
G02 X18.146 Y16.459 I-2.4162 J-5.8435
G01 Y16.393
G01 X18.080 Y16.130
G01 Y14.137
G02 X8.799 Y8.109 I-5.5617 J-1.5956
G03 X9.906 Y11.881 I-7.8533 J4.3543
G01 X9.483 Y11.901
G03 X7.654 Y17.785 I-8.5308 J0.5749
G02 X9.013 Y18.847 I2.8191 J-2.2057
G03 X12.068 Y18.790 I1.6400 J5.9314
G03 X15.370 Y19.201 I0.9260 J6.0215
G02 X18.607 Y16.525 I-2.6345 J-6.4807
G01 X18.500 Y16.056
G01 Y14.211
G02 X8.255 Y8.026 I-5.9766 J-1.6769
G03 X9.483 Y11.901 I-7.2534 J4.4300
G01 X9.061 Y11.924
G03 X7.267 Y17.596 I-8.0709 J0.5673
G01 X7.201 Y17.834
G01 X7.160 Y17.908
G02 X8.972 Y19.300 I4.0198 J-3.3579
G03 X11.252 Y19.106 I1.5483 J4.6928
G01 X11.682 Y19.154
G01 X12.109 Y19.218
G03 X15.354 Y19.663 I0.9187 J5.3561
G02 X19.068 Y16.583 I-2.5517 J-6.8564
G01 X18.920 Y15.982
G01 Y14.285
G02 X7.712 Y7.969 I-6.3982 J-1.7487
G03 X9.061 Y11.924 I-6.6847 J4.4869
G01 X8.644 Y11.951
G03 X6.888 Y17.398 I-7.6059 J0.5552
G03 X6.674 Y17.941 I-1.6211 J-0.3247
G01 X6.666 Y17.999
G02 X8.964 Y19.761 I4.8293 J-3.9173
G03 X11.517 Y19.580 I1.5733 J4.0922
G01 X12.142 Y19.638
G03 X15.321 Y20.124 I0.8741 J4.9222
G02 X19.537 Y16.616 I-2.4641 J-7.2494
G01 X19.422 Y16.286
G01 X19.340 Y15.907
G01 Y14.359
G02 X7.210 Y7.887 I-6.8193 J-1.8229
G01 X7.218 Y8.010
G03 X8.644 Y11.951 I-6.1471 J4.4533
G01 X8.220 Y11.979
G03 X6.510 Y17.200 I-7.2167 J0.5265
G01 X6.411 Y17.521
G01 X6.164 Y18.040
G02 X8.964 Y20.223 I5.4058 J-4.0485
G03 X11.394 Y19.984 I1.5723 J3.5190
G02 X12.948 Y20.014 I0.8754 J-5.0845
G03 X15.263 Y20.585 I0.2413 J4.0037
G02 X20.007 Y16.640 I-2.3531 J-7.6538
G01 X19.842 Y16.204
G01 X19.760 Y15.833
G01 Y14.433
G02 X8.360 Y6.328 I-7.2316 J-1.8984
G02 X7.144 Y7.368 I4.1604 J6.0989
G01 X6.757 Y7.738
G01 X6.814 Y8.166
G03 X8.220 Y11.979 I-5.7807 J4.2971
G01 X7.790 Y12.009
G03 X6.123 Y17.011 I-6.8505 J0.4950
G01 X6.007 Y17.406
G01 X5.950 Y17.521
G01 X5.661 Y18.114
G02 X8.972 Y20.684 I6.1644 J-4.5253
G03 X10.899 Y20.313 I1.6714 J3.4956
G02 X12.933 Y20.432 I1.3386 J-5.4410
G03 X15.189 Y21.046 I0.2301 J3.6062
G02 X20.468 Y16.657 I-2.2476 J-8.0717
G02 X20.327 Y16.303 I-3.0110 J0.9959
G03 X20.180 Y15.751 I2.6158 J-0.9925
G01 Y14.507
G02 X7.119 Y6.750 I-7.6683 J-1.9627
G03 X6.287 Y7.590 I-4.5118 J-3.6358
G01 X6.361 Y7.969
G01 X6.403 Y8.315
G03 X7.790 Y12.009 I-5.4359 J4.1490
G01 X7.367 Y12.040
G03 X5.727 Y16.830 I-6.4499 J0.4667
G03 X5.134 Y18.090 I-3.1852 J-0.7294
G02 X9.038 Y21.161 I6.6639 J-4.4524
G03 X11.236 Y20.809 I1.5009 J2.3313
G02 X12.916 Y20.846 I0.9629 J-5.5528
G03 X15.091 Y21.507 I0.2432 J3.1054
G02 X20.946 Y16.632 I-2.1505 J-8.5364
G03 X20.600 Y15.677 I2.5412 J-1.4603
G01 Y14.582
G02 X6.773 Y6.495 I-8.0872 J-2.0363
G03 X5.785 Y7.442 I-3.5838 J-2.7505
G03 X5.991 Y8.471 I-3.2837 J1.1920
G03 X7.367 Y12.040 I-5.0493 J3.9974
G01 X6.943 Y12.073
G03 X5.332 Y16.640 I-6.0549 J0.4318
G03 X4.591 Y18.065 I-2.5771 J-0.4356
G02 X9.079 Y21.639 I7.3637 J-4.6421
G03 X11.158 Y21.220 I1.4788 J1.9677
G02 X12.754 Y21.283 I1.0462 J-6.2296
G03 X14.992 Y21.977 I0.3785 J2.7339
G02 X21.407 Y16.665 I-2.0713 J-9.0313
G01 X21.415 Y16.607
G03 X21.020 Y15.594 I2.5448 J-1.5767
G01 Y14.656
G02 X6.386 Y6.281 I-8.5055 J-2.1104
G03 X5.258 Y7.277 I-2.8593 J-2.1005
G03 X5.579 Y8.628 I-3.0678 J1.4430
G03 X6.943 Y12.073 I-4.6705 J3.8419
G01 X6.520 Y12.107
G01 X6.531 Y12.241
G03 X4.929 Y16.459 I-5.6935 J0.2507
G03 X4.023 Y17.991 I-2.1341 J-0.2284
G02 X9.145 Y22.125 I8.1512 J-4.8594
G03 X11.293 Y21.656 I1.4919 J1.6796
G02 X12.620 Y21.730 I1.0313 J-6.6029
G03 X14.876 Y22.454 I0.4961 J2.3305
G02 X21.901 Y16.583 I-2.0231 J-9.5580
G03 X21.440 Y15.520 I2.3470 J-1.6501
G01 Y14.730
G02 X5.950 Y6.116 I-8.9255 J-2.1840
G03 X4.616 Y7.079 I-1.9860 J-1.3445
G03 X5.159 Y8.776 I-2.0826 J1.6025
G03 X6.520 Y12.107 I-4.2876 J3.6958
G01 X6.098 Y12.143
G01 X6.107 Y12.249
G03 X4.509 Y16.286 I-5.2896 J0.2406
G03 X4.052 Y17.369 I-1.5556 J-0.0181
G03 X3.454 Y17.892 I-2.0388 J-1.7266
G02 X9.244 Y22.611 I8.8296 J-4.9221
G03 X11.222 Y22.068 I1.4121 J1.2704
G02 X12.653 Y22.150 I1.1778 J-8.0601
G03 X14.720 Y22.924 I0.4495 J1.9465
G02 X22.387 Y16.467 I-1.8745 J-10.0063
G03 X21.860 Y15.446 I1.3498 J-1.3432
G01 Y14.804
G02 X5.637 Y5.828 I-9.3452 J-2.2583
G03 X3.652 Y6.750 I-1.7204 J-1.1055
G01 X3.611 Y6.808
G01 Y6.849
G03 X4.739 Y8.932 I-0.8767 J1.8219
G03 X6.098 Y12.143 I-3.8947 J3.5410
G01 X5.677 Y12.183
G01 X5.682 Y12.231
G03 X4.089 Y16.113 I-4.8872 J0.2628
G03 X3.677 Y17.126 I-1.2297 J0.0903
G01 X2.911 Y17.810
G02 X9.392 Y23.105 I9.5007 J-5.0147
G03 X11.212 Y22.487 I1.2998 J0.8398
G02 X12.686 Y22.570 I1.2263 J-8.7114
G03 X14.506 Y23.393 I0.4069 J1.5235
G02 X22.897 Y16.352 I-1.6956 J-10.5418
G03 X22.280 Y15.364 I0.8949 J-1.2464
G01 Y14.878
G02 X4.912 Y5.992 I-9.7623 J-2.3348
G03 X3.463 Y6.281 I-0.9880 J-1.1800
G01 X3.199 Y6.668
G01 X2.977 Y7.038
G01 X2.993 Y7.079
G03 X4.278 Y9.056 I-0.2887 J1.5934
G03 X5.677 Y12.183 I-3.4706 J3.4292
G01 X5.256 Y12.199
G03 X3.660 Y15.916 I-4.4158 J0.3048
G01 X3.669 Y16.261
G03 X3.463 Y16.747 I-1.0803 J-0.1712
G01 X2.507 Y17.604
G01 X2.359 Y17.703
G02 X9.622 Y23.599 I10.1078 J-5.0295
G03 X10.701 Y22.825 I1.0540 J0.3301
G02 X12.735 Y22.989 I1.8470 J-10.1679
G03 X14.234 Y23.862 I0.3393 J1.1406
G02 X23.416 Y16.163 I-1.4528 J-11.0572
G03 X22.700 Y15.290 I0.4298 J-1.0832
G01 Y14.952
G02 X4.653 Y5.654 I-10.1786 J-2.4067
G03 X3.323 Y5.762 I-0.7392 J-0.8585
G02 X2.384 Y7.261 I6.8942 J5.3617
G01 X2.392 Y7.285
G01 X3.314 Y7.664
G03 X3.784 Y9.163 I-0.5566 J0.9972
G03 X5.256 Y12.199 I-2.9690 J3.3143
G01 X4.833 Y12.215
G03 X3.166 Y15.776 I-4.0290 J0.2843
G03 X3.117 Y16.500 I-0.5770 J0.3247
G01 X2.211 Y17.299
G01 X2.079 Y17.373
G01 X1.775 Y17.489
G02 X9.960 Y24.118 I10.7252 J-4.8750
G01 X10.010 Y23.780
G03 X10.759 Y23.253 I0.6707 J0.1574
G02 X13.304 Y23.397 I1.9535 J-12.0018
G03 X13.814 Y24.332 I-0.2272 J0.7304
G02 X23.951 Y15.850 I-1.0205 J-11.5184
G01 X23.597 Y15.776
G03 X23.120 Y15.224 I0.1987 J-0.6546
G01 Y15.026
G02 X4.283 Y5.420 I-10.6059 J-2.4744
G03 X3.306 Y5.136 I-0.3418 J-0.6457
G01 X3.273 Y5.128
G02 X1.807 Y7.499 I7.9313 J6.5408
G01 X3.092 Y8.026
G01 X3.174 Y8.076
G01 X3.356 Y8.265
G03 X3.224 Y9.254 I-0.7557 J0.4021
G03 X4.833 Y12.215 I-2.4111 J3.2276
G00 Z20.000
G00 Z-1.100
G01 Z-1.600 F120
G01 X4.616 Y12.223 F400
G01 X4.626 Y12.500
G01 Y12.562
G01 X4.609 Y12.853
G01 X4.604 Y12.915
G01 X4.561 Y13.203
G01 X4.550 Y13.264
G01 X4.480 Y13.547
G01 X4.463 Y13.607
G01 X4.368 Y13.883
G01 X4.346 Y13.941
G01 X4.226 Y14.207
G01 X4.198 Y14.262
G01 X4.054 Y14.516
G01 X4.022 Y14.569
G01 X3.855 Y14.808
G01 X3.818 Y14.858
G01 X3.630 Y15.081
G01 X3.589 Y15.127
G01 X3.381 Y15.332
G01 X3.335 Y15.374
G01 X3.110 Y15.559
G01 X3.061 Y15.597
G01 X2.885 Y15.715
G01 X2.888 Y15.726
G01 X2.883 Y15.717
G01 X2.987 Y15.913
G03 X2.869 Y16.454 I-0.4148 J0.1931
G01 X2.119 Y17.094
G03 X1.480 Y17.380 I-0.9316 J-1.2244
G01 X1.549 Y17.543
G02 X10.131 Y24.382 I10.9658 J-4.9567
G01 X10.222 Y23.837
G03 X10.732 Y23.478 I0.4476 J0.0945
G02 X13.192 Y23.601 I1.8007 J-11.3966
G03 X13.590 Y24.036 I-0.0593 J0.4536
G01 X13.611 Y24.568
G01 X13.817 Y24.556
G02 X24.214 Y15.697 I-1.0473 J-11.7596
G01 X23.670 Y15.572
G03 X23.335 Y15.132 I0.1218 J-0.4410
G01 X23.337 Y15.086
G01 X23.344 Y15.041
G02 X4.239 Y5.189 I-10.8067 J-2.4939
G03 X3.650 Y5.170 I-0.2834 J-0.3591
G01 X3.253 Y4.813
G01 X3.201 Y4.874
G02 X1.514 Y7.619 I9.0614 J7.4593
G01 X2.984 Y8.220
G03 X3.191 Y8.843 I-0.1990 J0.4120
G01 X2.948 Y9.310
G01 X2.957 Y9.328
G01 X3.113 Y9.439
G01 X3.163 Y9.476
G01 X3.384 Y9.666
G01 X3.430 Y9.708
G01 X3.633 Y9.917
G01 X3.675 Y9.963
G01 X3.858 Y10.190
G01 X3.895 Y10.240
G01 X4.057 Y10.483
G01 X4.089 Y10.536
G01 X4.228 Y10.792
G01 X4.255 Y10.848
G01 X4.369 Y11.116
G01 X4.392 Y11.174
G01 X4.481 Y11.452
G01 X4.498 Y11.511
G01 X4.561 Y11.796
G01 X4.573 Y11.857
G01 X4.610 Y12.146
G01 X4.616 Y12.208
G01 Y12.223
G00 Z20.000
G00 X13.694 Y11.996
G00 Z-1.100
G01 Z-2.000 F120
G03 X13.542 Y14.540 I-14.0319 J0.4377 F400
G01 X13.822 Y14.549
G01 X14.300 Y14.614
G01 Y13.495
G02 X13.625 Y10.933 I-1.7959 J-0.8960
G01 X13.665 Y11.384
G01 X13.690 Y11.835
G01 X13.694 Y11.996
G01 X13.274 Y12.000
G03 X13.040 Y14.936 I-13.5249 J0.3989
G01 X13.789 Y14.969
G01 X14.720 Y15.092
G01 Y13.560
G02 X13.106 Y10.233 I-2.2122 J-0.9818
G01 X13.188 Y10.819
G01 X13.244 Y11.407
G01 X13.274 Y11.997
G01 X12.850 Y12.003
G03 X12.513 Y15.347 I-12.5815 J0.4206
G03 X14.983 Y15.562 I0.2028 J12.0196
G01 X15.140 Y15.438
G01 Y13.626
G02 X12.579 Y9.731 I-2.6379 J-1.0551
G03 X12.847 Y11.835 I-12.4816 J2.6621
G01 X12.850 Y12.003
G01 X12.433 Y12.014
G03 X11.961 Y15.784 I-12.1683 J0.3925
G03 X15.082 Y16.006 I0.6598 J12.7542
G01 X15.346 Y15.825
G01 X15.560 Y15.611
G01 Y13.700
G02 X12.035 Y9.336 I-3.0559 J-1.1377
G03 X12.433 Y12.014 I-11.5556 J3.0830
G01 X12.010 Y12.022
G03 X11.409 Y16.138 I-11.6043 J0.4092
G01 X11.805 Y16.179
G01 X12.060 Y16.237
G03 X15.173 Y16.459 I0.9186 J9.0411
G01 X15.618 Y16.146
G01 X15.980 Y15.792
G01 Y13.766
G02 X11.500 Y9.015 I-3.4762 J-1.2102
G03 X12.010 Y12.022 I-10.7239 J3.3652
G01 X11.592 Y12.026
G03 X10.808 Y16.525 I-10.9202 J0.4154
G03 X12.068 Y16.665 I0.0371 J5.4063
G03 X15.214 Y16.912 I0.9424 J8.1511
G02 X16.400 Y15.949 I-1.6374 J-3.2267
G01 Y13.840
G02 X10.965 Y8.759 I-3.8869 J-1.2897
G03 X11.592 Y12.026 I-10.2206 J3.6565
G01 X11.173 Y12.045
G03 X10.150 Y16.953 I-10.3445 J0.4044
G03 X12.052 Y17.085 I0.4776 J6.9022
G03 X15.255 Y17.365 I0.9369 J7.7465
G02 X16.820 Y16.113 I-1.9627 J-4.0572
G01 Y13.915
G02 X10.429 Y8.545 I-4.2996 J-1.3702
G03 X11.173 Y12.045 I-9.5166 J3.8502
G01 X10.758 Y12.060
G03 X9.400 Y17.464 I-9.8916 J0.3877
G03 X12.035 Y17.505 I1.2106 J6.8698
G03 X15.288 Y17.818 I0.9092 J7.6116
G02 X17.240 Y16.261 I-2.0653 J-4.5918
G01 Y13.989
G02 X9.886 Y8.372 I-4.7208 J-1.4414
G03 X10.758 Y12.060 I-8.7953 J4.0258
G01 X10.336 Y12.079
G03 X8.758 Y17.686 I-9.3546 J0.3928
G01 X8.750 Y17.727
G01 X8.898 Y17.851
G01 X9.079 Y17.958
G03 X12.052 Y17.933 I1.5403 J6.4703
G03 X15.288 Y18.279 I0.9068 J6.8298
G02 X17.693 Y16.360 I-2.0847 J-5.0788
G01 X17.660 Y16.204
G01 Y14.063
G02 X9.342 Y8.224 I-5.1428 J-1.5174
G03 X10.336 Y12.079 I-8.2681 J4.1860
G01 X9.914 Y12.095
G03 X8.214 Y17.736 I-8.9414 J0.3816
G02 X9.062 Y18.403 I1.3982 J-0.9051
G03 X12.052 Y18.361 I1.5775 J5.9916
G03 X15.338 Y18.740 I0.9083 J6.5608
G02 X18.146 Y16.459 I-2.4162 J-5.8435
G01 Y16.393
G01 X18.080 Y16.130
G01 Y14.137
G02 X8.799 Y8.109 I-5.5617 J-1.5956
G03 X9.914 Y12.095 I-7.7821 J4.3269
G01 X9.493 Y12.114
G03 X7.654 Y17.785 I-8.5281 J0.3683
G02 X9.013 Y18.847 I2.8191 J-2.2057
G03 X12.068 Y18.790 I1.6400 J5.9314
G03 X15.370 Y19.201 I0.9260 J6.0215
G02 X18.607 Y16.525 I-2.6345 J-6.4807
G01 X18.500 Y16.056
G01 Y14.211
G02 X8.255 Y8.026 I-5.9766 J-1.6769
G03 X9.493 Y12.114 I-7.2282 J4.4194
G01 X9.072 Y12.137
G01 X9.081 Y12.292
G03 X7.267 Y17.596 I-8.1093 J0.1888
G01 X7.201 Y17.834
G01 X7.160 Y17.908
G02 X8.972 Y19.300 I4.0198 J-3.3579
G03 X11.252 Y19.106 I1.5483 J4.6928
G01 X11.682 Y19.154
G01 X12.109 Y19.218
G03 X15.354 Y19.663 I0.9187 J5.3561
G02 X19.068 Y16.583 I-2.5517 J-6.8564
G01 X18.920 Y15.982
G01 Y14.285
G02 X7.712 Y7.969 I-6.3982 J-1.7487
G03 X9.072 Y12.137 I-6.6906 J4.4897
G01 X8.658 Y12.164
G01 X8.664 Y12.255
G03 X6.888 Y17.398 I-7.6508 J0.2372
G03 X6.674 Y17.941 I-1.6211 J-0.3247
G01 X6.666 Y17.999
G02 X8.964 Y19.761 I4.8293 J-3.9173
G03 X11.517 Y19.580 I1.5733 J4.0922
G01 X12.142 Y19.638
G03 X15.321 Y20.124 I0.8741 J4.9222
G02 X19.537 Y16.616 I-2.4641 J-7.2494
G01 X19.422 Y16.286
G01 X19.340 Y15.907
G01 Y14.359
G02 X7.210 Y7.887 I-6.8193 J-1.8229
G01 X7.218 Y8.010
G03 X8.658 Y12.164 I-6.1746 J4.4669
G01 X8.234 Y12.192
G01 X8.238 Y12.249
G03 X6.510 Y17.200 I-7.2600 J0.2428
G01 X6.411 Y17.521
G01 X6.164 Y18.040
G02 X8.964 Y20.223 I5.4058 J-4.0485
G03 X11.394 Y19.984 I1.5723 J3.5190
G02 X12.948 Y20.014 I0.8754 J-5.0845
G03 X15.263 Y20.585 I0.2413 J4.0037
G02 X20.007 Y16.640 I-2.3531 J-7.6538
G01 X19.842 Y16.204
G01 X19.760 Y15.833
G01 Y14.433
G02 X8.360 Y6.328 I-7.2316 J-1.8984
G02 X7.144 Y7.368 I4.1604 J6.0989
G01 X6.757 Y7.738
G01 X6.814 Y8.166
G03 X8.234 Y12.192 I-5.8165 J4.3153
G01 X7.805 Y12.223
G01 X7.806 Y12.242
G03 X6.123 Y17.011 I-6.8913 J0.2488
G01 X6.007 Y17.406
G01 X5.950 Y17.521
G01 X5.661 Y18.114
G02 X8.972 Y20.684 I6.1644 J-4.5253
G03 X10.899 Y20.313 I1.6714 J3.4956
G02 X12.933 Y20.432 I1.3386 J-5.4410
G03 X15.189 Y21.046 I0.2301 J3.6062
G02 X20.468 Y16.657 I-2.2476 J-8.0717
G02 X20.327 Y16.303 I-3.0110 J0.9959
G03 X20.180 Y15.751 I2.6158 J-0.9925
G01 Y14.507
G02 X7.119 Y6.750 I-7.6683 J-1.9627
G03 X6.287 Y7.590 I-4.5118 J-3.6358
G01 X6.361 Y7.969
G01 X6.403 Y8.315
G03 X7.805 Y12.223 I-5.4807 J4.1723
G01 X7.382 Y12.244
G03 X5.727 Y16.830 I-6.4879 J0.2496
G03 X5.134 Y18.090 I-3.1852 J-0.7294
G02 X9.038 Y21.161 I6.6639 J-4.4524
G03 X11.236 Y20.809 I1.5009 J2.3313
G02 X12.916 Y20.846 I0.9629 J-5.5528
G03 X15.091 Y21.507 I0.2432 J3.1054
G02 X20.946 Y16.632 I-2.1505 J-8.5364
G03 X20.600 Y15.677 I2.5412 J-1.4603
G01 Y14.582
G02 X6.773 Y6.495 I-8.0872 J-2.0363
G03 X5.785 Y7.442 I-3.5838 J-2.7505
G03 X5.991 Y8.471 I-3.2837 J1.1920
G03 X7.382 Y12.244 I-5.0964 J4.0227
G01 X6.956 Y12.246
G03 X5.332 Y16.640 I-6.0883 J0.2465
G03 X4.591 Y18.065 I-2.5771 J-0.4356
G02 X9.079 Y21.639 I7.3637 J-4.6421
G03 X11.158 Y21.220 I1.4788 J1.9677
G02 X12.754 Y21.283 I1.0462 J-6.2296
G03 X14.992 Y21.977 I0.3785 J2.7339
G02 X21.407 Y16.665 I-2.0713 J-9.0313
G01 X21.415 Y16.607
G03 X21.020 Y15.594 I2.5448 J-1.5767
G01 Y14.656
G02 X6.386 Y6.281 I-8.5055 J-2.1104
G03 X5.258 Y7.277 I-2.8593 J-2.1005
G03 X5.579 Y8.628 I-3.0678 J1.4430
G03 X6.956 Y12.243 I-4.7117 J3.8649
G01 X6.531 Y12.246
G03 X4.929 Y16.459 I-5.6926 J0.2459
G03 X4.023 Y17.991 I-2.1341 J-0.2284
G02 X9.145 Y22.125 I8.1512 J-4.8594
G03 X11.293 Y21.656 I1.4919 J1.6796
G02 X12.620 Y21.730 I1.0313 J-6.6029
G03 X14.876 Y22.454 I0.4961 J2.3305
G02 X21.901 Y16.583 I-2.0231 J-9.5580
G03 X21.440 Y15.520 I2.3470 J-1.6501
G01 Y14.730
G02 X5.950 Y6.116 I-8.9255 J-2.1840
G03 X4.616 Y7.079 I-1.9860 J-1.3445
G03 X5.159 Y8.776 I-2.0826 J1.6025
G03 X6.531 Y12.241 I-4.3214 J3.7154
G01 X6.107 Y12.249
G03 X4.509 Y16.286 I-5.2896 J0.2406
G03 X4.052 Y17.369 I-1.5556 J-0.0181
G03 X3.454 Y17.892 I-2.0388 J-1.7266
G02 X9.244 Y22.611 I8.8296 J-4.9221
G03 X11.222 Y22.068 I1.4121 J1.2704
G02 X12.653 Y22.150 I1.1778 J-8.0601
G03 X14.720 Y22.924 I0.4495 J1.9465
G02 X22.387 Y16.467 I-1.8745 J-10.0063
G03 X21.860 Y15.446 I1.3498 J-1.3432
G01 Y14.804
G02 X5.637 Y5.828 I-9.3452 J-2.2583
G03 X3.652 Y6.750 I-1.7204 J-1.1055
G01 X3.611 Y6.808
G01 Y6.849
G03 X4.739 Y8.932 I-0.8767 J1.8219
G03 X6.107 Y12.249 I-3.9220 J3.5576
G01 X5.682 Y12.255
G03 X4.089 Y16.113 I-4.8839 J0.2413
G03 X3.677 Y17.126 I-1.2297 J0.0903
G01 X2.911 Y17.810
G02 X9.392 Y23.105 I9.5007 J-5.0147
G03 X11.212 Y22.487 I1.2998 J0.8398
G02 X12.686 Y22.570 I1.2263 J-8.7114
G03 X14.506 Y23.393 I0.4069 J1.5235
G02 X22.897 Y16.352 I-1.6956 J-10.5418
G03 X22.280 Y15.364 I0.8949 J-1.2464
G01 Y14.878
G02 X4.912 Y5.992 I-9.7623 J-2.3348
G03 X3.463 Y6.281 I-0.9880 J-1.1800
G01 X3.199 Y6.668
G01 X2.977 Y7.038
G01 X2.993 Y7.079
G03 X4.278 Y9.056 I-0.2887 J1.5934
G03 X5.682 Y12.255 I-3.4747 J3.4324
G01 X5.259 Y12.272
G03 X3.660 Y15.916 I-4.4130 J0.2368
G01 X3.669 Y16.261
G03 X3.463 Y16.747 I-1.0803 J-0.1712
G01 X2.507 Y17.604
G01 X2.359 Y17.703
G02 X9.622 Y23.599 I10.1078 J-5.0295
G03 X10.701 Y22.825 I1.0540 J0.3301
G02 X12.735 Y22.989 I1.8470 J-10.1679
G03 X14.234 Y23.862 I0.3393 J1.1406
G02 X23.416 Y16.163 I-1.4528 J-11.0572
G03 X22.700 Y15.290 I0.4298 J-1.0832
G01 Y14.952
G02 X4.653 Y5.654 I-10.1786 J-2.4067
G03 X3.323 Y5.762 I-0.7392 J-0.8585
G02 X2.384 Y7.261 I6.8942 J5.3617
G01 X2.392 Y7.285
G01 X3.314 Y7.664
G03 X3.784 Y9.163 I-0.5566 J0.9972
G03 X5.259 Y12.272 I-2.9609 J3.3089
G01 X4.835 Y12.288
G03 X3.166 Y15.776 I-4.0266 J0.2162
G03 X3.117 Y16.500 I-0.5770 J0.3247
G01 X2.211 Y17.299
G01 X2.079 Y17.373
G01 X1.775 Y17.489
G02 X9.960 Y24.118 I10.7252 J-4.8750
G01 X10.010 Y23.780
G03 X10.759 Y23.253 I0.6707 J0.1574
G02 X13.304 Y23.397 I1.9535 J-12.0018
G03 X13.814 Y24.332 I-0.2272 J0.7304
G02 X23.951 Y15.850 I-1.0205 J-11.5184
G01 X23.597 Y15.776
G03 X23.120 Y15.224 I0.1987 J-0.6546
G01 Y15.026
G02 X4.283 Y5.420 I-10.6059 J-2.4744
G03 X3.306 Y5.136 I-0.3418 J-0.6457
G01 X3.273 Y5.128
G02 X1.807 Y7.499 I7.9313 J6.5408
G01 X3.092 Y8.026
G01 X3.174 Y8.076
G01 X3.356 Y8.265
G03 X3.224 Y9.254 I-0.7557 J0.4021
G03 X4.835 Y12.288 I-2.4030 J3.2214
G00 Z20.000
G00 Y12.287
G00 Z-1.500
G01 Z-2.000 F120
G01 X4.619 Y12.295 F400
G01 X4.626 Y12.500
G01 Y12.562
G01 X4.609 Y12.853
G01 X4.604 Y12.915
G01 X4.561 Y13.203
G01 X4.550 Y13.264
G01 X4.480 Y13.547
G01 X4.463 Y13.607
G01 X4.368 Y13.883
G01 X4.346 Y13.941
G01 X4.226 Y14.207
G01 X4.198 Y14.262
G01 X4.054 Y14.516
G01 X4.022 Y14.569
G01 X3.855 Y14.808
G01 X3.818 Y14.858
G01 X3.630 Y15.081
G01 X3.589 Y15.127
G01 X3.381 Y15.332
G01 X3.335 Y15.374
G01 X3.110 Y15.559
G01 X3.061 Y15.597
G01 X2.885 Y15.715
G01 X2.888 Y15.726
G01 X2.883 Y15.717
G01 X2.987 Y15.913
G03 X2.869 Y16.454 I-0.4148 J0.1931
G01 X2.119 Y17.094
G03 X1.480 Y17.380 I-0.9316 J-1.2244
G01 X1.549 Y17.543
G02 X10.131 Y24.382 I10.9658 J-4.9567
G01 X10.222 Y23.837
G03 X10.732 Y23.478 I0.4476 J0.0945
G02 X13.192 Y23.601 I1.8007 J-11.3966
G03 X13.590 Y24.036 I-0.0593 J0.4536
G01 X13.611 Y24.568
G01 X13.817 Y24.556
G02 X24.214 Y15.697 I-1.0473 J-11.7596
G01 X23.670 Y15.572
G03 X23.335 Y15.132 I0.1218 J-0.4410
G01 X23.337 Y15.086
G01 X23.344 Y15.041
G02 X4.239 Y5.189 I-10.8067 J-2.4939
G03 X3.650 Y5.170 I-0.2834 J-0.3591
G01 X3.253 Y4.813
G01 X3.201 Y4.874
G02 X1.514 Y7.619 I9.0614 J7.4593
G01 X2.984 Y8.220
G03 X3.191 Y8.843 I-0.1990 J0.4120
G01 X2.948 Y9.310
G01 X2.957 Y9.328
G01 X3.113 Y9.439
G01 X3.163 Y9.476
G01 X3.384 Y9.666
G01 X3.430 Y9.708
G01 X3.633 Y9.917
G01 X3.675 Y9.963
G01 X3.858 Y10.190
G01 X3.895 Y10.240
G01 X4.057 Y10.483
G01 X4.089 Y10.536
G01 X4.228 Y10.792
G01 X4.255 Y10.848
G01 X4.369 Y11.116
G01 X4.392 Y11.174
G01 X4.481 Y11.452
G01 X4.498 Y11.511
G01 X4.561 Y11.796
G01 X4.573 Y11.857
G01 X4.610 Y12.146
G01 X4.616 Y12.208
G01 X4.619 Y12.295
G00 Z20.000
G00 X13.696 Y12.069
G00 Z-1.500
G01 Z-2.400 F120
G03 X13.542 Y14.540 I-14.0072 J0.3684 F400
G01 X13.822 Y14.549
G01 X14.300 Y14.614
G01 Y13.495
G02 X13.625 Y10.933 I-1.7959 J-0.8960
G01 X13.665 Y11.384
G01 X13.690 Y11.835
G01 X13.696 Y12.069
G01 X13.275 Y12.072
G03 X13.040 Y14.936 I-13.4239 J0.3412
G01 X13.789 Y14.969
G01 X14.720 Y15.092
G01 Y13.560
G02 X13.106 Y10.233 I-2.2122 J-0.9818
G03 X13.274 Y11.997 I-13.3611 J2.1644
G01 X13.275 Y12.072
G01 X12.851 Y12.079
G03 X12.513 Y15.347 I-12.5280 J0.3551
G03 X14.983 Y15.562 I0.2028 J12.0196
G01 X15.140 Y15.438
G01 Y13.626
G02 X12.579 Y9.731 I-2.6379 J-1.0551
G03 X12.851 Y12.079 I-11.8776 J2.5679
G01 X12.433 Y12.084
G03 X11.961 Y15.784 I-12.1224 J0.3332
G03 X15.082 Y16.006 I0.6598 J12.7542
G01 X15.346 Y15.825
G01 X15.560 Y15.611
G01 Y13.700
G02 X12.035 Y9.336 I-3.0559 J-1.1377
G03 X12.433 Y12.084 I-11.3320 J3.0447
G01 X12.011 Y12.091
G03 X11.409 Y16.138 I-11.5761 J0.3471
G01 X11.805 Y16.179
G01 X12.060 Y16.237
G03 X15.173 Y16.459 I0.9186 J9.0411
G01 X15.618 Y16.146
G01 X15.980 Y15.792
G01 Y13.766
G02 X11.500 Y9.015 I-3.4762 J-1.2102
G03 X12.011 Y12.091 I-10.6427 J3.3489
G01 X11.593 Y12.095
G03 X10.808 Y16.525 I-10.8866 J0.3563
G03 X12.068 Y16.665 I0.0371 J5.4063
G03 X15.214 Y16.912 I0.9424 J8.1511
G02 X16.400 Y15.949 I-1.6374 J-3.2267
G01 Y13.840
G02 X10.965 Y8.759 I-3.8869 J-1.2897
G03 X11.593 Y12.095 I-10.0825 J3.6254
G01 X11.176 Y12.114
G01 X11.181 Y12.238
G03 X10.150 Y16.953 I-10.3984 J0.1951
G03 X12.052 Y17.085 I0.4776 J6.9022
G03 X15.255 Y17.365 I0.9369 J7.7465
G02 X16.820 Y16.113 I-1.9627 J-4.0572
G01 Y13.915
G02 X10.429 Y8.545 I-4.2996 J-1.3702
G03 X11.176 Y12.114 I-9.5527 J3.8605
G01 X10.760 Y12.129
G03 X9.400 Y17.464 I-9.8948 J0.3181
G03 X12.035 Y17.505 I1.2106 J6.8698
G03 X15.288 Y17.818 I0.9092 J7.6116
G02 X17.240 Y16.261 I-2.0653 J-4.5918
G01 Y13.989
G02 X9.886 Y8.372 I-4.7208 J-1.4414
G03 X10.760 Y12.129 I-8.8064 J4.0293
G01 X10.339 Y12.148
G01 X10.347 Y12.328
G03 X8.758 Y17.686 I-9.4084 J0.1244
G01 X8.750 Y17.727
G01 X8.898 Y17.851
G01 X9.079 Y17.958
G03 X12.052 Y17.933 I1.5403 J6.4703
G03 X15.288 Y18.279 I0.9068 J6.8298
G02 X17.693 Y16.360 I-2.0847 J-5.0788
G01 X17.660 Y16.204
G01 Y14.063
G02 X9.342 Y8.224 I-5.1428 J-1.5174
G03 X10.339 Y12.148 I-8.2915 J4.1942
G01 X9.917 Y12.164
G03 X8.214 Y17.736 I-8.9432 J0.3127
G02 X9.062 Y18.403 I1.3982 J-0.9051
G03 X12.052 Y18.361 I1.5775 J5.9916
G03 X15.338 Y18.740 I0.9083 J6.5608
G02 X18.146 Y16.459 I-2.4162 J-5.8435
G01 Y16.393
G01 X18.080 Y16.130
G01 Y14.137
G02 X8.799 Y8.109 I-5.5617 J-1.5956
G03 X9.917 Y12.164 I-7.7860 J4.3284
G01 X9.496 Y12.184
G01 X9.503 Y12.331
G03 X7.654 Y17.785 I-8.5632 J0.1373
G02 X9.013 Y18.847 I2.8191 J-2.2057
G03 X12.068 Y18.790 I1.6400 J5.9314
G03 X15.370 Y19.201 I0.9260 J6.0215
G02 X18.607 Y16.525 I-2.6345 J-6.4807
G01 X18.500 Y16.056
G01 Y14.211
G02 X8.255 Y8.026 I-5.9766 J-1.6769
G03 X9.496 Y12.184 I-7.2406 J4.4246
G01 X9.076 Y12.207
G01 X9.081 Y12.292
G03 X7.267 Y17.596 I-8.1093 J0.1888
G01 X7.201 Y17.834
G01 X7.160 Y17.908
G02 X8.972 Y19.300 I4.0198 J-3.3579
G03 X11.252 Y19.106 I1.5483 J4.6928
G01 X11.682 Y19.154
G01 X12.109 Y19.218
G03 X15.354 Y19.663 I0.9187 J5.3561
G02 X19.068 Y16.583 I-2.5517 J-6.8564
G01 X18.920 Y15.982
G01 Y14.285
G02 X7.712 Y7.969 I-6.3982 J-1.7487
G03 X9.076 Y12.207 I-6.7088 J4.4980
G01 X8.662 Y12.233
G01 X8.664 Y12.255
G03 X6.888 Y17.398 I-7.6508 J0.2372
G03 X6.674 Y17.941 I-1.6211 J-0.3247
G01 X6.666 Y17.999
G02 X8.964 Y19.761 I4.8293 J-3.9173
G03 X11.517 Y19.580 I1.5733 J4.0922
G01 X12.142 Y19.638
G03 X15.321 Y20.124 I0.8741 J4.9222
G02 X19.537 Y16.616 I-2.4641 J-7.2494
G01 X19.422 Y16.286
G01 X19.340 Y15.907
G01 Y14.359
G02 X7.210 Y7.887 I-6.8193 J-1.8229
G01 X7.218 Y8.010
G03 X8.662 Y12.233 I-6.1970 J4.4780
G01 X8.238 Y12.249
G03 X6.510 Y17.200 I-7.2600 J0.2428
G01 X6.411 Y17.521
G01 X6.164 Y18.040
G02 X8.964 Y20.223 I5.4058 J-4.0485
G03 X11.394 Y19.984 I1.5723 J3.5190
G02 X12.948 Y20.014 I0.8754 J-5.0845
G03 X15.263 Y20.585 I0.2413 J4.0037
G02 X20.007 Y16.640 I-2.3531 J-7.6538
G01 X19.842 Y16.204
G01 X19.760 Y15.833
G01 Y14.433
G02 X8.360 Y6.328 I-7.2316 J-1.8984
G02 X7.144 Y7.368 I4.1604 J6.0989
G01 X6.757 Y7.738
G01 X6.814 Y8.166
G03 X8.238 Y12.249 I-5.8361 J4.3252
G01 X7.806 Y12.250
G03 X6.123 Y17.011 I-6.8898 J0.2418
G01 X6.007 Y17.406
G01 X5.950 Y17.521
G01 X5.661 Y18.114
G02 X8.972 Y20.684 I6.1644 J-4.5253
G03 X10.899 Y20.313 I1.6714 J3.4956
G02 X12.933 Y20.432 I1.3386 J-5.4410
G03 X15.189 Y21.046 I0.2301 J3.6062
G02 X20.468 Y16.657 I-2.2476 J-8.0717
G02 X20.327 Y16.303 I-3.0110 J0.9959
G03 X20.180 Y15.751 I2.6158 J-0.9925
G01 Y14.507
G02 X7.119 Y6.750 I-7.6683 J-1.9627
G03 X6.287 Y7.590 I-4.5118 J-3.6358
G01 X6.361 Y7.969
G01 X6.403 Y8.315
G03 X7.806 Y12.242 I-5.4876 J4.1759
G01 X7.382 Y12.244
G03 X5.727 Y16.830 I-6.4879 J0.2496
G03 X5.134 Y18.090 I-3.1852 J-0.7294
G02 X9.038 Y21.161 I6.6639 J-4.4524
G03 X11.236 Y20.809 I1.5009 J2.3313
G02 X12.916 Y20.846 I0.9629 J-5.5528
G03 X15.091 Y21.507 I0.2432 J3.1054
G02 X20.946 Y16.632 I-2.1505 J-8.5364
G03 X20.600 Y15.677 I2.5412 J-1.4603
G01 Y14.582
G02 X6.773 Y6.495 I-8.0872 J-2.0363
G03 X5.785 Y7.442 I-3.5838 J-2.7505
G03 X5.991 Y8.471 I-3.2837 J1.1920
G03 X7.382 Y12.244 I-5.0964 J4.0227
G01 X6.956 Y12.246
G03 X5.332 Y16.640 I-6.0883 J0.2465
G03 X4.591 Y18.065 I-2.5771 J-0.4356
G02 X9.079 Y21.639 I7.3637 J-4.6421
G03 X11.158 Y21.220 I1.4788 J1.9677
G02 X12.754 Y21.283 I1.0462 J-6.2296
G03 X14.992 Y21.977 I0.3785 J2.7339
G02 X21.407 Y16.665 I-2.0713 J-9.0313
G01 X21.415 Y16.607
G03 X21.020 Y15.594 I2.5448 J-1.5767
G01 Y14.656
G02 X6.386 Y6.281 I-8.5055 J-2.1104
G03 X5.258 Y7.277 I-2.8593 J-2.1005
G03 X5.579 Y8.628 I-3.0678 J1.4430
G03 X6.956 Y12.243 I-4.7117 J3.8649
G01 X6.531 Y12.246
G03 X4.929 Y16.459 I-5.6926 J0.2459
G03 X4.023 Y17.991 I-2.1341 J-0.2284
G02 X9.145 Y22.125 I8.1512 J-4.8594
G03 X11.293 Y21.656 I1.4919 J1.6796
G02 X12.620 Y21.730 I1.0313 J-6.6029
G03 X14.876 Y22.454 I0.4961 J2.3305
G02 X21.901 Y16.583 I-2.0231 J-9.5580
G03 X21.440 Y15.520 I2.3470 J-1.6501
G01 Y14.730
G02 X5.950 Y6.116 I-8.9255 J-2.1840
G03 X4.616 Y7.079 I-1.9860 J-1.3445
G03 X5.159 Y8.776 I-2.0826 J1.6025
G03 X6.531 Y12.241 I-4.3214 J3.7154
G01 X6.107 Y12.249
G03 X4.509 Y16.286 I-5.2896 J0.2406
G03 X4.052 Y17.369 I-1.5556 J-0.0181
G03 X3.454 Y17.892 I-2.0388 J-1.7266
G02 X9.244 Y22.611 I8.8296 J-4.9221
G03 X11.222 Y22.068 I1.4121 J1.2704
G02 X12.653 Y22.150 I1.1778 J-8.0601
G03 X14.720 Y22.924 I0.4495 J1.9465
G02 X22.387 Y16.467 I-1.8745 J-10.0063
G03 X21.860 Y15.446 I1.3498 J-1.3432
G01 Y14.804
G02 X5.637 Y5.828 I-9.3452 J-2.2583
G03 X3.652 Y6.750 I-1.7204 J-1.1055
G01 X3.611 Y6.808
G01 Y6.849
G03 X4.739 Y8.932 I-0.8767 J1.8219
G03 X6.107 Y12.249 I-3.9220 J3.5576
G01 X5.682 Y12.255
G03 X4.089 Y16.113 I-4.8839 J0.2413
G03 X3.677 Y17.126 I-1.2297 J0.0903
G01 X2.911 Y17.810
G02 X9.392 Y23.105 I9.5007 J-5.0147
G03 X11.212 Y22.487 I1.2998 J0.8398
G02 X12.686 Y22.570 I1.2263 J-8.7114
G03 X14.506 Y23.393 I0.4069 J1.5235
G02 X22.897 Y16.352 I-1.6956 J-10.5418
G03 X22.280 Y15.364 I0.8949 J-1.2464
G01 Y14.878
G02 X4.912 Y5.992 I-9.7623 J-2.3348
G03 X3.463 Y6.281 I-0.9880 J-1.1800
G01 X3.199 Y6.668
G01 X2.977 Y7.038
G01 X2.993 Y7.079
G03 X4.278 Y9.056 I-0.2887 J1.5934
G03 X5.682 Y12.255 I-3.4747 J3.4324
G01 X5.259 Y12.272
G03 X3.660 Y15.916 I-4.4130 J0.2368
G01 X3.669 Y16.261
G03 X3.463 Y16.747 I-1.0803 J-0.1712
G01 X2.507 Y17.604
G01 X2.359 Y17.703
G02 X9.622 Y23.599 I10.1078 J-5.0295
G03 X10.701 Y22.825 I1.0540 J0.3301
G02 X12.735 Y22.989 I1.8470 J-10.1679
G03 X14.234 Y23.862 I0.3393 J1.1406
G02 X23.416 Y16.163 I-1.4528 J-11.0572
G03 X22.700 Y15.290 I0.4298 J-1.0832
G01 Y14.952
G02 X4.653 Y5.654 I-10.1786 J-2.4067
G03 X3.323 Y5.762 I-0.7392 J-0.8585
G02 X2.384 Y7.261 I6.8942 J5.3617
G01 X2.392 Y7.285
G01 X3.314 Y7.664
G03 X3.784 Y9.163 I-0.5566 J0.9972
G03 X5.259 Y12.272 I-2.9609 J3.3089
G01 X4.835 Y12.288
G03 X3.166 Y15.776 I-4.0266 J0.2162
G03 X3.117 Y16.500 I-0.5770 J0.3247
G01 X2.211 Y17.299
G01 X2.079 Y17.373
G01 X1.775 Y17.489
G02 X9.960 Y24.118 I10.7252 J-4.8750
G01 X10.010 Y23.780
G03 X10.759 Y23.253 I0.6707 J0.1574
G02 X13.304 Y23.397 I1.9535 J-12.0018
G03 X13.814 Y24.332 I-0.2272 J0.7304
G02 X23.951 Y15.850 I-1.0205 J-11.5184
G01 X23.597 Y15.776
G03 X23.120 Y15.224 I0.1987 J-0.6546
G01 Y15.026
G02 X4.283 Y5.420 I-10.6059 J-2.4744
G03 X3.306 Y5.136 I-0.3418 J-0.6457
G01 X3.273 Y5.128
G02 X1.807 Y7.499 I7.9313 J6.5408
G01 X3.092 Y8.026
G01 X3.174 Y8.076
G01 X3.356 Y8.265
G03 X3.224 Y9.254 I-0.7557 J0.4021
G03 X4.835 Y12.288 I-2.4030 J3.2214
G00 Z20.000
G00 Y12.287
G00 Z-1.900
G01 Z-2.400 F120
G01 X4.619 Y12.295 F400
G01 X4.626 Y12.500
G01 Y12.562
G01 X4.609 Y12.853
G01 X4.604 Y12.915
G01 X4.561 Y13.203
G01 X4.550 Y13.264
G01 X4.480 Y13.547
G01 X4.463 Y13.607
G01 X4.368 Y13.883
G01 X4.346 Y13.941
G01 X4.226 Y14.207
G01 X4.198 Y14.262
G01 X4.054 Y14.516
G01 X4.022 Y14.569
G01 X3.855 Y14.808
G01 X3.818 Y14.858
G01 X3.630 Y15.081
G01 X3.589 Y15.127
G01 X3.381 Y15.332
G01 X3.335 Y15.374
G01 X3.110 Y15.559
G01 X3.061 Y15.597
G01 X2.885 Y15.715
G01 X2.888 Y15.726
G01 X2.883 Y15.717
G01 X2.987 Y15.913
G03 X2.869 Y16.454 I-0.4148 J0.1931
G01 X2.119 Y17.094
G03 X1.480 Y17.380 I-0.9316 J-1.2244
G01 X1.549 Y17.543
G02 X10.131 Y24.382 I10.9658 J-4.9567
G01 X10.222 Y23.837
G03 X10.732 Y23.478 I0.4476 J0.0945
G02 X13.192 Y23.601 I1.8007 J-11.3966
G03 X13.590 Y24.036 I-0.0593 J0.4536
G01 X13.611 Y24.568
G01 X13.817 Y24.556
G02 X24.214 Y15.697 I-1.0473 J-11.7596
G01 X23.670 Y15.572
G03 X23.335 Y15.132 I0.1218 J-0.4410
G01 X23.337 Y15.086
G01 X23.344 Y15.041
G02 X4.239 Y5.189 I-10.8067 J-2.4939
G03 X3.650 Y5.170 I-0.2834 J-0.3591
G01 X3.253 Y4.813
G01 X3.201 Y4.874
G02 X1.514 Y7.619 I9.0614 J7.4593
G01 X2.984 Y8.220
G03 X3.191 Y8.843 I-0.1990 J0.4120
G01 X2.948 Y9.310
G01 X2.957 Y9.328
G01 X3.113 Y9.439
G01 X3.163 Y9.476
G01 X3.384 Y9.666
G01 X3.430 Y9.708
G01 X3.633 Y9.917
G01 X3.675 Y9.963
G01 X3.858 Y10.190
G01 X3.895 Y10.240
G01 X4.057 Y10.483
G01 X4.089 Y10.536
G01 X4.228 Y10.792
G01 X4.255 Y10.848
G01 X4.369 Y11.116
G01 X4.392 Y11.174
G01 X4.481 Y11.452
G01 X4.498 Y11.511
G01 X4.561 Y11.796
G01 X4.573 Y11.857
G01 X4.610 Y12.146
G01 X4.616 Y12.208
G01 X4.619 Y12.295
G00 Z20.000
G00 X13.696 Y12.069
G00 Z-1.900
G01 Z-2.600 F120
G03 X13.542 Y14.540 I-14.0072 J0.3684 F400
G01 X13.822 Y14.549
G01 X14.300 Y14.614
G01 Y13.495
G02 X13.625 Y10.933 I-1.7959 J-0.8960
G01 X13.665 Y11.384
G01 X13.690 Y11.835
G01 X13.696 Y12.069
G01 X13.275 Y12.072
G03 X13.040 Y14.936 I-13.4239 J0.3412
G01 X13.789 Y14.969
G01 X14.720 Y15.092
G01 Y13.560
G02 X13.106 Y10.233 I-2.2122 J-0.9818
G03 X13.274 Y11.997 I-13.3611 J2.1644
G01 X13.275 Y12.072
G01 X12.851 Y12.079
G03 X12.513 Y15.347 I-12.5280 J0.3551
G03 X14.983 Y15.562 I0.2028 J12.0196
G01 X15.140 Y15.438
G01 Y13.626
G02 X12.579 Y9.731 I-2.6379 J-1.0551
G03 X12.851 Y12.079 I-11.8776 J2.5679
G01 X12.433 Y12.084
G03 X11.961 Y15.784 I-12.1224 J0.3332
G03 X15.082 Y16.006 I0.6598 J12.7542
G01 X15.346 Y15.825
G01 X15.560 Y15.611
G01 Y13.700
G02 X12.035 Y9.336 I-3.0559 J-1.1377
G03 X12.433 Y12.084 I-11.3320 J3.0447
G01 X12.011 Y12.091
G03 X11.409 Y16.138 I-11.5761 J0.3471
G01 X11.805 Y16.179
G01 X12.060 Y16.237
G03 X15.173 Y16.459 I0.9186 J9.0411
G01 X15.618 Y16.146
G01 X15.980 Y15.792
G01 Y13.766
G02 X11.500 Y9.015 I-3.4762 J-1.2102
G03 X12.011 Y12.091 I-10.6427 J3.3489
G01 X11.593 Y12.095
G03 X10.808 Y16.525 I-10.8866 J0.3563
G03 X12.068 Y16.665 I0.0371 J5.4063
G03 X15.214 Y16.912 I0.9424 J8.1511
G02 X16.400 Y15.949 I-1.6374 J-3.2267
G01 Y13.840
G02 X10.965 Y8.759 I-3.8869 J-1.2897
G03 X11.593 Y12.095 I-10.0825 J3.6254
G01 X11.176 Y12.114
G01 X11.181 Y12.238
G03 X10.150 Y16.953 I-10.3984 J0.1951
G03 X12.052 Y17.085 I0.4776 J6.9022
G03 X15.255 Y17.365 I0.9369 J7.7465
G02 X16.820 Y16.113 I-1.9627 J-4.0572
G01 Y13.915
G02 X10.429 Y8.545 I-4.2996 J-1.3702
G03 X11.176 Y12.114 I-9.5527 J3.8605
G01 X10.760 Y12.129
G03 X9.400 Y17.464 I-9.8948 J0.3181
G03 X12.035 Y17.505 I1.2106 J6.8698
G03 X15.288 Y17.818 I0.9092 J7.6116
G02 X17.240 Y16.261 I-2.0653 J-4.5918
G01 Y13.989
G02 X9.886 Y8.372 I-4.7208 J-1.4414
G03 X10.760 Y12.129 I-8.8064 J4.0293
G01 X10.339 Y12.148
G01 X10.347 Y12.328
G03 X8.758 Y17.686 I-9.4084 J0.1244
G01 X8.750 Y17.727
G01 X8.898 Y17.851
G01 X9.079 Y17.958
G03 X12.052 Y17.933 I1.5403 J6.4703
G03 X15.288 Y18.279 I0.9068 J6.8298
G02 X17.693 Y16.360 I-2.0847 J-5.0788
G01 X17.660 Y16.204
G01 Y14.063
G02 X9.342 Y8.224 I-5.1428 J-1.5174
G03 X10.339 Y12.148 I-8.2915 J4.1942
G01 X9.917 Y12.164
G03 X8.214 Y17.736 I-8.9432 J0.3127
G02 X9.062 Y18.403 I1.3982 J-0.9051
G03 X12.052 Y18.361 I1.5775 J5.9916
G03 X15.338 Y18.740 I0.9083 J6.5608
G02 X18.146 Y16.459 I-2.4162 J-5.8435
G01 Y16.393
G01 X18.080 Y16.130
G01 Y14.137
G02 X8.799 Y8.109 I-5.5617 J-1.5956
G03 X9.917 Y12.164 I-7.7860 J4.3284
G01 X9.496 Y12.184
G01 X9.503 Y12.331
G03 X7.654 Y17.785 I-8.5632 J0.1373
G02 X9.013 Y18.847 I2.8191 J-2.2057
G03 X12.068 Y18.790 I1.6400 J5.9314
G03 X15.370 Y19.201 I0.9260 J6.0215
G02 X18.607 Y16.525 I-2.6345 J-6.4807
G01 X18.500 Y16.056
G01 Y14.211
G02 X8.255 Y8.026 I-5.9766 J-1.6769
G03 X9.496 Y12.184 I-7.2406 J4.4246
G01 X9.076 Y12.207
G01 X9.081 Y12.292
G03 X7.267 Y17.596 I-8.1093 J0.1888
G01 X7.201 Y17.834
G01 X7.160 Y17.908
G02 X8.972 Y19.300 I4.0198 J-3.3579
G03 X11.252 Y19.106 I1.5483 J4.6928
G01 X11.682 Y19.154
G01 X12.109 Y19.218
G03 X15.354 Y19.663 I0.9187 J5.3561
G02 X19.068 Y16.583 I-2.5517 J-6.8564
G01 X18.920 Y15.982
G01 Y14.285
G02 X7.712 Y7.969 I-6.3982 J-1.7487
G03 X9.076 Y12.207 I-6.7088 J4.4980
G01 X8.662 Y12.233
G01 X8.664 Y12.255
G03 X6.888 Y17.398 I-7.6508 J0.2372
G03 X6.674 Y17.941 I-1.6211 J-0.3247
G01 X6.666 Y17.999
G02 X8.964 Y19.761 I4.8293 J-3.9173
G03 X11.517 Y19.580 I1.5733 J4.0922
G01 X12.142 Y19.638
G03 X15.321 Y20.124 I0.8741 J4.9222
G02 X19.537 Y16.616 I-2.4641 J-7.2494
G01 X19.422 Y16.286
G01 X19.340 Y15.907
G01 Y14.359
G02 X7.210 Y7.887 I-6.8193 J-1.8229
G01 X7.218 Y8.010
G03 X8.662 Y12.233 I-6.1970 J4.4780
G01 X8.238 Y12.249
G03 X6.510 Y17.200 I-7.2600 J0.2428
G01 X6.411 Y17.521
G01 X6.164 Y18.040
G02 X8.964 Y20.223 I5.4058 J-4.0485
G03 X11.394 Y19.984 I1.5723 J3.5190
G02 X12.948 Y20.014 I0.8754 J-5.0845
G03 X15.263 Y20.585 I0.2413 J4.0037
G02 X20.007 Y16.640 I-2.3531 J-7.6538
G01 X19.842 Y16.204
G01 X19.760 Y15.833
G01 Y14.433
G02 X8.360 Y6.328 I-7.2316 J-1.8984
G02 X7.144 Y7.368 I4.1604 J6.0989
G01 X6.757 Y7.738
G01 X6.814 Y8.166
G03 X8.238 Y12.249 I-5.8361 J4.3252
G01 X7.806 Y12.250
G03 X6.123 Y17.011 I-6.8898 J0.2418
G01 X6.007 Y17.406
G01 X5.950 Y17.521
G01 X5.661 Y18.114
G02 X8.972 Y20.684 I6.1644 J-4.5253
G03 X10.899 Y20.313 I1.6714 J3.4956
G02 X12.933 Y20.432 I1.3386 J-5.4410
G03 X15.189 Y21.046 I0.2301 J3.6062
G02 X20.468 Y16.657 I-2.2476 J-8.0717
G02 X20.327 Y16.303 I-3.0110 J0.9959
G03 X20.180 Y15.751 I2.6158 J-0.9925
G01 Y14.507
G02 X7.119 Y6.750 I-7.6683 J-1.9627
G03 X6.287 Y7.590 I-4.5118 J-3.6358
G01 X6.361 Y7.969
G01 X6.403 Y8.315
G03 X7.806 Y12.242 I-5.4876 J4.1759
G01 X7.382 Y12.244
G03 X5.727 Y16.830 I-6.4879 J0.2496
G03 X5.134 Y18.090 I-3.1852 J-0.7294
G02 X9.038 Y21.161 I6.6639 J-4.4524
G03 X11.236 Y20.809 I1.5009 J2.3313
G02 X12.916 Y20.846 I0.9629 J-5.5528
G03 X15.091 Y21.507 I0.2432 J3.1054
G02 X20.946 Y16.632 I-2.1505 J-8.5364
G03 X20.600 Y15.677 I2.5412 J-1.4603
G01 Y14.582
G02 X6.773 Y6.495 I-8.0872 J-2.0363
G03 X5.785 Y7.442 I-3.5838 J-2.7505
G03 X5.991 Y8.471 I-3.2837 J1.1920
G03 X7.382 Y12.244 I-5.0964 J4.0227
G01 X6.956 Y12.246
G03 X5.332 Y16.640 I-6.0883 J0.2465
G03 X4.591 Y18.065 I-2.5771 J-0.4356
G02 X9.079 Y21.639 I7.3637 J-4.6421
G03 X11.158 Y21.220 I1.4788 J1.9677
G02 X12.754 Y21.283 I1.0462 J-6.2296
G03 X14.992 Y21.977 I0.3785 J2.7339
G02 X21.407 Y16.665 I-2.0713 J-9.0313
G01 X21.415 Y16.607
G03 X21.020 Y15.594 I2.5448 J-1.5767
G01 Y14.656
G02 X6.386 Y6.281 I-8.5055 J-2.1104
G03 X5.258 Y7.277 I-2.8593 J-2.1005
G03 X5.579 Y8.628 I-3.0678 J1.4430
G03 X6.956 Y12.243 I-4.7117 J3.8649
G01 X6.531 Y12.246
G03 X4.929 Y16.459 I-5.6926 J0.2459
G03 X4.023 Y17.991 I-2.1341 J-0.2284
G02 X9.145 Y22.125 I8.1512 J-4.8594
G03 X11.293 Y21.656 I1.4919 J1.6796
G02 X12.620 Y21.730 I1.0313 J-6.6029
G03 X14.876 Y22.454 I0.4961 J2.3305
G02 X21.901 Y16.583 I-2.0231 J-9.5580
G03 X21.440 Y15.520 I2.3470 J-1.6501
G01 Y14.730
G02 X5.950 Y6.116 I-8.9255 J-2.1840
G03 X4.616 Y7.079 I-1.9860 J-1.3445
G03 X5.159 Y8.776 I-2.0826 J1.6025
G03 X6.531 Y12.241 I-4.3214 J3.7154
G01 X6.107 Y12.249
G03 X4.509 Y16.286 I-5.2896 J0.2406
G03 X4.052 Y17.369 I-1.5556 J-0.0181
G03 X3.454 Y17.892 I-2.0388 J-1.7266
G02 X9.244 Y22.611 I8.8296 J-4.9221
G03 X11.222 Y22.068 I1.4121 J1.2704
G02 X12.653 Y22.150 I1.1778 J-8.0601
G03 X14.720 Y22.924 I0.4495 J1.9465
G02 X22.387 Y16.467 I-1.8745 J-10.0063
G03 X21.860 Y15.446 I1.3498 J-1.3432
G01 Y14.804
G02 X5.637 Y5.828 I-9.3452 J-2.2583
G03 X3.652 Y6.750 I-1.7204 J-1.1055
G01 X3.611 Y6.808
G01 Y6.849
G03 X4.739 Y8.932 I-0.8767 J1.8219
G03 X6.107 Y12.249 I-3.9220 J3.5576
G01 X5.682 Y12.255
G03 X4.089 Y16.113 I-4.8839 J0.2413
G03 X3.677 Y17.126 I-1.2297 J0.0903
G01 X2.911 Y17.810
G02 X9.392 Y23.105 I9.5007 J-5.0147
G03 X11.212 Y22.487 I1.2998 J0.8398
G02 X12.686 Y22.570 I1.2263 J-8.7114
G03 X14.506 Y23.393 I0.4069 J1.5235
G02 X22.897 Y16.352 I-1.6956 J-10.5418
G03 X22.280 Y15.364 I0.8949 J-1.2464
G01 Y14.878
G02 X4.912 Y5.992 I-9.7623 J-2.3348
G03 X3.463 Y6.281 I-0.9880 J-1.1800
G01 X3.199 Y6.668
G01 X2.977 Y7.038
G01 X2.993 Y7.079
G03 X4.278 Y9.056 I-0.2887 J1.5934
G03 X5.682 Y12.255 I-3.4747 J3.4324
G01 X5.259 Y12.272
G03 X3.660 Y15.916 I-4.4130 J0.2368
G01 X3.669 Y16.261
G03 X3.463 Y16.747 I-1.0803 J-0.1712
G01 X2.507 Y17.604
G01 X2.359 Y17.703
G02 X9.622 Y23.599 I10.1078 J-5.0295
G03 X10.701 Y22.825 I1.0540 J0.3301
G02 X12.735 Y22.989 I1.8470 J-10.1679
G03 X14.234 Y23.862 I0.3393 J1.1406
G02 X23.416 Y16.163 I-1.4528 J-11.0572
G03 X22.700 Y15.290 I0.4298 J-1.0832
G01 Y14.952
G02 X4.653 Y5.654 I-10.1786 J-2.4067
G03 X3.323 Y5.762 I-0.7392 J-0.8585
G02 X2.384 Y7.261 I6.8942 J5.3617
G01 X2.392 Y7.285
G01 X3.314 Y7.664
G03 X3.784 Y9.163 I-0.5566 J0.9972
G03 X5.259 Y12.272 I-2.9609 J3.3089
G01 X4.835 Y12.288
G03 X3.166 Y15.776 I-4.0266 J0.2162
G03 X3.117 Y16.500 I-0.5770 J0.3247
G01 X2.211 Y17.299
G01 X2.079 Y17.373
G01 X1.775 Y17.489
G02 X9.960 Y24.118 I10.7252 J-4.8750
G01 X10.010 Y23.780
G03 X10.759 Y23.253 I0.6707 J0.1574
G02 X13.304 Y23.397 I1.9535 J-12.0018
G03 X13.814 Y24.332 I-0.2272 J0.7304
G02 X23.951 Y15.850 I-1.0205 J-11.5184
G01 X23.597 Y15.776
G03 X23.120 Y15.224 I0.1987 J-0.6546
G01 Y15.026
G02 X4.283 Y5.420 I-10.6059 J-2.4744
G03 X3.306 Y5.136 I-0.3418 J-0.6457
G01 X3.273 Y5.128
G02 X1.807 Y7.499 I7.9313 J6.5408
G01 X3.092 Y8.026
G01 X3.174 Y8.076
G01 X3.356 Y8.265
G03 X3.224 Y9.254 I-0.7557 J0.4021
G03 X4.835 Y12.288 I-2.4030 J3.2214
G00 Z20.000
G00 Y12.287
G00 Z-2.100
G01 Z-2.600 F120
G01 X4.619 Y12.295 F400
G01 X4.626 Y12.500
G01 Y12.562
G01 X4.609 Y12.853
G01 X4.604 Y12.915
G01 X4.561 Y13.203
G01 X4.550 Y13.264
G01 X4.480 Y13.547
G01 X4.463 Y13.607
G01 X4.368 Y13.883
G01 X4.346 Y13.941
G01 X4.226 Y14.207
G01 X4.198 Y14.262
G01 X4.054 Y14.516
G01 X4.022 Y14.569
G01 X3.855 Y14.808
G01 X3.818 Y14.858
G01 X3.630 Y15.081
G01 X3.589 Y15.127
G01 X3.381 Y15.332
G01 X3.335 Y15.374
G01 X3.110 Y15.559
G01 X3.061 Y15.597
G01 X2.885 Y15.715
G01 X2.888 Y15.726
G01 X2.883 Y15.717
G01 X2.987 Y15.913
G03 X2.869 Y16.454 I-0.4148 J0.1931
G01 X2.119 Y17.094
G03 X1.480 Y17.380 I-0.9316 J-1.2244
G01 X1.549 Y17.543
G02 X10.131 Y24.382 I10.9658 J-4.9567
G01 X10.222 Y23.837
G03 X10.732 Y23.478 I0.4476 J0.0945
G02 X13.192 Y23.601 I1.8007 J-11.3966
G03 X13.590 Y24.036 I-0.0593 J0.4536
G01 X13.611 Y24.568
G01 X13.817 Y24.556
G02 X24.214 Y15.697 I-1.0473 J-11.7596
G01 X23.670 Y15.572
G03 X23.335 Y15.132 I0.1218 J-0.4410
G01 X23.337 Y15.086
G01 X23.344 Y15.041
G02 X4.239 Y5.189 I-10.8067 J-2.4939
G03 X3.650 Y5.170 I-0.2834 J-0.3591
G01 X3.253 Y4.813
G01 X3.201 Y4.874
G02 X1.514 Y7.619 I9.0614 J7.4593
G01 X2.984 Y8.220
G03 X3.191 Y8.843 I-0.1990 J0.4120
G01 X2.948 Y9.310
G01 X2.957 Y9.328
G01 X3.113 Y9.439
G01 X3.163 Y9.476
G01 X3.384 Y9.666
G01 X3.430 Y9.708
G01 X3.633 Y9.917
G01 X3.675 Y9.963
G01 X3.858 Y10.190
G01 X3.895 Y10.240
G01 X4.057 Y10.483
G01 X4.089 Y10.536
G01 X4.228 Y10.792
G01 X4.255 Y10.848
G01 X4.369 Y11.116
G01 X4.392 Y11.174
G01 X4.481 Y11.452
G01 X4.498 Y11.511
G01 X4.561 Y11.796
G01 X4.573 Y11.857
G01 X4.610 Y12.146
G01 X4.616 Y12.208
G01 X4.619 Y12.295
G00 Z20.000


(No. 2 Parallel pocket: Hole 3)
G00 X14.525 Y12.198 Z20.000
G00 Z0.500
G01 Z-0.400 F120
G01 X14.530 Y12.798 F400
G01 X14.522 Y13.275
G01 X14.506 Y13.259
G02 X14.539 Y11.958 I-1.5701 J-0.6907
G01 X14.522
G01 X14.525 Y12.198
G01 X14.107 Y12.201
G03 X13.929 Y14.684 I-13.7573 J0.2648
G02 X13.979 Y10.533 I-1.3732 J-2.0919
G03 X14.106 Y12.089 I-13.8021 J1.9112
G01 X14.107 Y12.201
G01 X13.679 Y12.208
G03 X13.369 Y15.433 I-14.6808 J0.2183
G02 X13.419 Y9.776 I-0.8537 J-2.8364
G03 X13.679 Y12.208 I-12.8200 J2.6005
G01 X13.260 Y12.214
G03 X12.809 Y15.976 I-13.6679 J0.2724
G02 X12.859 Y9.224 I-0.3039 J-3.3788
G03 X13.260 Y12.214 I-12.5131 J3.1993
G01 X12.835 Y12.222
G03 X12.241 Y16.388 I-12.6812 J0.3167
G02 X13.759 Y8.992 I0.2779 J-3.7970
G02 X12.291 Y8.787 I-1.2506 J3.6058
G03 X12.835 Y12.222 I-11.8788 J3.6448
G01 X12.417 Y12.229
G03 X11.681 Y16.709 I-12.1710 J0.3029
G02 X15.701 Y15.386 I0.9118 J-3.9977
G02 X11.722 Y8.433 I-3.1858 J-2.7918
G03 X12.417 Y12.229 I-11.4346 J4.0526
G01 X11.998 Y12.238
G03 X11.121 Y16.973 I-11.5926 J0.3022
G02 X16.287 Y15.344 I1.5088 J-4.2190
G02 X11.154 Y8.145 I-3.7610 J-2.7475
G03 X11.998 Y12.238 I-10.7113 J4.3420
G01 X11.575 Y12.247
G03 X10.553 Y17.195 I-11.0788 J0.2906
G02 X16.763 Y15.409 I2.0795 J-4.4581
G02 X10.586 Y7.906 I-4.2266 J-2.8145
G03 X11.575 Y12.247 I-10.0574 J4.5752
G01 X11.155 Y12.258
G03 X9.985 Y17.409 I-10.6544 J0.2887
G02 X17.958 Y13.534 I2.6031 J-4.7838
G02 X10.018 Y7.700 I-5.4185 J-0.9455
G03 X11.155 Y12.258 I-9.4892 J4.7875
G01 X10.736 Y12.268
G03 X9.417 Y17.566 I-10.1839 J0.2772
G02 X18.429 Y11.903 I3.1670 J-4.9628
G02 X9.441 Y7.536 I-5.8850 J0.6789
G03 X10.736 Y12.268 I-8.8570 J4.9660
G01 X10.315 Y12.279
G03 X8.848 Y17.689 I-9.7082 J0.2716
G02 X18.881 Y12.262 I3.7367 J-5.0790
G02 X8.865 Y7.404 I-6.3419 J0.3208
G03 X10.315 Y12.279 I-8.2286 J5.1017
G01 X9.898 Y12.291
G03 X8.272 Y17.780 I-9.2163 J0.2558
G02 X19.059 Y10.734 I4.3096 J-5.1826
G02 X8.313 Y7.280 I-6.5223 J1.8482
G01 X8.297 Y7.313
G03 X9.898 Y12.291 I-7.5891 J5.1873
G01 X9.478 Y12.303
G03 X7.695 Y17.838 I-8.7648 J0.2318
G02 X19.314 Y10.139 I4.8826 J-5.2477
G02 X7.728 Y7.239 I-6.7623 J2.4230
G03 X9.478 Y12.303 I-6.9924 J5.2498
G01 X9.058 Y12.316
G03 X7.127 Y17.862 I-8.3311 J0.2083
G02 X19.875 Y10.482 I5.4586 J-5.2706
G02 X7.152 Y7.181 I-7.3313 J2.0879
G03 X9.058 Y12.316 I-6.4060 J5.2995
G01 X8.638 Y12.329
G03 X6.551 Y17.862 I-7.8566 J0.1972
G02 X19.881 Y9.267 I6.0310 J-5.2808
G02 X6.575 Y7.190 I-7.3280 J3.2870
G03 X8.638 Y12.329 I-5.7893 J5.3069
G01 X8.214 Y12.342
G03 X5.974 Y17.829 I-7.4208 J0.1727
G02 X20.758 Y10.507 I6.6124 J-5.2347
G02 X5.999 Y7.198 I-8.2107 J2.0529
G03 X8.214 Y12.342 I-5.2026 J5.2886
G01 X7.794 Y12.361
G01 X7.797 Y12.420
G03 X5.398 Y17.763 I-6.9647 J0.0837
G02 X21.426 Y12.068 I7.1931 J-5.1588
G02 X5.431 Y7.239 I-8.8751 J0.4918
G03 X7.794 Y12.361 I-4.6384 J5.2463
G01 X7.370 Y12.377
G01 X7.374 Y12.489
G03 X4.854 Y17.673 I-6.5919 J0.0000
G01 X4.838 Y17.714
G02 X20.106 Y7.109 I7.7448 J-5.1430
G02 X4.854 Y7.305 I-7.5570 J5.4472
G03 X7.370 Y12.377 I-4.0581 J5.1729
G01 X6.949 Y12.390
G01 X6.953 Y12.502
G03 X4.261 Y17.591 I-6.1758 J-0.0100
G02 X20.993 Y7.699 I8.3235 J-5.0167
G02 X4.278 Y7.404 I-8.4458 J4.8575
G03 X6.949 Y12.390 I-3.4887 J5.0777
G01 X6.534 Y12.405
G01 X6.537 Y12.508
G03 X3.685 Y17.459 I-5.7468 J-0.0143
G02 X21.393 Y7.547 I8.8898 J-4.8923
G02 X3.743 Y7.453 I-8.8523 J5.0104
G01 X3.710 Y7.544
G03 X6.534 Y12.405 I-2.9087 J4.9408
G01 X6.113 Y12.421
G01 X6.116 Y12.498
G03 X3.109 Y17.286 I-5.3290 J-0.0092
G02 X21.927 Y7.624 I9.4644 J-4.7236
G02 X3.125 Y7.700 I-9.3814 J4.9264
G03 X6.113 Y12.421 I-2.3307 J4.7813
G01 X5.690 Y12.438
G01 X5.693 Y12.517
G03 X2.532 Y17.072 I-4.8878 J-0.0176
G02 X22.602 Y8.037 I10.0369 J-4.5127
G02 X2.557 Y7.898 I-10.0541 J4.5130
G01 X2.565 Y7.939
G03 X5.690 Y12.438 I-1.7533 J4.5525
G01 X5.269 Y12.455
G01 X5.271 Y12.517
G03 X1.947 Y16.816 I-4.4701 J-0.0213
G02 X22.942 Y7.762 I10.6096 J-4.2666
G02 X1.997 Y8.120 I-10.3938 J4.7820
G01 X1.989 Y8.186
G03 X5.269 Y12.455 I-1.1830 J4.3035
G01 X4.845 Y12.473
G01 X4.847 Y12.508
G03 X1.371 Y16.512 I-4.0584 J-0.0125
G02 X23.566 Y8.148 I11.1783 J-3.9678
G02 X1.396 Y8.483 I-11.0214 J4.3936
G03 X4.845 Y12.473 I-0.6058 J4.0100
G00 Z20.000
G00 Y12.457
G00 Z0.100
G01 Z-0.400 F120
G01 X4.625 Y12.466 F400
G01 X4.615 Y12.801
G01 X4.611 Y12.846
G01 X4.560 Y13.209
G01 X4.552 Y13.253
G01 X4.463 Y13.608
G01 X4.449 Y13.652
G01 X4.323 Y13.995
G01 X4.305 Y14.037
G01 X4.143 Y14.365
G01 X4.121 Y14.405
G01 X3.925 Y14.714
G01 X3.898 Y14.751
G01 X3.670 Y15.037
G01 X3.640 Y15.071
G01 X3.383 Y15.331
G01 X3.349 Y15.362
G01 X3.066 Y15.593
G01 X3.029 Y15.620
G01 X2.722 Y15.820
G01 X2.682 Y15.842
G01 X2.357 Y16.008
G01 X2.315 Y16.027
G01 X1.973 Y16.157
G01 X1.929 Y16.170
G01 X1.576 Y16.263
G01 X1.531 Y16.272
G01 X1.153 Y16.329
G01 X1.085 Y16.332
G01 X0.857 Y16.157
G01 X1.085 Y16.332
G02 X3.579 Y20.648 I11.1026 J-3.5356
G02 X21.253 Y4.166 I8.9630 J-8.1059
G02 X1.103 Y8.667 I-8.7087 J8.3667
G01 X0.828 Y8.878
G01 X1.103 Y8.667
G03 X1.219 Y8.675 I0.0257 J0.4573
G01 X1.823 Y8.796
G01 X1.881 Y8.809
G01 X1.924 Y8.824
G01 X2.494 Y9.056
G01 X2.533 Y9.072
G01 X2.573 Y9.093
G01 X2.888 Y9.279
G01 X2.926 Y9.304
G01 X3.220 Y9.522
G01 X3.255 Y9.552
G01 X3.523 Y9.800
G01 X3.555 Y9.833
G01 X3.796 Y10.108
G01 X3.824 Y10.144
G01 X4.033 Y10.444
G01 X4.057 Y10.483
G01 X4.234 Y10.803
G01 X4.254 Y10.845
G01 X4.395 Y11.182
G01 X4.410 Y11.225
G01 X4.515 Y11.575
G01 X4.525 Y11.620
G01 X4.592 Y11.980
G01 X4.597 Y12.025
G01 X4.625 Y12.390
G01 X4.626 Y12.435
G01 X4.625 Y12.466
G00 Z20.000
G00 X14.526 Y12.369
G00 Z0.100
G01 Z-0.800 F120
G01 X14.530 Y12.798 F400
G01 X14.522 Y13.275
G01 X14.506 Y13.259
G02 X14.539 Y11.958 I-1.5701 J-0.6907
G01 X14.522
G01 X14.526 Y12.369
G01 X14.108 Y12.372
G03 X13.929 Y14.684 I-13.6244 J0.1108
G02 X13.979 Y10.533 I-1.3732 J-2.0919
G03 X14.108 Y12.372 I-13.1989 J1.8505
G01 X13.682 Y12.379
G01 X13.685 Y12.590
G03 X13.369 Y15.433 I-15.1033 J-0.2397
G02 X13.419 Y9.776 I-0.8537 J-2.8364
G03 X13.682 Y12.379 I-13.0195 J2.6299
G01 X13.262 Y12.385
G03 X12.809 Y15.976 I-13.6722 J0.1014
G02 X12.859 Y9.224 I-0.3039 J-3.3788
G03 X13.262 Y12.385 I-12.5957 J3.2129
G01 X12.839 Y12.393
G01 X12.842 Y12.592
G03 X12.241 Y16.388 I-12.8172 J-0.0833
G02 X13.759 Y8.992 I0.2779 J-3.7970
G02 X12.291 Y8.787 I-1.2506 J3.6058
G03 X12.839 Y12.393 I-11.9913 J3.6670
G01 X12.419 Y12.400
G01 X12.422 Y12.575
G03 X11.681 Y16.709 I-12.2431 J-0.0609
G02 X15.701 Y15.386 I0.9118 J-3.9977
G02 X11.722 Y8.433 I-3.1858 J-2.7918
G03 X12.419 Y12.400 I-11.4499 J4.0566
G01 X12.002 Y12.408
G01 X12.005 Y12.562
G03 X11.121 Y16.973 I-11.6691 J-0.0435
G02 X16.287 Y15.344 I1.5088 J-4.2190
G02 X11.154 Y8.145 I-3.7610 J-2.7475
G03 X12.002 Y12.408 I-10.7416 J4.3509
G01 X11.579 Y12.418
G01 X11.582 Y12.554
G03 X10.553 Y17.195 I-11.1550 J-0.0396
G02 X16.763 Y15.409 I2.0795 J-4.4581
G02 X10.586 Y7.906 I-4.2266 J-2.8145
G03 X11.579 Y12.418 I-10.0949 J4.5876
G01 X11.159 Y12.429
G01 X11.162 Y12.559
G03 X9.985 Y17.409 I-10.7288 J-0.0364
G02 X17.958 Y13.534 I2.6031 J-4.7838
G02 X10.018 Y7.700 I-5.4185 J-0.9455
G03 X11.159 Y12.429 I-9.5281 J4.8017
G01 X10.740 Y12.439
G01 X10.742 Y12.554
G03 X9.417 Y17.566 I-10.2312 J-0.0252
G02 X18.429 Y11.903 I3.1670 J-4.9628
G02 X9.441 Y7.536 I-5.8850 J0.6789
G03 X10.740 Y12.439 I-8.8853 J4.9765
G01 X10.320 Y12.450
G01 X10.322 Y12.549
G03 X8.848 Y17.689 I-9.7545 J-0.0156
G02 X18.881 Y12.262 I3.7367 J-5.0790
G02 X8.865 Y7.404 I-6.3419 J0.3208
G03 X10.320 Y12.450 I-8.2604 J5.1146
G01 X9.902 Y12.461
G01 X9.905 Y12.550
G03 X8.272 Y17.780 I-9.2604 J-0.0219
G02 X19.059 Y10.734 I4.3096 J-5.1826
G02 X8.313 Y7.280 I-6.5223 J1.8482
G01 X8.297 Y7.313
G03 X9.902 Y12.461 I-7.6216 J5.2017
G01 X9.483 Y12.473
G01 X9.485 Y12.544
G03 X7.695 Y17.838 I-8.8061 J-0.0274
G02 X19.314 Y10.139 I4.8826 J-5.2477
G02 X7.728 Y7.239 I-6.7623 J2.4230
G03 X9.483 Y12.473 I-7.0268 J5.2664
G01 X9.064 Y12.487
G01 X9.065 Y12.526
G03 X7.127 Y17.862 I-8.3688 J-0.0194
G02 X19.875 Y10.482 I5.4586 J-5.2706
G02 X7.152 Y7.181 I-7.3313 J2.0879
G03 X9.064 Y12.487 I-6.4434 J5.3191
G01 X8.643 Y12.499
G01 X8.644 Y12.531
G03 X6.551 Y17.862 I-7.8833 J-0.0182
G02 X19.881 Y9.267 I6.0310 J-5.2808
G02 X6.575 Y7.190 I-7.3280 J3.2870
G03 X8.643 Y12.499 I-5.8091 J5.3192
G01 X8.219 Y12.512
G03 X5.974 Y17.829 I-7.4435 J-0.0098
G02 X20.758 Y10.507 I6.6124 J-5.2347
G02 X5.999 Y7.198 I-8.2107 J2.0529
G03 X8.219 Y12.512 I-5.2237 J5.3028
G01 X7.795 Y12.502
G03 X5.398 Y17.763 I-6.9527 J0.0097
G02 X21.426 Y12.068 I7.1931 J-5.1588
G02 X5.431 Y7.239 I-8.8751 J0.4918
G03 X7.795 Y12.502 I-4.6341 J5.2437
G01 X7.374 Y12.489
G03 X4.854 Y17.673 I-6.5919 J0.0000
G01 X4.838 Y17.714
G02 X20.106 Y7.109 I7.7448 J-5.1430
G02 X4.854 Y7.305 I-7.5570 J5.4472
G03 X7.374 Y12.489 I-4.0718 J5.1839
G01 X6.953 Y12.502
G03 X4.261 Y17.591 I-6.1758 J-0.0100
G02 X20.993 Y7.699 I8.3235 J-5.0167
G02 X4.278 Y7.404 I-8.4458 J4.8575
G03 X6.953 Y12.502 I-3.5008 J5.0877
G01 X6.537 Y12.508
G03 X3.685 Y17.459 I-5.7468 J-0.0143
G02 X21.393 Y7.547 I8.8898 J-4.8923
G02 X3.743 Y7.453 I-8.8523 J5.0104
G01 X3.710 Y7.544
G03 X6.537 Y12.508 I-2.9191 J4.9502
G01 X6.116 Y12.498
G03 X3.109 Y17.286 I-5.3290 J-0.0092
G02 X21.927 Y7.624 I9.4644 J-4.7236
G02 X3.125 Y7.700 I-9.3814 J4.9264
G03 X6.116 Y12.498 I-2.3380 J4.7888
G01 X5.693 Y12.515
G03 X2.532 Y17.072 I-4.8876 J-0.0156
G02 X22.602 Y8.037 I10.0369 J-4.5127
G02 X2.557 Y7.898 I-10.0541 J4.5130
G01 X2.565 Y7.939
G03 X5.693 Y12.515 I-1.7596 J4.5598
G01 X5.271 Y12.517
G03 X1.947 Y16.816 I-4.4701 J-0.0213
G02 X22.942 Y7.762 I10.6096 J-4.2666
G02 X1.997 Y8.120 I-10.3938 J4.7820
G01 X1.989 Y8.186
G03 X5.271 Y12.517 I-1.1875 J4.3096
G01 X4.847 Y12.508
G03 X1.371 Y16.512 I-4.0584 J-0.0125
G02 X23.566 Y8.148 I11.1783 J-3.9678
G02 X1.396 Y8.483 I-11.0214 J4.3936
G03 X4.847 Y12.508 I-0.6073 J4.0127
G00 Z20.000
G00 X4.846 Y12.492
G00 Z-0.300
G01 Z-0.800 F120
G01 X4.624 Y12.501 F400
G01 X4.615 Y12.801
G01 X4.611 Y12.846
G01 X4.560 Y13.209
G01 X4.552 Y13.253
G01 X4.463 Y13.608
G01 X4.449 Y13.652
G01 X4.323 Y13.995
G01 X4.305 Y14.037
G01 X4.143 Y14.365
G01 X4.121 Y14.405
G01 X3.925 Y14.714
G01 X3.898 Y14.751
G01 X3.670 Y15.037
G01 X3.640 Y15.071
G01 X3.383 Y15.331
G01 X3.349 Y15.362
G01 X3.066 Y15.593
G01 X3.029 Y15.620
G01 X2.722 Y15.820
G01 X2.682 Y15.842
G01 X2.357 Y16.008
G01 X2.315 Y16.027
G01 X1.973 Y16.157
G01 X1.929 Y16.170
G01 X1.576 Y16.263
G01 X1.531 Y16.272
G01 X1.153 Y16.329
G01 X1.085 Y16.332
G01 X0.857 Y16.157
G01 X1.085 Y16.332
G02 X3.579 Y20.648 I11.1026 J-3.5356
G02 X21.253 Y4.166 I8.9630 J-8.1059
G02 X1.103 Y8.667 I-8.7087 J8.3667
G01 X0.828 Y8.878
G01 X1.103 Y8.667
G03 X1.219 Y8.675 I0.0257 J0.4573
G01 X1.823 Y8.796
G01 X1.881 Y8.809
G01 X1.924 Y8.824
G01 X2.494 Y9.056
G01 X2.533 Y9.072
G01 X2.573 Y9.093
G01 X2.888 Y9.279
G01 X2.926 Y9.304
G01 X3.220 Y9.522
G01 X3.255 Y9.552
G01 X3.523 Y9.800
G01 X3.555 Y9.833
G01 X3.796 Y10.108
G01 X3.824 Y10.144
G01 X4.033 Y10.444
G01 X4.057 Y10.483
G01 X4.234 Y10.803
G01 X4.254 Y10.845
G01 X4.395 Y11.182
G01 X4.410 Y11.225
G01 X4.515 Y11.575
G01 X4.525 Y11.620
G01 X4.592 Y11.980
G01 X4.597 Y12.025
G01 X4.625 Y12.390
G01 X4.626 Y12.435
G01 X4.624 Y12.501
G00 Z20.000
G00 X14.527 Y12.404
G00 Z-0.300
G01 Z-1.200 F120
G01 X14.530 Y12.798 F400
G01 X14.522 Y13.275
G01 X14.506 Y13.259
G02 X14.539 Y11.958 I-1.5701 J-0.6907
G01 X14.522
G01 X14.527 Y12.404
G01 X14.108 Y12.407
G03 X13.929 Y14.684 I-13.6244 J0.0759
G02 X13.979 Y10.533 I-1.3732 J-2.0919
G03 X14.108 Y12.407 I-13.2557 J1.8563
G01 X13.682 Y12.414
G01 X13.685 Y12.590
G03 X13.369 Y15.433 I-15.1033 J-0.2397
G02 X13.419 Y9.776 I-0.8537 J-2.8364
G03 X13.682 Y12.414 I-13.0804 J2.6388
G01 X13.262 Y12.420
G01 X13.265 Y12.587
G03 X12.809 Y15.976 I-14.1282 J-0.1728
G02 X12.859 Y9.224 I-0.3039 J-3.3788
G03 X13.262 Y12.420 I-12.6380 J3.2198
G01 X12.839 Y12.428
G01 X12.842 Y12.592
G03 X12.241 Y16.388 I-12.8172 J-0.0833
G02 X13.759 Y8.992 I0.2779 J-3.7970
G02 X12.291 Y8.787 I-1.2506 J3.6058
G03 X12.839 Y12.428 I-12.0308 J3.6747
G01 X12.420 Y12.435
G01 X12.422 Y12.575
G03 X11.681 Y16.709 I-12.2431 J-0.0609
G02 X15.701 Y15.386 I0.9118 J-3.9977
G02 X11.722 Y8.433 I-3.1858 J-2.7918
G03 X12.420 Y12.435 I-11.4631 J4.0600
G01 X12.002 Y12.443
G01 X12.005 Y12.562
G03 X11.121 Y16.973 I-11.6691 J-0.0435
G02 X16.287 Y15.344 I1.5088 J-4.2190
G02 X11.154 Y8.145 I-3.7610 J-2.7475
G03 X12.002 Y12.443 I-10.7555 J4.3550
G01 X11.580 Y12.453
G01 X11.582 Y12.554
G03 X10.553 Y17.195 I-11.1550 J-0.0396
G02 X16.763 Y15.409 I2.0795 J-4.4581
G02 X10.586 Y7.906 I-4.2266 J-2.8145
G03 X11.580 Y12.453 I-10.1087 J4.5921
G01 X11.160 Y12.464
G01 X11.162 Y12.559
G03 X9.985 Y17.409 I-10.7288 J-0.0364
G02 X17.958 Y13.534 I2.6031 J-4.7838
G02 X10.018 Y7.700 I-5.4185 J-0.9455
G03 X11.160 Y12.464 I-9.5412 J4.8064
G01 X10.740 Y12.474
G01 X10.742 Y12.554
G03 X9.417 Y17.566 I-10.2312 J-0.0252
G02 X18.429 Y11.903 I3.1670 J-4.9628
G02 X9.441 Y7.536 I-5.8850 J0.6789
G03 X10.740 Y12.474 I-8.8969 J4.9808
G01 X10.321 Y12.485
G01 X10.322 Y12.549
G03 X8.848 Y17.689 I-9.7545 J-0.0156
G02 X18.881 Y12.262 I3.7367 J-5.0790
G02 X8.865 Y7.404 I-6.3419 J0.3208
G03 X10.321 Y12.485 I-8.2719 J5.1193
G01 X9.903 Y12.496
G01 X9.905 Y12.550
G03 X8.272 Y17.780 I-9.2604 J-0.0219
G02 X19.059 Y10.734 I4.3096 J-5.1826
G02 X8.313 Y7.280 I-6.5223 J1.8482
G01 X8.297 Y7.313
G03 X9.903 Y12.496 I-7.6326 J5.2066
G01 X9.484 Y12.508
G01 X9.485 Y12.544
G03 X7.695 Y17.838 I-8.8061 J-0.0274
G02 X19.314 Y10.139 I4.8826 J-5.2477
G02 X7.728 Y7.239 I-6.7623 J2.4230
G03 X9.484 Y12.508 I-7.0376 J5.2715
G01 X9.065 Y12.522
G03 X7.127 Y17.862 I-8.3677 J-0.0144
G02 X19.875 Y10.482 I5.4586 J-5.2706
G02 X7.152 Y7.181 I-7.3313 J2.0879
G03 X9.065 Y12.522 I-6.4542 J5.3247
G01 X8.644 Y12.531
G03 X6.551 Y17.862 I-7.8833 J-0.0182
G02 X19.881 Y9.267 I6.0310 J-5.2808
G02 X6.575 Y7.190 I-7.3280 J3.2870
G03 X8.644 Y12.531 I-5.8150 J5.3228
G01 X8.219 Y12.519
G03 X5.974 Y17.829 I-7.4449 J-0.0173
G02 X20.758 Y10.507 I6.6124 J-5.2347
G02 X5.999 Y7.198 I-8.2107 J2.0529
G03 X8.219 Y12.519 I-5.2248 J5.3036
G01 X7.794 Y12.508
G03 X5.398 Y17.763 I-6.9518 J0.0035
G02 X21.426 Y12.068 I7.1931 J-5.1588
G02 X5.431 Y7.239 I-8.8751 J0.4918
G03 X7.794 Y12.508 I-4.6333 J5.2432
G01 X7.374 Y12.493
G03 X4.854 Y17.673 I-6.5912 J-0.0032
G01 X4.838 Y17.714
G02 X20.106 Y7.109 I7.7448 J-5.1430
G02 X4.854 Y7.305 I-7.5570 J5.4472
G03 X7.374 Y12.489 I-4.0718 J5.1839
G01 X6.953 Y12.502
G03 X4.261 Y17.591 I-6.1758 J-0.0100
G02 X20.993 Y7.699 I8.3235 J-5.0167
G02 X4.278 Y7.404 I-8.4458 J4.8575
G03 X6.953 Y12.502 I-3.5008 J5.0877
G01 X6.537 Y12.508
G03 X3.685 Y17.459 I-5.7468 J-0.0143
G02 X21.393 Y7.547 I8.8898 J-4.8923
G02 X3.743 Y7.453 I-8.8523 J5.0104
G01 X3.710 Y7.544
G03 X6.537 Y12.508 I-2.9191 J4.9502
G01 X6.116 Y12.498
G03 X3.109 Y17.286 I-5.3290 J-0.0092
G02 X21.927 Y7.624 I9.4644 J-4.7236
G02 X3.125 Y7.700 I-9.3814 J4.9264
G03 X6.116 Y12.498 I-2.3380 J4.7888
G01 X5.693 Y12.515
G03 X2.532 Y17.072 I-4.8876 J-0.0156
G02 X22.602 Y8.037 I10.0369 J-4.5127
G02 X2.557 Y7.898 I-10.0541 J4.5130
G01 X2.565 Y7.939
G03 X5.693 Y12.515 I-1.7596 J4.5598
G01 X5.271 Y12.517
G03 X1.947 Y16.816 I-4.4701 J-0.0213
G02 X22.942 Y7.762 I10.6096 J-4.2666
G02 X1.997 Y8.120 I-10.3938 J4.7820
G01 X1.989 Y8.186
G03 X5.271 Y12.517 I-1.1875 J4.3096
G01 X4.847 Y12.508
G03 X1.371 Y16.512 I-4.0584 J-0.0125
G02 X23.566 Y8.148 I11.1783 J-3.9678
G02 X1.396 Y8.483 I-11.0214 J4.3936
G03 X4.847 Y12.508 I-0.6073 J4.0127
G00 Z20.000
G00 X4.846 Y12.492
G00 Z-0.700
G01 Z-1.200 F120
G01 X4.624 Y12.501 F400
G01 X4.615 Y12.801
G01 X4.611 Y12.846
G01 X4.560 Y13.209
G01 X4.552 Y13.253
G01 X4.463 Y13.608
G01 X4.449 Y13.652
G01 X4.323 Y13.995
G01 X4.305 Y14.037
G01 X4.143 Y14.365
G01 X4.121 Y14.405
G01 X3.925 Y14.714
G01 X3.898 Y14.751
G01 X3.670 Y15.037
G01 X3.640 Y15.071
G01 X3.383 Y15.331
G01 X3.349 Y15.362
G01 X3.066 Y15.593
G01 X3.029 Y15.620
G01 X2.722 Y15.820
G01 X2.682 Y15.842
G01 X2.357 Y16.008
G01 X2.315 Y16.027
G01 X1.973 Y16.157
G01 X1.929 Y16.170
G01 X1.576 Y16.263
G01 X1.531 Y16.272
G01 X1.153 Y16.329
G01 X1.085 Y16.332
G01 X0.857 Y16.157
G01 X1.085 Y16.332
G02 X3.579 Y20.648 I11.1026 J-3.5356
G02 X21.253 Y4.166 I8.9630 J-8.1059
G02 X1.103 Y8.667 I-8.7087 J8.3667
G01 X0.828 Y8.878
G01 X1.103 Y8.667
G03 X1.219 Y8.675 I0.0257 J0.4573
G01 X1.823 Y8.796
G01 X1.881 Y8.809
G01 X1.924 Y8.824
G01 X2.494 Y9.056
G01 X2.533 Y9.072
G01 X2.573 Y9.093
G01 X2.888 Y9.279
G01 X2.926 Y9.304
G01 X3.220 Y9.522
G01 X3.255 Y9.552
G01 X3.523 Y9.800
G01 X3.555 Y9.833
G01 X3.796 Y10.108
G01 X3.824 Y10.144
G01 X4.033 Y10.444
G01 X4.057 Y10.483
G01 X4.234 Y10.803
G01 X4.254 Y10.845
G01 X4.395 Y11.182
G01 X4.410 Y11.225
G01 X4.515 Y11.575
G01 X4.525 Y11.620
G01 X4.592 Y11.980
G01 X4.597 Y12.025
G01 X4.625 Y12.390
G01 X4.626 Y12.435
G01 X4.624 Y12.501
G00 Z20.000


(No. 3 Drill: Drill 7)
G00 X18.360 Y22.652 Z20.000
G00 Z0.500
G01 Z-0.400 F120
G00 Z0.500
G00 Z0.100
G01 Z-0.800
G00 Z0.500
G00 Z-0.300
G01 Z-1.200
G00 Z0.500
G00 Z-0.700
G01 Z-1.600
G00 Z0.500
G00 Z-1.100
G01 Z-2.000
G00 Z0.500
G00 Z-1.500
G01 Z-2.400
G00 Z0.500
G00 Z-1.900
G01 Z-2.800
G00 Z0.500
G00 Z-2.300
G01 Z-3.200
G00 Z0.500
G00 Z-2.700
G01 Z-3.500
G00 Z20.000


(No. 4 Drill: Drill 1)
G00 X14.341 Y23.983 Z20.000
G00 Z0.500
G01 Z-0.400 F120
G00 Z0.500
G00 Z0.100
G01 Z-0.800
G00 Z0.500
G00 Z-0.300
G01 Z-1.200
G00 Z0.500
G00 Z-0.700
G01 Z-1.600
G00 Z0.500
G00 Z-1.100
G01 Z-2.000
G00 Z0.500
G00 Z-1.500
G01 Z-2.400
G00 Z0.500
G00 Z-1.900
G01 Z-2.800
G00 Z0.500
G00 Z-2.300
G01 Z-3.200
G00 Z0.500
G00 Z-2.700
G01 Z-3.500
G00 Z20.000


(No. 5 Drill: Drill 6)
G00 X5.001 Y14.033 Z20.000
G00 Z0.500
G01 Z-0.400 F120
G00 Z0.500
G00 Z0.100
G01 Z-0.800
G00 Z0.500
G00 Z-0.300
G01 Z-1.200
G00 Z0.500
G00 Z-0.700
G01 Z-1.600
G00 Z0.500
G00 Z-1.100
G01 Z-2.000
G00 Z0.500
G00 Z-1.500
G01 Z-2.400
G00 Z0.500
G00 Z-1.900
G01 Z-2.800
G00 Z0.500
G00 Z-2.300
G01 Z-3.200
G00 Z0.500
G00 Z-2.700
G01 Z-3.500
G00 Z20.000


(No. 6 Drill: Drill 3)
G00 X3.256 Y6.717 Z20.000
G00 Z0.500
G01 Z-0.400 F120
G00 Z0.500
G00 Z0.100
G01 Z-0.800
G00 Z0.500
G00 Z-0.300
G01 Z-1.200
G00 Z0.500
G00 Z-0.700
G01 Z-1.600
G00 Z0.500
G00 Z-1.100
G01 Z-2.000
G00 Z0.500
G00 Z-1.500
G01 Z-2.400
G00 Z0.500
G00 Z-1.900
G01 Z-2.800
G00 Z0.500
G00 Z-2.300
G01 Z-3.200
G00 Z0.500
G00 Z-2.700
G01 Z-3.500
G00 Z20.000
G00 X0.000 Y0.000

M05
M30
