(Project nrf51822-v8)
(Created by Estlcam version 11 build 11.118)
(Machining time about 00:14:44 hours)

(Required tools:)
(End 1.000mm)
G21
G90
G94
M03 S24000.0
G00 Z20.000


(No. 1 Helical drill: Helical drill 1)
G00 X4.495 Y31.000
G00 Z0.500
G02 X3.752 Y30.571 Z0.367 I-0.4950 J0.0000 F120 S24000.0
G02 Y31.429 Z0.233 I0.2475 J0.4287
G02 X4.495 Y31.000 Z0.100 I0.2475 J-0.4287
G02 X3.752 Y30.571 Z0.067 I-0.4950 J0.0000
G02 Y31.429 Z0.033 I0.2475 J0.4287
G02 X4.495 Y31.000 Z0.000 I0.2475 J-0.4287
G02 X3.752 Y30.571 I-0.4950 J0.0000
G02 Y31.429 I0.2475 J0.4287
G02 X4.495 Y31.000 I0.2475 J-0.4287
G02 X3.752 Y30.571 Z-0.133 I-0.4950 J0.0000
G02 Y31.429 Z-0.267 I0.2475 J0.4287
G02 X4.495 Y31.000 Z-0.400 I0.2475 J-0.4287
G02 X3.752 Y30.571 I-0.4950 J0.0000
G02 Y31.429 I0.2475 J0.4287
G02 X4.495 Y31.000 I0.2475 J-0.4287
G02 Y30.795 I-0.4954 J-0.1036 F400
G02 X4.408 Y30.592 I-0.5368 J0.1099
G02 X4.237 Y30.428 I-0.4840 J0.3368
G02 X4.000 Y30.340 I-0.3347 J0.5354
G02 X3.732 Y30.352 I-0.1044 J0.6649
G02 X3.475 Y30.475 I0.1740 J0.6932
G02 X3.276 Y30.700 I0.4557 J0.6036
G02 X3.175 Y31.000 I0.6907 J0.3993
G02 X3.200 Y31.331 I0.8329 J0.1046
G02 X3.358 Y31.642 I0.8482 J-0.2380
G02 X3.637 Y31.877 I0.7221 J-0.5740
G02 X4.000 Y31.990 I0.4634 J-0.8452
G02 X4.395 Y31.953 I0.1047 J-0.9999
G02 X4.758 Y31.758 I-0.3019 J-1.0023
G02 X4.993 Y31.411 I-0.7548 J-0.7637
G02 X5.075 Y31.000 I-0.9932 J-0.4114
G02 X3.462 Y30.069 I-1.0750 J0.0000
G02 Y31.931 I0.5375 J0.9310
G02 X5.075 Y31.000 I0.5375 J-0.9310
G02 X3.505 I-0.7850 J0.0000
G02 X4.495 I0.4950 J0.0000
G02 X3.752 Y30.571 Z-0.533 I-0.4950 J0.0000 F120
G02 Y31.429 Z-0.667 I0.2475 J0.4287
G02 X4.495 Y31.000 Z-0.800 I0.2475 J-0.4287
G02 X3.752 Y30.571 I-0.4950 J0.0000
G02 Y31.429 I0.2475 J0.4287
G02 X4.495 Y31.000 I0.2475 J-0.4287
G02 Y30.795 I-0.4954 J-0.1036 F400
G02 X4.408 Y30.592 I-0.5368 J0.1099
G02 X4.237 Y30.428 I-0.4840 J0.3368
G02 X4.000 Y30.340 I-0.3347 J0.5354
G02 X3.732 Y30.352 I-0.1044 J0.6649
G02 X3.475 Y30.475 I0.1740 J0.6932
G02 X3.276 Y30.700 I0.4557 J0.6036
G02 X3.175 Y31.000 I0.6907 J0.3993
G02 X3.200 Y31.331 I0.8329 J0.1046
G02 X3.358 Y31.642 I0.8482 J-0.2380
G02 X3.637 Y31.877 I0.7221 J-0.5740
G02 X4.000 Y31.990 I0.4634 J-0.8452
G02 X4.395 Y31.953 I0.1047 J-0.9999
G02 X4.758 Y31.758 I-0.3019 J-1.0023
G02 X4.993 Y31.411 I-0.7548 J-0.7637
G02 X5.075 Y31.000 I-0.9932 J-0.4114
G02 X3.462 Y30.069 I-1.0750 J0.0000
G02 Y31.931 I0.5375 J0.9310
G02 X5.075 Y31.000 I0.5375 J-0.9310
G02 X3.505 I-0.7850 J0.0000
G02 X4.495 I0.4950 J0.0000
G02 X3.752 Y30.571 Z-0.933 I-0.4950 J0.0000 F120
G02 Y31.429 Z-1.067 I0.2475 J0.4287
G02 X4.495 Y31.000 Z-1.200 I0.2475 J-0.4287
G02 X3.752 Y30.571 I-0.4950 J0.0000
G02 Y31.429 I0.2475 J0.4287
G02 X4.495 Y31.000 I0.2475 J-0.4287
G02 Y30.795 I-0.4954 J-0.1036 F400
G02 X4.408 Y30.592 I-0.5368 J0.1099
G02 X4.237 Y30.428 I-0.4840 J0.3368
G02 X4.000 Y30.340 I-0.3347 J0.5354
G02 X3.732 Y30.352 I-0.1044 J0.6649
G02 X3.475 Y30.475 I0.1740 J0.6932
G02 X3.276 Y30.700 I0.4557 J0.6036
G02 X3.175 Y31.000 I0.6907 J0.3993
G02 X3.200 Y31.331 I0.8329 J0.1046
G02 X3.358 Y31.642 I0.8482 J-0.2380
G02 X3.637 Y31.877 I0.7221 J-0.5740
G02 X4.000 Y31.990 I0.4634 J-0.8452
G02 X4.395 Y31.953 I0.1047 J-0.9999
G02 X4.758 Y31.758 I-0.3019 J-1.0023
G02 X4.993 Y31.411 I-0.7548 J-0.7637
G02 X5.075 Y31.000 I-0.9932 J-0.4114
G02 X3.462 Y30.069 I-1.0750 J0.0000
G02 Y31.931 I0.5375 J0.9310
G02 X5.075 Y31.000 I0.5375 J-0.9310
G02 X3.505 I-0.7850 J0.0000
G02 X4.495 I0.4950 J0.0000
G02 X3.752 Y30.571 Z-1.333 I-0.4950 J0.0000 F120
G02 Y31.429 Z-1.467 I0.2475 J0.4287
G02 X4.495 Y31.000 Z-1.600 I0.2475 J-0.4287
G02 X3.752 Y30.571 I-0.4950 J0.0000
G02 Y31.429 I0.2475 J0.4287
G02 X4.495 Y31.000 I0.2475 J-0.4287
G02 Y30.795 I-0.4954 J-0.1036 F400
G02 X4.408 Y30.592 I-0.5368 J0.1099
G02 X4.237 Y30.428 I-0.4840 J0.3368
G02 X4.000 Y30.340 I-0.3347 J0.5354
G02 X3.732 Y30.352 I-0.1044 J0.6649
G02 X3.475 Y30.475 I0.1740 J0.6932
G02 X3.276 Y30.700 I0.4557 J0.6036
G02 X3.175 Y31.000 I0.6907 J0.3993
G02 X3.200 Y31.331 I0.8329 J0.1046
G02 X3.358 Y31.642 I0.8482 J-0.2380
G02 X3.637 Y31.877 I0.7221 J-0.5740
G02 X4.000 Y31.990 I0.4634 J-0.8452
G02 X4.395 Y31.953 I0.1047 J-0.9999
G02 X4.758 Y31.758 I-0.3019 J-1.0023
G02 X4.993 Y31.411 I-0.7548 J-0.7637
G02 X5.075 Y31.000 I-0.9932 J-0.4114
G02 X3.462 Y30.069 I-1.0750 J0.0000
G02 Y31.931 I0.5375 J0.9310
G02 X5.075 Y31.000 I0.5375 J-0.9310
G02 X3.505 I-0.7850 J0.0000
G02 X4.495 I0.4950 J0.0000
G02 X3.752 Y30.571 Z-1.733 I-0.4950 J0.0000 F120
G02 Y31.429 Z-1.867 I0.2475 J0.4287
G02 X4.495 Y31.000 Z-2.000 I0.2475 J-0.4287
G02 X3.752 Y30.571 I-0.4950 J0.0000
G02 Y31.429 I0.2475 J0.4287
G02 X4.495 Y31.000 I0.2475 J-0.4287
G02 Y30.795 I-0.4954 J-0.1036 F400
G02 X4.408 Y30.592 I-0.5368 J0.1099
G02 X4.237 Y30.428 I-0.4840 J0.3368
G02 X4.000 Y30.340 I-0.3347 J0.5354
G02 X3.732 Y30.352 I-0.1044 J0.6649
G02 X3.475 Y30.475 I0.1740 J0.6932
G02 X3.276 Y30.700 I0.4557 J0.6036
G02 X3.175 Y31.000 I0.6907 J0.3993
G02 X3.200 Y31.331 I0.8329 J0.1046
G02 X3.358 Y31.642 I0.8482 J-0.2380
G02 X3.637 Y31.877 I0.7221 J-0.5740
G02 X4.000 Y31.990 I0.4634 J-0.8452
G02 X4.395 Y31.953 I0.1047 J-0.9999
G02 X4.758 Y31.758 I-0.3019 J-1.0023
G02 X4.993 Y31.411 I-0.7548 J-0.7637
G02 X5.075 Y31.000 I-0.9932 J-0.4114
G02 X3.462 Y30.069 I-1.0750 J0.0000
G02 Y31.931 I0.5375 J0.9310
G02 X5.075 Y31.000 I0.5375 J-0.9310
G02 X3.505 I-0.7850 J0.0000
G02 X4.495 I0.4950 J0.0000
G02 X3.752 Y30.571 Z-2.133 I-0.4950 J0.0000 F120
G02 Y31.429 Z-2.267 I0.2475 J0.4287
G02 X4.495 Y31.000 Z-2.400 I0.2475 J-0.4287
G02 X3.752 Y30.571 I-0.4950 J0.0000
G02 Y31.429 I0.2475 J0.4287
G02 X4.495 Y31.000 I0.2475 J-0.4287
G02 Y30.795 I-0.4954 J-0.1036 F400
G02 X4.408 Y30.592 I-0.5368 J0.1099
G02 X4.237 Y30.428 I-0.4840 J0.3368
G02 X4.000 Y30.340 I-0.3347 J0.5354
G02 X3.732 Y30.352 I-0.1044 J0.6649
G02 X3.475 Y30.475 I0.1740 J0.6932
G02 X3.276 Y30.700 I0.4557 J0.6036
G02 X3.175 Y31.000 I0.6907 J0.3993
G02 X3.200 Y31.331 I0.8329 J0.1046
G02 X3.358 Y31.642 I0.8482 J-0.2380
G02 X3.637 Y31.877 I0.7221 J-0.5740
G02 X4.000 Y31.990 I0.4634 J-0.8452
G02 X4.395 Y31.953 I0.1047 J-0.9999
G02 X4.758 Y31.758 I-0.3019 J-1.0023
G02 X4.993 Y31.411 I-0.7548 J-0.7637
G02 X5.075 Y31.000 I-0.9932 J-0.4114
G02 X3.462 Y30.069 I-1.0750 J0.0000
G02 Y31.931 I0.5375 J0.9310
G02 X5.075 Y31.000 I0.5375 J-0.9310
G02 X3.505 I-0.7850 J0.0000
G02 X4.495 I0.4950 J0.0000
G02 X3.752 Y30.571 Z-2.533 I-0.4950 J0.0000 F120
G02 Y31.429 Z-2.667 I0.2475 J0.4287
G02 X4.495 Y31.000 Z-2.800 I0.2475 J-0.4287
G02 X3.752 Y30.571 I-0.4950 J0.0000
G02 Y31.429 I0.2475 J0.4287
G02 X4.495 Y31.000 I0.2475 J-0.4287
G02 Y30.795 I-0.4954 J-0.1036 F400
G02 X4.408 Y30.592 I-0.5368 J0.1099
G02 X4.237 Y30.428 I-0.4840 J0.3368
G02 X4.000 Y30.340 I-0.3347 J0.5354
G02 X3.732 Y30.352 I-0.1044 J0.6649
G02 X3.475 Y30.475 I0.1740 J0.6932
G02 X3.276 Y30.700 I0.4557 J0.6036
G02 X3.175 Y31.000 I0.6907 J0.3993
G02 X3.200 Y31.331 I0.8329 J0.1046
G02 X3.358 Y31.642 I0.8482 J-0.2380
G02 X3.637 Y31.877 I0.7221 J-0.5740
G02 X4.000 Y31.990 I0.4634 J-0.8452
G02 X4.395 Y31.953 I0.1047 J-0.9999
G02 X4.758 Y31.758 I-0.3019 J-1.0023
G02 X4.993 Y31.411 I-0.7548 J-0.7637
G02 X5.075 Y31.000 I-0.9932 J-0.4114
G02 X3.462 Y30.069 I-1.0750 J0.0000
G02 Y31.931 I0.5375 J0.9310
G02 X5.075 Y31.000 I0.5375 J-0.9310
G02 X3.505 I-0.7850 J0.0000
G02 X4.495 I0.4950 J0.0000
G02 X3.752 Y30.571 Z-2.933 I-0.4950 J0.0000 F120
G02 Y31.429 Z-3.067 I0.2475 J0.4287
G02 X4.495 Y31.000 Z-3.200 I0.2475 J-0.4287
G02 X3.752 Y30.571 I-0.4950 J0.0000
G02 Y31.429 I0.2475 J0.4287
G02 X4.495 Y31.000 I0.2475 J-0.4287
G02 Y30.795 I-0.4954 J-0.1036 F400
G02 X4.408 Y30.592 I-0.5368 J0.1099
G02 X4.237 Y30.428 I-0.4840 J0.3368
G02 X4.000 Y30.340 I-0.3347 J0.5354
G02 X3.732 Y30.352 I-0.1044 J0.6649
G02 X3.475 Y30.475 I0.1740 J0.6932
G02 X3.276 Y30.700 I0.4557 J0.6036
G02 X3.175 Y31.000 I0.6907 J0.3993
G02 X3.200 Y31.331 I0.8329 J0.1046
G02 X3.358 Y31.642 I0.8482 J-0.2380
G02 X3.637 Y31.877 I0.7221 J-0.5740
G02 X4.000 Y31.990 I0.4634 J-0.8452
G02 X4.395 Y31.953 I0.1047 J-0.9999
G02 X4.758 Y31.758 I-0.3019 J-1.0023
G02 X4.993 Y31.411 I-0.7548 J-0.7637
G02 X5.075 Y31.000 I-0.9932 J-0.4114
G02 X3.462 Y30.069 I-1.0750 J0.0000
G02 Y31.931 I0.5375 J0.9310
G02 X5.075 Y31.000 I0.5375 J-0.9310
G02 X3.505 I-0.7850 J0.0000
G02 X4.495 I0.4950 J0.0000
G02 X3.752 Y30.571 Z-3.300 I-0.4950 J0.0000 F120
G02 Y31.429 Z-3.400 I0.2475 J0.4287
G02 X4.495 Y31.000 Z-3.500 I0.2475 J-0.4287
G02 X3.752 Y30.571 I-0.4950 J0.0000
G02 Y31.429 I0.2475 J0.4287
G02 X4.495 Y31.000 I0.2475 J-0.4287
G02 Y30.795 I-0.4954 J-0.1036 F400
G02 X4.408 Y30.592 I-0.5368 J0.1099
G02 X4.237 Y30.428 I-0.4840 J0.3368
G02 X4.000 Y30.340 I-0.3347 J0.5354
G02 X3.732 Y30.352 I-0.1044 J0.6649
G02 X3.475 Y30.475 I0.1740 J0.6932
G02 X3.276 Y30.700 I0.4557 J0.6036
G02 X3.175 Y31.000 I0.6907 J0.3993
G02 X3.200 Y31.331 I0.8329 J0.1046
G02 X3.358 Y31.642 I0.8482 J-0.2380
G02 X3.637 Y31.877 I0.7221 J-0.5740
G02 X4.000 Y31.990 I0.4634 J-0.8452
G02 X4.395 Y31.953 I0.1047 J-0.9999
G02 X4.758 Y31.758 I-0.3019 J-1.0023
G02 X4.993 Y31.411 I-0.7548 J-0.7637
G02 X5.075 Y31.000 I-0.9932 J-0.4114
G02 X3.462 Y30.069 I-1.0750 J0.0000
G02 Y31.931 I0.5375 J0.9310
G02 X5.075 Y31.000 I0.5375 J-0.9310
G02 X4.525 Y30.450 Z-3.000 I-0.5500 J0.0000 F120
G00 Z20.000


(No. 2 Helical drill: Helical drill 2)
G00 X33.995 Y31.000 Z20.000
G00 Z0.500
G02 X33.252 Y30.571 Z0.367 I-0.4950 J0.0000 F120
G02 Y31.429 Z0.233 I0.2475 J0.4287
G02 X33.995 Y31.000 Z0.100 I0.2475 J-0.4287
G02 X33.252 Y30.571 Z0.067 I-0.4950 J0.0000
G02 Y31.429 Z0.033 I0.2475 J0.4287
G02 X33.995 Y31.000 Z0.000 I0.2475 J-0.4287
G02 X33.252 Y30.571 I-0.4950 J0.0000
G02 Y31.429 I0.2475 J0.4287
G02 X33.995 Y31.000 I0.2475 J-0.4287
G02 X33.252 Y30.571 Z-0.133 I-0.4950 J0.0000
G02 Y31.429 Z-0.267 I0.2475 J0.4287
G02 X33.995 Y31.000 Z-0.400 I0.2475 J-0.4287
G02 X33.252 Y30.571 I-0.4950 J0.0000
G02 Y31.429 I0.2475 J0.4287
G02 X33.995 Y31.000 I0.2475 J-0.4287
G02 Y30.795 I-0.4954 J-0.1036 F400
G02 X33.908 Y30.592 I-0.5368 J0.1099
G02 X33.737 Y30.428 I-0.4840 J0.3368
G02 X33.500 Y30.340 I-0.3347 J0.5354
G02 X33.232 Y30.352 I-0.1044 J0.6649
G02 X32.975 Y30.475 I0.1740 J0.6932
G02 X32.776 Y30.700 I0.4557 J0.6036
G02 X32.675 Y31.000 I0.6907 J0.3993
G02 X32.700 Y31.331 I0.8329 J0.1046
G02 X32.858 Y31.642 I0.8482 J-0.2380
G02 X33.137 Y31.877 I0.7221 J-0.5740
G02 X33.500 Y31.990 I0.4634 J-0.8452
G02 X33.895 Y31.953 I0.1047 J-0.9999
G02 X34.258 Y31.758 I-0.3019 J-1.0023
G02 X34.493 Y31.411 I-0.7548 J-0.7637
G02 X34.575 Y31.000 I-0.9932 J-0.4114
G02 X32.963 Y30.069 I-1.0750 J0.0000
G02 Y31.931 I0.5375 J0.9310
G02 X34.575 Y31.000 I0.5375 J-0.9310
G02 X33.005 I-0.7850 J0.0000
G02 X33.995 I0.4950 J0.0000
G02 X33.252 Y30.571 Z-0.533 I-0.4950 J0.0000 F120
G02 Y31.429 Z-0.667 I0.2475 J0.4287
G02 X33.995 Y31.000 Z-0.800 I0.2475 J-0.4287
G02 X33.252 Y30.571 I-0.4950 J0.0000
G02 Y31.429 I0.2475 J0.4287
G02 X33.995 Y31.000 I0.2475 J-0.4287
G02 Y30.795 I-0.4954 J-0.1036 F400
G02 X33.908 Y30.592 I-0.5368 J0.1099
G02 X33.737 Y30.428 I-0.4840 J0.3368
G02 X33.500 Y30.340 I-0.3347 J0.5354
G02 X33.232 Y30.352 I-0.1044 J0.6649
G02 X32.975 Y30.475 I0.1740 J0.6932
G02 X32.776 Y30.700 I0.4557 J0.6036
G02 X32.675 Y31.000 I0.6907 J0.3993
G02 X32.700 Y31.331 I0.8329 J0.1046
G02 X32.858 Y31.642 I0.8482 J-0.2380
G02 X33.137 Y31.877 I0.7221 J-0.5740
G02 X33.500 Y31.990 I0.4634 J-0.8452
G02 X33.895 Y31.953 I0.1047 J-0.9999
G02 X34.258 Y31.758 I-0.3019 J-1.0023
G02 X34.493 Y31.411 I-0.7548 J-0.7637
G02 X34.575 Y31.000 I-0.9932 J-0.4114
G02 X32.963 Y30.069 I-1.0750 J0.0000
G02 Y31.931 I0.5375 J0.9310
G02 X34.575 Y31.000 I0.5375 J-0.9310
G02 X33.005 I-0.7850 J0.0000
G02 X33.995 I0.4950 J0.0000
G02 X33.252 Y30.571 Z-0.933 I-0.4950 J0.0000 F120
G02 Y31.429 Z-1.067 I0.2475 J0.4287
G02 X33.995 Y31.000 Z-1.200 I0.2475 J-0.4287
G02 X33.252 Y30.571 I-0.4950 J0.0000
G02 Y31.429 I0.2475 J0.4287
G02 X33.995 Y31.000 I0.2475 J-0.4287
G02 Y30.795 I-0.4954 J-0.1036 F400
G02 X33.908 Y30.592 I-0.5368 J0.1099
G02 X33.737 Y30.428 I-0.4840 J0.3368
G02 X33.500 Y30.340 I-0.3347 J0.5354
G02 X33.232 Y30.352 I-0.1044 J0.6649
G02 X32.975 Y30.475 I0.1740 J0.6932
G02 X32.776 Y30.700 I0.4557 J0.6036
G02 X32.675 Y31.000 I0.6907 J0.3993
G02 X32.700 Y31.331 I0.8329 J0.1046
G02 X32.858 Y31.642 I0.8482 J-0.2380
G02 X33.137 Y31.877 I0.7221 J-0.5740
G02 X33.500 Y31.990 I0.4634 J-0.8452
G02 X33.895 Y31.953 I0.1047 J-0.9999
G02 X34.258 Y31.758 I-0.3019 J-1.0023
G02 X34.493 Y31.411 I-0.7548 J-0.7637
G02 X34.575 Y31.000 I-0.9932 J-0.4114
G02 X32.963 Y30.069 I-1.0750 J0.0000
G02 Y31.931 I0.5375 J0.9310
G02 X34.575 Y31.000 I0.5375 J-0.9310
G02 X33.005 I-0.7850 J0.0000
G02 X33.995 I0.4950 J0.0000
G02 X33.252 Y30.571 Z-1.333 I-0.4950 J0.0000 F120
G02 Y31.429 Z-1.467 I0.2475 J0.4287
G02 X33.995 Y31.000 Z-1.600 I0.2475 J-0.4287
G02 X33.252 Y30.571 I-0.4950 J0.0000
G02 Y31.429 I0.2475 J0.4287
G02 X33.995 Y31.000 I0.2475 J-0.4287
G02 Y30.795 I-0.4954 J-0.1036 F400
G02 X33.908 Y30.592 I-0.5368 J0.1099
G02 X33.737 Y30.428 I-0.4840 J0.3368
G02 X33.500 Y30.340 I-0.3347 J0.5354
G02 X33.232 Y30.352 I-0.1044 J0.6649
G02 X32.975 Y30.475 I0.1740 J0.6932
G02 X32.776 Y30.700 I0.4557 J0.6036
G02 X32.675 Y31.000 I0.6907 J0.3993
G02 X32.700 Y31.331 I0.8329 J0.1046
G02 X32.858 Y31.642 I0.8482 J-0.2380
G02 X33.137 Y31.877 I0.7221 J-0.5740
G02 X33.500 Y31.990 I0.4634 J-0.8452
G02 X33.895 Y31.953 I0.1047 J-0.9999
G02 X34.258 Y31.758 I-0.3019 J-1.0023
G02 X34.493 Y31.411 I-0.7548 J-0.7637
G02 X34.575 Y31.000 I-0.9932 J-0.4114
G02 X32.963 Y30.069 I-1.0750 J0.0000
G02 Y31.931 I0.5375 J0.9310
G02 X34.575 Y31.000 I0.5375 J-0.9310
G02 X33.005 I-0.7850 J0.0000
G02 X33.995 I0.4950 J0.0000
G02 X33.252 Y30.571 Z-1.733 I-0.4950 J0.0000 F120
G02 Y31.429 Z-1.867 I0.2475 J0.4287
G02 X33.995 Y31.000 Z-2.000 I0.2475 J-0.4287
G02 X33.252 Y30.571 I-0.4950 J0.0000
G02 Y31.429 I0.2475 J0.4287
G02 X33.995 Y31.000 I0.2475 J-0.4287
G02 Y30.795 I-0.4954 J-0.1036 F400
G02 X33.908 Y30.592 I-0.5368 J0.1099
G02 X33.737 Y30.428 I-0.4840 J0.3368
G02 X33.500 Y30.340 I-0.3347 J0.5354
G02 X33.232 Y30.352 I-0.1044 J0.6649
G02 X32.975 Y30.475 I0.1740 J0.6932
G02 X32.776 Y30.700 I0.4557 J0.6036
G02 X32.675 Y31.000 I0.6907 J0.3993
G02 X32.700 Y31.331 I0.8329 J0.1046
G02 X32.858 Y31.642 I0.8482 J-0.2380
G02 X33.137 Y31.877 I0.7221 J-0.5740
G02 X33.500 Y31.990 I0.4634 J-0.8452
G02 X33.895 Y31.953 I0.1047 J-0.9999
G02 X34.258 Y31.758 I-0.3019 J-1.0023
G02 X34.493 Y31.411 I-0.7548 J-0.7637
G02 X34.575 Y31.000 I-0.9932 J-0.4114
G02 X32.963 Y30.069 I-1.0750 J0.0000
G02 Y31.931 I0.5375 J0.9310
G02 X34.575 Y31.000 I0.5375 J-0.9310
G02 X33.005 I-0.7850 J0.0000
G02 X33.995 I0.4950 J0.0000
G02 X33.252 Y30.571 Z-2.133 I-0.4950 J0.0000 F120
G02 Y31.429 Z-2.267 I0.2475 J0.4287
G02 X33.995 Y31.000 Z-2.400 I0.2475 J-0.4287
G02 X33.252 Y30.571 I-0.4950 J0.0000
G02 Y31.429 I0.2475 J0.4287
G02 X33.995 Y31.000 I0.2475 J-0.4287
G02 Y30.795 I-0.4954 J-0.1036 F400
G02 X33.908 Y30.592 I-0.5368 J0.1099
G02 X33.737 Y30.428 I-0.4840 J0.3368
G02 X33.500 Y30.340 I-0.3347 J0.5354
G02 X33.232 Y30.352 I-0.1044 J0.6649
G02 X32.975 Y30.475 I0.1740 J0.6932
G02 X32.776 Y30.700 I0.4557 J0.6036
G02 X32.675 Y31.000 I0.6907 J0.3993
G02 X32.700 Y31.331 I0.8329 J0.1046
G02 X32.858 Y31.642 I0.8482 J-0.2380
G02 X33.137 Y31.877 I0.7221 J-0.5740
G02 X33.500 Y31.990 I0.4634 J-0.8452
G02 X33.895 Y31.953 I0.1047 J-0.9999
G02 X34.258 Y31.758 I-0.3019 J-1.0023
G02 X34.493 Y31.411 I-0.7548 J-0.7637
G02 X34.575 Y31.000 I-0.9932 J-0.4114
G02 X32.963 Y30.069 I-1.0750 J0.0000
G02 Y31.931 I0.5375 J0.9310
G02 X34.575 Y31.000 I0.5375 J-0.9310
G02 X33.005 I-0.7850 J0.0000
G02 X33.995 I0.4950 J0.0000
G02 X33.252 Y30.571 Z-2.533 I-0.4950 J0.0000 F120
G02 Y31.429 Z-2.667 I0.2475 J0.4287
G02 X33.995 Y31.000 Z-2.800 I0.2475 J-0.4287
G02 X33.252 Y30.571 I-0.4950 J0.0000
G02 Y31.429 I0.2475 J0.4287
G02 X33.995 Y31.000 I0.2475 J-0.4287
G02 Y30.795 I-0.4954 J-0.1036 F400
G02 X33.908 Y30.592 I-0.5368 J0.1099
G02 X33.737 Y30.428 I-0.4840 J0.3368
G02 X33.500 Y30.340 I-0.3347 J0.5354
G02 X33.232 Y30.352 I-0.1044 J0.6649
G02 X32.975 Y30.475 I0.1740 J0.6932
G02 X32.776 Y30.700 I0.4557 J0.6036
G02 X32.675 Y31.000 I0.6907 J0.3993
G02 X32.700 Y31.331 I0.8329 J0.1046
G02 X32.858 Y31.642 I0.8482 J-0.2380
G02 X33.137 Y31.877 I0.7221 J-0.5740
G02 X33.500 Y31.990 I0.4634 J-0.8452
G02 X33.895 Y31.953 I0.1047 J-0.9999
G02 X34.258 Y31.758 I-0.3019 J-1.0023
G02 X34.493 Y31.411 I-0.7548 J-0.7637
G02 X34.575 Y31.000 I-0.9932 J-0.4114
G02 X32.963 Y30.069 I-1.0750 J0.0000
G02 Y31.931 I0.5375 J0.9310
G02 X34.575 Y31.000 I0.5375 J-0.9310
G02 X33.005 I-0.7850 J0.0000
G02 X33.995 I0.4950 J0.0000
G02 X33.252 Y30.571 Z-2.933 I-0.4950 J0.0000 F120
G02 Y31.429 Z-3.067 I0.2475 J0.4287
G02 X33.995 Y31.000 Z-3.200 I0.2475 J-0.4287
G02 X33.252 Y30.571 I-0.4950 J0.0000
G02 Y31.429 I0.2475 J0.4287
G02 X33.995 Y31.000 I0.2475 J-0.4287
G02 Y30.795 I-0.4954 J-0.1036 F400
G02 X33.908 Y30.592 I-0.5368 J0.1099
G02 X33.737 Y30.428 I-0.4840 J0.3368
G02 X33.500 Y30.340 I-0.3347 J0.5354
G02 X33.232 Y30.352 I-0.1044 J0.6649
G02 X32.975 Y30.475 I0.1740 J0.6932
G02 X32.776 Y30.700 I0.4557 J0.6036
G02 X32.675 Y31.000 I0.6907 J0.3993
G02 X32.700 Y31.331 I0.8329 J0.1046
G02 X32.858 Y31.642 I0.8482 J-0.2380
G02 X33.137 Y31.877 I0.7221 J-0.5740
G02 X33.500 Y31.990 I0.4634 J-0.8452
G02 X33.895 Y31.953 I0.1047 J-0.9999
G02 X34.258 Y31.758 I-0.3019 J-1.0023
G02 X34.493 Y31.411 I-0.7548 J-0.7637
G02 X34.575 Y31.000 I-0.9932 J-0.4114
G02 X32.963 Y30.069 I-1.0750 J0.0000
G02 Y31.931 I0.5375 J0.9310
G02 X34.575 Y31.000 I0.5375 J-0.9310
G02 X33.005 I-0.7850 J0.0000
G02 X33.995 I0.4950 J0.0000
G02 X33.252 Y30.571 Z-3.300 I-0.4950 J0.0000 F120
G02 Y31.429 Z-3.400 I0.2475 J0.4287
G02 X33.995 Y31.000 Z-3.500 I0.2475 J-0.4287
G02 X33.252 Y30.571 I-0.4950 J0.0000
G02 Y31.429 I0.2475 J0.4287
G02 X33.995 Y31.000 I0.2475 J-0.4287
G02 Y30.795 I-0.4954 J-0.1036 F400
G02 X33.908 Y30.592 I-0.5368 J0.1099
G02 X33.737 Y30.428 I-0.4840 J0.3368
G02 X33.500 Y30.340 I-0.3347 J0.5354
G02 X33.232 Y30.352 I-0.1044 J0.6649
G02 X32.975 Y30.475 I0.1740 J0.6932
G02 X32.776 Y30.700 I0.4557 J0.6036
G02 X32.675 Y31.000 I0.6907 J0.3993
G02 X32.700 Y31.331 I0.8329 J0.1046
G02 X32.858 Y31.642 I0.8482 J-0.2380
G02 X33.137 Y31.877 I0.7221 J-0.5740
G02 X33.500 Y31.990 I0.4634 J-0.8452
G02 X33.895 Y31.953 I0.1047 J-0.9999
G02 X34.258 Y31.758 I-0.3019 J-1.0023
G02 X34.493 Y31.411 I-0.7548 J-0.7637
G02 X34.575 Y31.000 I-0.9932 J-0.4114
G02 X32.963 Y30.069 I-1.0750 J0.0000
G02 Y31.931 I0.5375 J0.9310
G02 X34.575 Y31.000 I0.5375 J-0.9310
G02 X34.025 Y30.450 Z-3.000 I-0.5500 J0.0000 F120
G00 Z20.000


(No. 3 Helical drill: Helical drill 3)
G00 X33.995 Y4.000 Z20.000
G00 Z0.500
G02 X33.253 Y3.571 Z0.367 I-0.4950 J0.0000 F120
G02 Y4.429 Z0.233 I0.2475 J0.4287
G02 X33.995 Y4.000 Z0.100 I0.2475 J-0.4287
G02 X33.253 Y3.571 Z0.067 I-0.4950 J0.0000
G02 Y4.429 Z0.033 I0.2475 J0.4287
G02 X33.995 Y4.000 Z0.000 I0.2475 J-0.4287
G02 X33.253 Y3.571 I-0.4950 J0.0000
G02 Y4.429 I0.2475 J0.4287
G02 X33.995 Y4.000 I0.2475 J-0.4287
G02 X33.253 Y3.571 Z-0.133 I-0.4950 J0.0000
G02 Y4.429 Z-0.267 I0.2475 J0.4287
G02 X33.995 Y4.000 Z-0.400 I0.2475 J-0.4287
G02 X33.253 Y3.571 I-0.4950 J0.0000
G02 Y4.429 I0.2475 J0.4287
G02 X33.995 Y4.000 I0.2475 J-0.4287
G02 Y3.795 I-0.4954 J-0.1036 F400
G02 X33.908 Y3.592 I-0.5368 J0.1099
G02 X33.737 Y3.428 I-0.4840 J0.3368
G02 X33.500 Y3.340 I-0.3347 J0.5354
G02 X33.232 Y3.352 I-0.1044 J0.6649
G02 X32.975 Y3.475 I0.1740 J0.6932
G02 X32.776 Y3.700 I0.4557 J0.6036
G02 X32.675 Y4.000 I0.6907 J0.3993
G02 X32.700 Y4.331 I0.8329 J0.1046
G02 X32.858 Y4.642 I0.8482 J-0.2380
G02 X33.137 Y4.877 I0.7221 J-0.5740
G02 X33.500 Y4.990 I0.4634 J-0.8452
G02 X33.895 Y4.953 I0.1047 J-0.9999
G02 X34.258 Y4.758 I-0.3019 J-1.0023
G02 X34.493 Y4.411 I-0.7548 J-0.7637
G02 X34.575 Y4.000 I-0.9932 J-0.4114
G02 X32.963 Y3.069 I-1.0750 J0.0000
G02 Y4.931 I0.5375 J0.9310
G02 X34.575 Y4.000 I0.5375 J-0.9310
G02 X33.005 I-0.7850 J0.0000
G02 X33.995 I0.4950 J0.0000
G02 X33.253 Y3.571 Z-0.533 I-0.4950 J0.0000 F120
G02 Y4.429 Z-0.667 I0.2475 J0.4287
G02 X33.995 Y4.000 Z-0.800 I0.2475 J-0.4287
G02 X33.253 Y3.571 I-0.4950 J0.0000
G02 Y4.429 I0.2475 J0.4287
G02 X33.995 Y4.000 I0.2475 J-0.4287
G02 Y3.795 I-0.4954 J-0.1036 F400
G02 X33.908 Y3.592 I-0.5368 J0.1099
G02 X33.737 Y3.428 I-0.4840 J0.3368
G02 X33.500 Y3.340 I-0.3347 J0.5354
G02 X33.232 Y3.352 I-0.1044 J0.6649
G02 X32.975 Y3.475 I0.1740 J0.6932
G02 X32.776 Y3.700 I0.4557 J0.6036
G02 X32.675 Y4.000 I0.6907 J0.3993
G02 X32.700 Y4.331 I0.8329 J0.1046
G02 X32.858 Y4.642 I0.8482 J-0.2380
G02 X33.137 Y4.877 I0.7221 J-0.5740
G02 X33.500 Y4.990 I0.4634 J-0.8452
G02 X33.895 Y4.953 I0.1047 J-0.9999
G02 X34.258 Y4.758 I-0.3019 J-1.0023
G02 X34.493 Y4.411 I-0.7548 J-0.7637
G02 X34.575 Y4.000 I-0.9932 J-0.4114
G02 X32.963 Y3.069 I-1.0750 J0.0000
G02 Y4.931 I0.5375 J0.9310
G02 X34.575 Y4.000 I0.5375 J-0.9310
G02 X33.005 I-0.7850 J0.0000
G02 X33.995 I0.4950 J0.0000
G02 X33.253 Y3.571 Z-0.933 I-0.4950 J0.0000 F120
G02 Y4.429 Z-1.067 I0.2475 J0.4287
G02 X33.995 Y4.000 Z-1.200 I0.2475 J-0.4287
G02 X33.253 Y3.571 I-0.4950 J0.0000
G02 Y4.429 I0.2475 J0.4287
G02 X33.995 Y4.000 I0.2475 J-0.4287
G02 Y3.795 I-0.4954 J-0.1036 F400
G02 X33.908 Y3.592 I-0.5368 J0.1099
G02 X33.737 Y3.428 I-0.4840 J0.3368
G02 X33.500 Y3.340 I-0.3347 J0.5354
G02 X33.232 Y3.352 I-0.1044 J0.6649
G02 X32.975 Y3.475 I0.1740 J0.6932
G02 X32.776 Y3.700 I0.4557 J0.6036
G02 X32.675 Y4.000 I0.6907 J0.3993
G02 X32.700 Y4.331 I0.8329 J0.1046
G02 X32.858 Y4.642 I0.8482 J-0.2380
G02 X33.137 Y4.877 I0.7221 J-0.5740
G02 X33.500 Y4.990 I0.4634 J-0.8452
G02 X33.895 Y4.953 I0.1047 J-0.9999
G02 X34.258 Y4.758 I-0.3019 J-1.0023
G02 X34.493 Y4.411 I-0.7548 J-0.7637
G02 X34.575 Y4.000 I-0.9932 J-0.4114
G02 X32.963 Y3.069 I-1.0750 J0.0000
G02 Y4.931 I0.5375 J0.9310
G02 X34.575 Y4.000 I0.5375 J-0.9310
G02 X33.005 I-0.7850 J0.0000
G02 X33.995 I0.4950 J0.0000
G02 X33.253 Y3.571 Z-1.333 I-0.4950 J0.0000 F120
G02 Y4.429 Z-1.467 I0.2475 J0.4287
G02 X33.995 Y4.000 Z-1.600 I0.2475 J-0.4287
G02 X33.253 Y3.571 I-0.4950 J0.0000
G02 Y4.429 I0.2475 J0.4287
G02 X33.995 Y4.000 I0.2475 J-0.4287
G02 Y3.795 I-0.4954 J-0.1036 F400
G02 X33.908 Y3.592 I-0.5368 J0.1099
G02 X33.737 Y3.428 I-0.4840 J0.3368
G02 X33.500 Y3.340 I-0.3347 J0.5354
G02 X33.232 Y3.352 I-0.1044 J0.6649
G02 X32.975 Y3.475 I0.1740 J0.6932
G02 X32.776 Y3.700 I0.4557 J0.6036
G02 X32.675 Y4.000 I0.6907 J0.3993
G02 X32.700 Y4.331 I0.8329 J0.1046
G02 X32.858 Y4.642 I0.8482 J-0.2380
G02 X33.137 Y4.877 I0.7221 J-0.5740
G02 X33.500 Y4.990 I0.4634 J-0.8452
G02 X33.895 Y4.953 I0.1047 J-0.9999
G02 X34.258 Y4.758 I-0.3019 J-1.0023
G02 X34.493 Y4.411 I-0.7548 J-0.7637
G02 X34.575 Y4.000 I-0.9932 J-0.4114
G02 X32.963 Y3.069 I-1.0750 J0.0000
G02 Y4.931 I0.5375 J0.9310
G02 X34.575 Y4.000 I0.5375 J-0.9310
G02 X33.005 I-0.7850 J0.0000
G02 X33.995 I0.4950 J0.0000
G02 X33.253 Y3.571 Z-1.733 I-0.4950 J0.0000 F120
G02 Y4.429 Z-1.867 I0.2475 J0.4287
G02 X33.995 Y4.000 Z-2.000 I0.2475 J-0.4287
G02 X33.253 Y3.571 I-0.4950 J0.0000
G02 Y4.429 I0.2475 J0.4287
G02 X33.995 Y4.000 I0.2475 J-0.4287
G02 Y3.795 I-0.4954 J-0.1036 F400
G02 X33.908 Y3.592 I-0.5368 J0.1099
G02 X33.737 Y3.428 I-0.4840 J0.3368
G02 X33.500 Y3.340 I-0.3347 J0.5354
G02 X33.232 Y3.352 I-0.1044 J0.6649
G02 X32.975 Y3.475 I0.1740 J0.6932
G02 X32.776 Y3.700 I0.4557 J0.6036
G02 X32.675 Y4.000 I0.6907 J0.3993
G02 X32.700 Y4.331 I0.8329 J0.1046
G02 X32.858 Y4.642 I0.8482 J-0.2380
G02 X33.137 Y4.877 I0.7221 J-0.5740
G02 X33.500 Y4.990 I0.4634 J-0.8452
G02 X33.895 Y4.953 I0.1047 J-0.9999
G02 X34.258 Y4.758 I-0.3019 J-1.0023
G02 X34.493 Y4.411 I-0.7548 J-0.7637
G02 X34.575 Y4.000 I-0.9932 J-0.4114
G02 X32.963 Y3.069 I-1.0750 J0.0000
G02 Y4.931 I0.5375 J0.9310
G02 X34.575 Y4.000 I0.5375 J-0.9310
G02 X33.005 I-0.7850 J0.0000
G02 X33.995 I0.4950 J0.0000
G02 X33.253 Y3.571 Z-2.133 I-0.4950 J0.0000 F120
G02 Y4.429 Z-2.267 I0.2475 J0.4287
G02 X33.995 Y4.000 Z-2.400 I0.2475 J-0.4287
G02 X33.253 Y3.571 I-0.4950 J0.0000
G02 Y4.429 I0.2475 J0.4287
G02 X33.995 Y4.000 I0.2475 J-0.4287
G02 Y3.795 I-0.4954 J-0.1036 F400
G02 X33.908 Y3.592 I-0.5368 J0.1099
G02 X33.737 Y3.428 I-0.4840 J0.3368
G02 X33.500 Y3.340 I-0.3347 J0.5354
G02 X33.232 Y3.352 I-0.1044 J0.6649
G02 X32.975 Y3.475 I0.1740 J0.6932
G02 X32.776 Y3.700 I0.4557 J0.6036
G02 X32.675 Y4.000 I0.6907 J0.3993
G02 X32.700 Y4.331 I0.8329 J0.1046
G02 X32.858 Y4.642 I0.8482 J-0.2380
G02 X33.137 Y4.877 I0.7221 J-0.5740
G02 X33.500 Y4.990 I0.4634 J-0.8452
G02 X33.895 Y4.953 I0.1047 J-0.9999
G02 X34.258 Y4.758 I-0.3019 J-1.0023
G02 X34.493 Y4.411 I-0.7548 J-0.7637
G02 X34.575 Y4.000 I-0.9932 J-0.4114
G02 X32.963 Y3.069 I-1.0750 J0.0000
G02 Y4.931 I0.5375 J0.9310
G02 X34.575 Y4.000 I0.5375 J-0.9310
G02 X33.005 I-0.7850 J0.0000
G02 X33.995 I0.4950 J0.0000
G02 X33.253 Y3.571 Z-2.533 I-0.4950 J0.0000 F120
G02 Y4.429 Z-2.667 I0.2475 J0.4287
G02 X33.995 Y4.000 Z-2.800 I0.2475 J-0.4287
G02 X33.253 Y3.571 I-0.4950 J0.0000
G02 Y4.429 I0.2475 J0.4287
G02 X33.995 Y4.000 I0.2475 J-0.4287
G02 Y3.795 I-0.4954 J-0.1036 F400
G02 X33.908 Y3.592 I-0.5368 J0.1099
G02 X33.737 Y3.428 I-0.4840 J0.3368
G02 X33.500 Y3.340 I-0.3347 J0.5354
G02 X33.232 Y3.352 I-0.1044 J0.6649
G02 X32.975 Y3.475 I0.1740 J0.6932
G02 X32.776 Y3.700 I0.4557 J0.6036
G02 X32.675 Y4.000 I0.6907 J0.3993
G02 X32.700 Y4.331 I0.8329 J0.1046
G02 X32.858 Y4.642 I0.8482 J-0.2380
G02 X33.137 Y4.877 I0.7221 J-0.5740
G02 X33.500 Y4.990 I0.4634 J-0.8452
G02 X33.895 Y4.953 I0.1047 J-0.9999
G02 X34.258 Y4.758 I-0.3019 J-1.0023
G02 X34.493 Y4.411 I-0.7548 J-0.7637
G02 X34.575 Y4.000 I-0.9932 J-0.4114
G02 X32.963 Y3.069 I-1.0750 J0.0000
G02 Y4.931 I0.5375 J0.9310
G02 X34.575 Y4.000 I0.5375 J-0.9310
G02 X33.005 I-0.7850 J0.0000
G02 X33.995 I0.4950 J0.0000
G02 X33.253 Y3.571 Z-2.933 I-0.4950 J0.0000 F120
G02 Y4.429 Z-3.067 I0.2475 J0.4287
G02 X33.995 Y4.000 Z-3.200 I0.2475 J-0.4287
G02 X33.253 Y3.571 I-0.4950 J0.0000
G02 Y4.429 I0.2475 J0.4287
G02 X33.995 Y4.000 I0.2475 J-0.4287
G02 Y3.795 I-0.4954 J-0.1036 F400
G02 X33.908 Y3.592 I-0.5368 J0.1099
G02 X33.737 Y3.428 I-0.4840 J0.3368
G02 X33.500 Y3.340 I-0.3347 J0.5354
G02 X33.232 Y3.352 I-0.1044 J0.6649
G02 X32.975 Y3.475 I0.1740 J0.6932
G02 X32.776 Y3.700 I0.4557 J0.6036
G02 X32.675 Y4.000 I0.6907 J0.3993
G02 X32.700 Y4.331 I0.8329 J0.1046
G02 X32.858 Y4.642 I0.8482 J-0.2380
G02 X33.137 Y4.877 I0.7221 J-0.5740
G02 X33.500 Y4.990 I0.4634 J-0.8452
G02 X33.895 Y4.953 I0.1047 J-0.9999
G02 X34.258 Y4.758 I-0.3019 J-1.0023
G02 X34.493 Y4.411 I-0.7548 J-0.7637
G02 X34.575 Y4.000 I-0.9932 J-0.4114
G02 X32.963 Y3.069 I-1.0750 J0.0000
G02 Y4.931 I0.5375 J0.9310
G02 X34.575 Y4.000 I0.5375 J-0.9310
G02 X33.005 I-0.7850 J0.0000
G02 X33.995 I0.4950 J0.0000
G02 X33.253 Y3.571 Z-3.300 I-0.4950 J0.0000 F120
G02 Y4.429 Z-3.400 I0.2475 J0.4287
G02 X33.995 Y4.000 Z-3.500 I0.2475 J-0.4287
G02 X33.253 Y3.571 I-0.4950 J0.0000
G02 Y4.429 I0.2475 J0.4287
G02 X33.995 Y4.000 I0.2475 J-0.4287
G02 Y3.795 I-0.4954 J-0.1036 F400
G02 X33.908 Y3.592 I-0.5368 J0.1099
G02 X33.737 Y3.428 I-0.4840 J0.3368
G02 X33.500 Y3.340 I-0.3347 J0.5354
G02 X33.232 Y3.352 I-0.1044 J0.6649
G02 X32.975 Y3.475 I0.1740 J0.6932
G02 X32.776 Y3.700 I0.4557 J0.6036
G02 X32.675 Y4.000 I0.6907 J0.3993
G02 X32.700 Y4.331 I0.8329 J0.1046
G02 X32.858 Y4.642 I0.8482 J-0.2380
G02 X33.137 Y4.877 I0.7221 J-0.5740
G02 X33.500 Y4.990 I0.4634 J-0.8452
G02 X33.895 Y4.953 I0.1047 J-0.9999
G02 X34.258 Y4.758 I-0.3019 J-1.0023
G02 X34.493 Y4.411 I-0.7548 J-0.7637
G02 X34.575 Y4.000 I-0.9932 J-0.4114
G02 X32.963 Y3.069 I-1.0750 J0.0000
G02 Y4.931 I0.5375 J0.9310
G02 X34.575 Y4.000 I0.5375 J-0.9310
G02 X34.025 Y3.450 Z-3.000 I-0.5500 J0.0000 F120
G00 Z20.000


(No. 4 Helical drill: Helical drill 4)
G00 X4.495 Y4.000 Z20.000
G00 Z0.500
G02 X3.753 Y3.571 Z0.367 I-0.4950 J0.0000 F120
G02 Y4.429 Z0.233 I0.2475 J0.4287
G02 X4.495 Y4.000 Z0.100 I0.2475 J-0.4287
G02 X3.753 Y3.571 Z0.067 I-0.4950 J0.0000
G02 Y4.429 Z0.033 I0.2475 J0.4287
G02 X4.495 Y4.000 Z0.000 I0.2475 J-0.4287
G02 X3.753 Y3.571 I-0.4950 J0.0000
G02 Y4.429 I0.2475 J0.4287
G02 X4.495 Y4.000 I0.2475 J-0.4287
G02 X3.753 Y3.571 Z-0.133 I-0.4950 J0.0000
G02 Y4.429 Z-0.267 I0.2475 J0.4287
G02 X4.495 Y4.000 Z-0.400 I0.2475 J-0.4287
G02 X3.753 Y3.571 I-0.4950 J0.0000
G02 Y4.429 I0.2475 J0.4287
G02 X4.495 Y4.000 I0.2475 J-0.4287
G02 Y3.795 I-0.4954 J-0.1036 F400
G02 X4.408 Y3.592 I-0.5368 J0.1099
G02 X4.237 Y3.428 I-0.4840 J0.3368
G02 X4.000 Y3.340 I-0.3347 J0.5354
G02 X3.732 Y3.352 I-0.1044 J0.6649
G02 X3.475 Y3.475 I0.1740 J0.6932
G02 X3.276 Y3.700 I0.4557 J0.6036
G02 X3.175 Y4.000 I0.6907 J0.3993
G02 X3.200 Y4.331 I0.8329 J0.1046
G02 X3.358 Y4.642 I0.8482 J-0.2380
G02 X3.637 Y4.877 I0.7221 J-0.5740
G02 X4.000 Y4.990 I0.4634 J-0.8452
G02 X4.395 Y4.953 I0.1047 J-0.9999
G02 X4.758 Y4.758 I-0.3019 J-1.0023
G02 X4.993 Y4.411 I-0.7548 J-0.7637
G02 X5.075 Y4.000 I-0.9932 J-0.4114
G02 X3.463 Y3.069 I-1.0750 J0.0000
G02 Y4.931 I0.5375 J0.9310
G02 X5.075 Y4.000 I0.5375 J-0.9310
G02 X3.505 I-0.7850 J0.0000
G02 X4.495 I0.4950 J0.0000
G02 X3.753 Y3.571 Z-0.533 I-0.4950 J0.0000 F120
G02 Y4.429 Z-0.667 I0.2475 J0.4287
G02 X4.495 Y4.000 Z-0.800 I0.2475 J-0.4287
G02 X3.753 Y3.571 I-0.4950 J0.0000
G02 Y4.429 I0.2475 J0.4287
G02 X4.495 Y4.000 I0.2475 J-0.4287
G02 Y3.795 I-0.4954 J-0.1036 F400
G02 X4.408 Y3.592 I-0.5368 J0.1099
G02 X4.237 Y3.428 I-0.4840 J0.3368
G02 X4.000 Y3.340 I-0.3347 J0.5354
G02 X3.732 Y3.352 I-0.1044 J0.6649
G02 X3.475 Y3.475 I0.1740 J0.6932
G02 X3.276 Y3.700 I0.4557 J0.6036
G02 X3.175 Y4.000 I0.6907 J0.3993
G02 X3.200 Y4.331 I0.8329 J0.1046
G02 X3.358 Y4.642 I0.8482 J-0.2380
G02 X3.637 Y4.877 I0.7221 J-0.5740
G02 X4.000 Y4.990 I0.4634 J-0.8452
G02 X4.395 Y4.953 I0.1047 J-0.9999
G02 X4.758 Y4.758 I-0.3019 J-1.0023
G02 X4.993 Y4.411 I-0.7548 J-0.7637
G02 X5.075 Y4.000 I-0.9932 J-0.4114
G02 X3.463 Y3.069 I-1.0750 J0.0000
G02 Y4.931 I0.5375 J0.9310
G02 X5.075 Y4.000 I0.5375 J-0.9310
G02 X3.505 I-0.7850 J0.0000
G02 X4.495 I0.4950 J0.0000
G02 X3.753 Y3.571 Z-0.933 I-0.4950 J0.0000 F120
G02 Y4.429 Z-1.067 I0.2475 J0.4287
G02 X4.495 Y4.000 Z-1.200 I0.2475 J-0.4287
G02 X3.753 Y3.571 I-0.4950 J0.0000
G02 Y4.429 I0.2475 J0.4287
G02 X4.495 Y4.000 I0.2475 J-0.4287
G02 Y3.795 I-0.4954 J-0.1036 F400
G02 X4.408 Y3.592 I-0.5368 J0.1099
G02 X4.237 Y3.428 I-0.4840 J0.3368
G02 X4.000 Y3.340 I-0.3347 J0.5354
G02 X3.732 Y3.352 I-0.1044 J0.6649
G02 X3.475 Y3.475 I0.1740 J0.6932
G02 X3.276 Y3.700 I0.4557 J0.6036
G02 X3.175 Y4.000 I0.6907 J0.3993
G02 X3.200 Y4.331 I0.8329 J0.1046
G02 X3.358 Y4.642 I0.8482 J-0.2380
G02 X3.637 Y4.877 I0.7221 J-0.5740
G02 X4.000 Y4.990 I0.4634 J-0.8452
G02 X4.395 Y4.953 I0.1047 J-0.9999
G02 X4.758 Y4.758 I-0.3019 J-1.0023
G02 X4.993 Y4.411 I-0.7548 J-0.7637
G02 X5.075 Y4.000 I-0.9932 J-0.4114
G02 X3.463 Y3.069 I-1.0750 J0.0000
G02 Y4.931 I0.5375 J0.9310
G02 X5.075 Y4.000 I0.5375 J-0.9310
G02 X3.505 I-0.7850 J0.0000
G02 X4.495 I0.4950 J0.0000
G02 X3.753 Y3.571 Z-1.333 I-0.4950 J0.0000 F120
G02 Y4.429 Z-1.467 I0.2475 J0.4287
G02 X4.495 Y4.000 Z-1.600 I0.2475 J-0.4287
G02 X3.753 Y3.571 I-0.4950 J0.0000
G02 Y4.429 I0.2475 J0.4287
G02 X4.495 Y4.000 I0.2475 J-0.4287
G02 Y3.795 I-0.4954 J-0.1036 F400
G02 X4.408 Y3.592 I-0.5368 J0.1099
G02 X4.237 Y3.428 I-0.4840 J0.3368
G02 X4.000 Y3.340 I-0.3347 J0.5354
G02 X3.732 Y3.352 I-0.1044 J0.6649
G02 X3.475 Y3.475 I0.1740 J0.6932
G02 X3.276 Y3.700 I0.4557 J0.6036
G02 X3.175 Y4.000 I0.6907 J0.3993
G02 X3.200 Y4.331 I0.8329 J0.1046
G02 X3.358 Y4.642 I0.8482 J-0.2380
G02 X3.637 Y4.877 I0.7221 J-0.5740
G02 X4.000 Y4.990 I0.4634 J-0.8452
G02 X4.395 Y4.953 I0.1047 J-0.9999
G02 X4.758 Y4.758 I-0.3019 J-1.0023
G02 X4.993 Y4.411 I-0.7548 J-0.7637
G02 X5.075 Y4.000 I-0.9932 J-0.4114
G02 X3.463 Y3.069 I-1.0750 J0.0000
G02 Y4.931 I0.5375 J0.9310
G02 X5.075 Y4.000 I0.5375 J-0.9310
G02 X3.505 I-0.7850 J0.0000
G02 X4.495 I0.4950 J0.0000
G02 X3.753 Y3.571 Z-1.733 I-0.4950 J0.0000 F120
G02 Y4.429 Z-1.867 I0.2475 J0.4287
G02 X4.495 Y4.000 Z-2.000 I0.2475 J-0.4287
G02 X3.753 Y3.571 I-0.4950 J0.0000
G02 Y4.429 I0.2475 J0.4287
G02 X4.495 Y4.000 I0.2475 J-0.4287
G02 Y3.795 I-0.4954 J-0.1036 F400
G02 X4.408 Y3.592 I-0.5368 J0.1099
G02 X4.237 Y3.428 I-0.4840 J0.3368
G02 X4.000 Y3.340 I-0.3347 J0.5354
G02 X3.732 Y3.352 I-0.1044 J0.6649
G02 X3.475 Y3.475 I0.1740 J0.6932
G02 X3.276 Y3.700 I0.4557 J0.6036
G02 X3.175 Y4.000 I0.6907 J0.3993
G02 X3.200 Y4.331 I0.8329 J0.1046
G02 X3.358 Y4.642 I0.8482 J-0.2380
G02 X3.637 Y4.877 I0.7221 J-0.5740
G02 X4.000 Y4.990 I0.4634 J-0.8452
G02 X4.395 Y4.953 I0.1047 J-0.9999
G02 X4.758 Y4.758 I-0.3019 J-1.0023
G02 X4.993 Y4.411 I-0.7548 J-0.7637
G02 X5.075 Y4.000 I-0.9932 J-0.4114
G02 X3.463 Y3.069 I-1.0750 J0.0000
G02 Y4.931 I0.5375 J0.9310
G02 X5.075 Y4.000 I0.5375 J-0.9310
G02 X3.505 I-0.7850 J0.0000
G02 X4.495 I0.4950 J0.0000
G02 X3.753 Y3.571 Z-2.133 I-0.4950 J0.0000 F120
G02 Y4.429 Z-2.267 I0.2475 J0.4287
G02 X4.495 Y4.000 Z-2.400 I0.2475 J-0.4287
G02 X3.753 Y3.571 I-0.4950 J0.0000
G02 Y4.429 I0.2475 J0.4287
G02 X4.495 Y4.000 I0.2475 J-0.4287
G02 Y3.795 I-0.4954 J-0.1036 F400
G02 X4.408 Y3.592 I-0.5368 J0.1099
G02 X4.237 Y3.428 I-0.4840 J0.3368
G02 X4.000 Y3.340 I-0.3347 J0.5354
G02 X3.732 Y3.352 I-0.1044 J0.6649
G02 X3.475 Y3.475 I0.1740 J0.6932
G02 X3.276 Y3.700 I0.4557 J0.6036
G02 X3.175 Y4.000 I0.6907 J0.3993
G02 X3.200 Y4.331 I0.8329 J0.1046
G02 X3.358 Y4.642 I0.8482 J-0.2380
G02 X3.637 Y4.877 I0.7221 J-0.5740
G02 X4.000 Y4.990 I0.4634 J-0.8452
G02 X4.395 Y4.953 I0.1047 J-0.9999
G02 X4.758 Y4.758 I-0.3019 J-1.0023
G02 X4.993 Y4.411 I-0.7548 J-0.7637
G02 X5.075 Y4.000 I-0.9932 J-0.4114
G02 X3.463 Y3.069 I-1.0750 J0.0000
G02 Y4.931 I0.5375 J0.9310
G02 X5.075 Y4.000 I0.5375 J-0.9310
G02 X3.505 I-0.7850 J0.0000
G02 X4.495 I0.4950 J0.0000
G02 X3.753 Y3.571 Z-2.533 I-0.4950 J0.0000 F120
G02 Y4.429 Z-2.667 I0.2475 J0.4287
G02 X4.495 Y4.000 Z-2.800 I0.2475 J-0.4287
G02 X3.753 Y3.571 I-0.4950 J0.0000
G02 Y4.429 I0.2475 J0.4287
G02 X4.495 Y4.000 I0.2475 J-0.4287
G02 Y3.795 I-0.4954 J-0.1036 F400
G02 X4.408 Y3.592 I-0.5368 J0.1099
G02 X4.237 Y3.428 I-0.4840 J0.3368
G02 X4.000 Y3.340 I-0.3347 J0.5354
G02 X3.732 Y3.352 I-0.1044 J0.6649
G02 X3.475 Y3.475 I0.1740 J0.6932
G02 X3.276 Y3.700 I0.4557 J0.6036
G02 X3.175 Y4.000 I0.6907 J0.3993
G02 X3.200 Y4.331 I0.8329 J0.1046
G02 X3.358 Y4.642 I0.8482 J-0.2380
G02 X3.637 Y4.877 I0.7221 J-0.5740
G02 X4.000 Y4.990 I0.4634 J-0.8452
G02 X4.395 Y4.953 I0.1047 J-0.9999
G02 X4.758 Y4.758 I-0.3019 J-1.0023
G02 X4.993 Y4.411 I-0.7548 J-0.7637
G02 X5.075 Y4.000 I-0.9932 J-0.4114
G02 X3.463 Y3.069 I-1.0750 J0.0000
G02 Y4.931 I0.5375 J0.9310
G02 X5.075 Y4.000 I0.5375 J-0.9310
G02 X3.505 I-0.7850 J0.0000
G02 X4.495 I0.4950 J0.0000
G02 X3.753 Y3.571 Z-2.933 I-0.4950 J0.0000 F120
G02 Y4.429 Z-3.067 I0.2475 J0.4287
G02 X4.495 Y4.000 Z-3.200 I0.2475 J-0.4287
G02 X3.753 Y3.571 I-0.4950 J0.0000
G02 Y4.429 I0.2475 J0.4287
G02 X4.495 Y4.000 I0.2475 J-0.4287
G02 Y3.795 I-0.4954 J-0.1036 F400
G02 X4.408 Y3.592 I-0.5368 J0.1099
G02 X4.237 Y3.428 I-0.4840 J0.3368
G02 X4.000 Y3.340 I-0.3347 J0.5354
G02 X3.732 Y3.352 I-0.1044 J0.6649
G02 X3.475 Y3.475 I0.1740 J0.6932
G02 X3.276 Y3.700 I0.4557 J0.6036
G02 X3.175 Y4.000 I0.6907 J0.3993
G02 X3.200 Y4.331 I0.8329 J0.1046
G02 X3.358 Y4.642 I0.8482 J-0.2380
G02 X3.637 Y4.877 I0.7221 J-0.5740
G02 X4.000 Y4.990 I0.4634 J-0.8452
G02 X4.395 Y4.953 I0.1047 J-0.9999
G02 X4.758 Y4.758 I-0.3019 J-1.0023
G02 X4.993 Y4.411 I-0.7548 J-0.7637
G02 X5.075 Y4.000 I-0.9932 J-0.4114
G02 X3.463 Y3.069 I-1.0750 J0.0000
G02 Y4.931 I0.5375 J0.9310
G02 X5.075 Y4.000 I0.5375 J-0.9310
G02 X3.505 I-0.7850 J0.0000
G02 X4.495 I0.4950 J0.0000
G02 X3.753 Y3.571 Z-3.300 I-0.4950 J0.0000 F120
G02 Y4.429 Z-3.400 I0.2475 J0.4287
G02 X4.495 Y4.000 Z-3.500 I0.2475 J-0.4287
G02 X3.753 Y3.571 I-0.4950 J0.0000
G02 Y4.429 I0.2475 J0.4287
G02 X4.495 Y4.000 I0.2475 J-0.4287
G02 Y3.795 I-0.4954 J-0.1036 F400
G02 X4.408 Y3.592 I-0.5368 J0.1099
G02 X4.237 Y3.428 I-0.4840 J0.3368
G02 X4.000 Y3.340 I-0.3347 J0.5354
G02 X3.732 Y3.352 I-0.1044 J0.6649
G02 X3.475 Y3.475 I0.1740 J0.6932
G02 X3.276 Y3.700 I0.4557 J0.6036
G02 X3.175 Y4.000 I0.6907 J0.3993
G02 X3.200 Y4.331 I0.8329 J0.1046
G02 X3.358 Y4.642 I0.8482 J-0.2380
G02 X3.637 Y4.877 I0.7221 J-0.5740
G02 X4.000 Y4.990 I0.4634 J-0.8452
G02 X4.395 Y4.953 I0.1047 J-0.9999
G02 X4.758 Y4.758 I-0.3019 J-1.0023
G02 X4.993 Y4.411 I-0.7548 J-0.7637
G02 X5.075 Y4.000 I-0.9932 J-0.4114
G02 X3.463 Y3.069 I-1.0750 J0.0000
G02 Y4.931 I0.5375 J0.9310
G02 X5.075 Y4.000 I0.5375 J-0.9310
G02 X4.525 Y3.450 Z-3.000 I-0.5500 J0.0000 F120
G00 Z20.000


(No. 5 Drill: Drill 4)
G00 X8.034 Y11.606 Z20.000
G00 Z0.500
G01 Z-0.400 F120
G00 Z0.500
G00 Z0.100
G01 Z-0.800
G00 Z0.500
G00 Z-0.300
G01 Z-1.200
G00 Z0.500
G00 Z-0.700
G01 Z-1.600
G00 Z0.500
G00 Z-1.100
G01 Z-2.000
G00 Z0.500
G00 Z-1.500
G01 Z-2.400
G00 Z0.500
G00 Z-1.900
G01 Z-2.800
G00 Z0.500
G00 Z-2.300
G01 Z-3.200
G00 Z0.500
G00 Z-2.700
G01 Z-3.500
G00 Z20.000


(No. 6 Drill: Drill 3)
G00 X9.779 Y18.921 Z20.000
G00 Z0.500
G01 Z-0.400 F120
G00 Z0.500
G00 Z0.100
G01 Z-0.800
G00 Z0.500
G00 Z-0.300
G01 Z-1.200
G00 Z0.500
G00 Z-0.700
G01 Z-1.600
G00 Z0.500
G00 Z-1.100
G01 Z-2.000
G00 Z0.500
G00 Z-1.500
G01 Z-2.400
G00 Z0.500
G00 Z-1.900
G01 Z-2.800
G00 Z0.500
G00 Z-2.300
G01 Z-3.200
G00 Z0.500
G00 Z-2.700
G01 Z-3.500
G00 Z20.000


(No. 7 Drill: Drill 1)
G00 X19.119 Y28.871 Z20.000
G00 Z0.500
G01 Z-0.400 F120
G00 Z0.500
G00 Z0.100
G01 Z-0.800
G00 Z0.500
G00 Z-0.300
G01 Z-1.200
G00 Z0.500
G00 Z-0.700
G01 Z-1.600
G00 Z0.500
G00 Z-1.100
G01 Z-2.000
G00 Z0.500
G00 Z-1.500
G01 Z-2.400
G00 Z0.500
G00 Z-1.900
G01 Z-2.800
G00 Z0.500
G00 Z-2.300
G01 Z-3.200
G00 Z0.500
G00 Z-2.700
G01 Z-3.500
G00 Z20.000


(No. 8 Drill: Drill 2)
G00 X23.138 Y27.541 Z20.000
G00 Z0.500
G01 Z-0.400 F120
G00 Z0.500
G00 Z0.100
G01 Z-0.800
G00 Z0.500
G00 Z-0.300
G01 Z-1.200
G00 Z0.500
G00 Z-0.700
G01 Z-1.600
G00 Z0.500
G00 Z-1.100
G01 Z-2.000
G00 Z0.500
G00 Z-1.500
G01 Z-2.400
G00 Z0.500
G00 Z-1.900
G01 Z-2.800
G00 Z0.500
G00 Z-2.300
G01 Z-3.200
G00 Z0.500
G00 Z-2.700
G01 Z-3.500
G00 Z20.000


(No. 9 Part: Part 1)
G00 X18.493 Y-0.550 Z20.000
G00 Z0.500
G01 Z-0.400 F120
G01 X37.500 F400
G03 X38.050 Y0.020 I-0.0003 J0.5506
G01 Y15.960
G01 Y19.060
G01 Y35.000
G03 X37.480 Y35.550 I-0.5506 J-0.0003
G01 X20.290
G01 X17.190
G01 X0.000
G03 X-0.549 Y35.039 I0.0000 J-0.5500
G01 X-0.550 Y34.980
G01 Y19.040
G01 Y15.940
G01 Y0.000
G03 X-0.507 Y-0.214 I0.5500 J0.0000
G03 X0.020 Y-0.550 I0.5074 J0.2149
G01 X15.393
G01 X18.493
G01 Z-0.800 F120
G01 X37.500 F400
G03 X38.050 Y0.020 I-0.0003 J0.5506
G01 Y15.960
G01 Y19.060
G01 Y35.000
G03 X37.480 Y35.550 I-0.5506 J-0.0003
G01 X20.290
G01 X17.190
G01 X0.000
G03 X-0.549 Y35.039 I0.0000 J-0.5500
G01 X-0.550 Y34.980
G01 Y19.040
G01 Y15.940
G01 Y0.000
G03 X-0.507 Y-0.214 I0.5500 J0.0000
G03 X0.020 Y-0.550 I0.5074 J0.2149
G01 X15.393
G01 X18.493
G01 Z-1.200 F120
G01 X37.500 F400
G03 X38.050 Y0.020 I-0.0003 J0.5506
G01 Y15.960
G01 Y19.060
G01 Y35.000
G03 X37.480 Y35.550 I-0.5506 J-0.0003
G01 X20.290
G01 X17.190
G01 X0.000
G03 X-0.549 Y35.039 I0.0000 J-0.5500
G01 X-0.550 Y34.980
G01 Y19.040
G01 Y15.940
G01 Y0.000
G03 X-0.507 Y-0.214 I0.5500 J0.0000
G03 X0.020 Y-0.550 I0.5074 J0.2149
G01 X15.393
G01 X18.493
G01 Z-1.600 F120
G01 X37.500 F400
G03 X38.050 Y0.020 I-0.0003 J0.5506
G01 Y15.960
G01 Y19.060
G01 Y35.000
G03 X37.480 Y35.550 I-0.5506 J-0.0003
G01 X20.290
G01 X17.190
G01 X0.000
G03 X-0.549 Y35.039 I0.0000 J-0.5500
G01 X-0.550 Y34.980
G01 Y19.040
G01 Y15.940
G01 Y0.000
G03 X-0.507 Y-0.214 I0.5500 J0.0000
G03 X0.020 Y-0.550 I0.5074 J0.2149
G01 X15.393
G01 X18.493
G01 Z-2.000 F120
G01 X37.500 F400
G03 X38.050 Y0.020 I-0.0003 J0.5506
G01 Y15.960
G01 Y19.060
G01 Y35.000
G03 X37.480 Y35.550 I-0.5506 J-0.0003
G01 X20.290
G01 X17.190
G01 X0.000
G03 X-0.549 Y35.039 I0.0000 J-0.5500
G01 X-0.550 Y34.980
G01 Y19.040
G01 Y15.940
G01 Y0.000
G03 X-0.507 Y-0.214 I0.5500 J0.0000
G03 X0.020 Y-0.550 I0.5074 J0.2149
G01 X15.393
G01 X18.493
G01 Z-2.400 F120
G01 X37.500 F400
G03 X38.050 Y0.020 I-0.0003 J0.5506
G01 Y15.960
G00 Z-2.000
G01 Y19.060
G01 Z-2.400 F120
G01 Y35.000 F400
G03 X37.480 Y35.550 I-0.5506 J-0.0003
G01 X20.290
G00 Z-2.000
G01 X17.190
G01 Z-2.400 F120
G01 X0.000 F400
G03 X-0.549 Y35.039 I0.0000 J-0.5500
G01 X-0.550 Y34.980
G01 Y19.040
G00 Z-2.000
G01 Y15.940
G01 Z-2.400 F120
G01 Y0.000 F400
G03 X-0.507 Y-0.214 I0.5500 J0.0000
G03 X0.020 Y-0.550 I0.5074 J0.2149
G01 X15.393
G00 Z-2.000
G01 X18.493
G01 Z-2.800 F120
G01 X37.500 F400
G03 X38.050 Y0.020 I-0.0003 J0.5506
G01 Y15.960
G00 Z-2.000
G01 Y19.060
G01 Z-2.800 F120
G01 Y35.000 F400
G03 X37.480 Y35.550 I-0.5506 J-0.0003
G01 X20.290
G00 Z-2.000
G01 X17.190
G01 Z-2.800 F120
G01 X0.000 F400
G03 X-0.549 Y35.039 I0.0000 J-0.5500
G01 X-0.550 Y34.980
G01 Y19.040
G00 Z-2.000
G01 Y15.940
G01 Z-2.800 F120
G01 Y0.000 F400
G03 X-0.507 Y-0.214 I0.5500 J0.0000
G03 X0.020 Y-0.550 I0.5074 J0.2149
G01 X15.393
G00 Z-2.000
G01 X18.493
G00 Z-2.300
G01 Z-3.200 F120
G01 X37.500 F400
G03 X38.050 Y0.020 I-0.0003 J0.5506
G01 Y15.960
G00 Z-2.000
G01 Y19.060
G00 Z-2.300
G01 Z-3.200 F120
G01 Y35.000 F400
G03 X37.480 Y35.550 I-0.5506 J-0.0003
G01 X20.290
G00 Z-2.000
G01 X17.190
G00 Z-2.300
G01 Z-3.200 F120
G01 X0.000 F400
G03 X-0.549 Y35.039 I0.0000 J-0.5500
G01 X-0.550 Y34.980
G01 Y19.040
G00 Z-2.000
G01 Y15.940
G00 Z-2.300
G01 Z-3.200 F120
G01 Y0.000 F400
G03 X-0.507 Y-0.214 I0.5500 J0.0000
G03 X0.020 Y-0.550 I0.5074 J0.2149
G01 X15.393
G00 Z-2.000
G01 X18.493
G00 Z-2.700
G01 Z-3.500 F120
G01 X37.500 F400
G03 X38.050 Y0.020 I-0.0003 J0.5506
G01 Y15.960
G00 Z-2.000
G01 Y19.060
G00 Z-2.700
G01 Z-3.500 F120
G01 Y35.000 F400
G03 X37.480 Y35.550 I-0.5506 J-0.0003
G01 X20.290
G00 Z-2.000
G01 X17.190
G00 Z-2.700
G01 Z-3.500 F120
G01 X0.000 F400
G03 X-0.549 Y35.039 I0.0000 J-0.5500
G01 X-0.550 Y34.980
G01 Y19.040
G00 Z-2.000
G01 Y15.940
G00 Z-2.700
G01 Z-3.500 F120
G01 Y0.000 F400
G03 X-0.507 Y-0.214 I0.5500 J0.0000
G03 X0.020 Y-0.550 I0.5074 J0.2149
G01 X15.393
G00 Z-2.000
G01 X18.493
G00 Z20.000
G00 X0.000 Y0.000

M05
M30
