(Project nrf51822-holes-outline)
(Created by Estlcam version 11 build 11.118)
(Machining time about 00:15:35 hours)

(Required tools:)
(End 1.000mm)
G21
G90
G94
M03 S24000.0
G00 Z20.000


(No. 1 Hole: Hole 13)
G00 X15.753 Y15.753
G00 Z0.500
G01 Z-0.400 F120 S24000.0
G02 X15.030 Y17.500 I1.7469 J1.7469 F400
G01 X15.114 Y18.139
G02 X16.256 Y19.633 I2.3740 J-0.6323
G01 X16.265 Y19.639
G02 X18.735 Y15.361 I1.2352 J-2.1395
G02 X15.753 Y15.753 I-1.2352 J2.1395
G01 Z-0.800 F120
G02 X15.030 Y17.500 I1.7469 J1.7469 F400
G01 X15.114 Y18.139
G02 X16.256 Y19.633 I2.3740 J-0.6323
G01 X16.265 Y19.639
G02 X18.735 Y15.361 I1.2352 J-2.1395
G02 X15.753 Y15.753 I-1.2352 J2.1395
G01 Z-1.200 F120
G02 X15.030 Y17.500 I1.7469 J1.7469 F400
G01 X15.114 Y18.139
G02 X16.256 Y19.633 I2.3740 J-0.6323
G01 X16.265 Y19.639
G02 X18.735 Y15.361 I1.2352 J-2.1395
G02 X15.753 Y15.753 I-1.2352 J2.1395
G01 Z-1.600 F120
G02 X15.030 Y17.500 I1.7469 J1.7469 F400
G01 X15.114 Y18.139
G02 X16.256 Y19.633 I2.3740 J-0.6323
G01 X16.265 Y19.639
G02 X18.735 Y15.361 I1.2352 J-2.1395
G02 X15.753 Y15.753 I-1.2352 J2.1395
G01 Z-2.000 F120
G02 X15.030 Y17.500 I1.7469 J1.7469 F400
G01 X15.114 Y18.139
G02 X16.256 Y19.633 I2.3740 J-0.6323
G01 X16.265 Y19.639
G02 X18.735 Y15.361 I1.2352 J-2.1395
G02 X15.753 Y15.753 I-1.2352 J2.1395
G01 Z-2.400 F120
G02 X15.030 Y17.500 I1.7469 J1.7469 F400
G01 X15.114 Y18.139
G02 X16.256 Y19.633 I2.3740 J-0.6323
G01 X16.265 Y19.639
G02 X18.735 Y15.361 I1.2352 J-2.1395
G02 X15.753 Y15.753 I-1.2352 J2.1395
G01 Z-2.800 F120
G02 X15.030 Y17.500 I1.7469 J1.7469 F400
G01 X15.114 Y18.139
G02 X16.256 Y19.633 I2.3740 J-0.6323
G01 X16.265 Y19.639
G02 X18.735 Y15.361 I1.2352 J-2.1395
G02 X15.753 Y15.753 I-1.2352 J2.1395
G01 Z-3.200 F120
G02 X15.030 Y17.500 I1.7469 J1.7469 F400
G01 X15.114 Y18.139
G02 X16.256 Y19.633 I2.3740 J-0.6323
G01 X16.265 Y19.639
G02 X18.735 Y15.361 I1.2352 J-2.1395
G02 X15.753 Y15.753 I-1.2352 J2.1395
G01 Z-3.500 F120
G02 X15.030 Y17.500 I1.7469 J1.7469 F400
G01 X15.114 Y18.139
G02 X16.256 Y19.633 I2.3740 J-0.6323
G01 X16.265 Y19.639
G02 X18.735 Y15.361 I1.2352 J-2.1395
G02 X15.753 Y15.753 I-1.2352 J2.1395
G00 Z20.000


(No. 2 Drill: Drill 9)
G00 X8.534 Y11.606 Z20.000
G00 Z0.500
G01 Z-0.400 F120
G00 Z0.500
G00 Z0.100
G01 Z-0.800
G00 Z0.500
G00 Z-0.300
G01 Z-1.200
G00 Z0.500
G00 Z-0.700
G01 Z-1.600
G00 Z0.500
G00 Z-1.100
G01 Z-2.000
G00 Z0.500
G00 Z-1.500
G01 Z-2.400
G00 Z0.500
G00 Z-1.900
G01 Z-2.800
G00 Z0.500
G00 Z-2.300
G01 Z-3.200
G00 Z0.500
G00 Z-2.700
G01 Z-3.500
G00 Z20.000


(No. 3 Drill: Drill 10)
G00 X10.279 Y18.921 Z20.000
G00 Z0.500
G01 Z-0.400 F120
G00 Z0.500
G00 Z0.100
G01 Z-0.800
G00 Z0.500
G00 Z-0.300
G01 Z-1.200
G00 Z0.500
G00 Z-0.700
G01 Z-1.600
G00 Z0.500
G00 Z-1.100
G01 Z-2.000
G00 Z0.500
G00 Z-1.500
G01 Z-2.400
G00 Z0.500
G00 Z-1.900
G01 Z-2.800
G00 Z0.500
G00 Z-2.300
G01 Z-3.200
G00 Z0.500
G00 Z-2.700
G01 Z-3.500
G00 Z20.000


(No. 4 Drill: Drill 11)
G00 X19.619 Y28.871 Z20.000
G00 Z0.500
G01 Z-0.400 F120
G00 Z0.500
G00 Z0.100
G01 Z-0.800
G00 Z0.500
G00 Z-0.300
G01 Z-1.200
G00 Z0.500
G00 Z-0.700
G01 Z-1.600
G00 Z0.500
G00 Z-1.100
G01 Z-2.000
G00 Z0.500
G00 Z-1.500
G01 Z-2.400
G00 Z0.500
G00 Z-1.900
G01 Z-2.800
G00 Z0.500
G00 Z-2.300
G01 Z-3.200
G00 Z0.500
G00 Z-2.700
G01 Z-3.500
G00 Z20.000


(No. 5 Drill: Drill 12)
G00 X23.388 Y27.541 Z20.000
G00 Z0.500
G01 Z-0.400 F120
G00 Z0.500
G00 Z0.100
G01 Z-0.800
G00 Z0.500
G00 Z-0.300
G01 Z-1.200
G00 Z0.500
G00 Z-0.700
G01 Z-1.600
G00 Z0.500
G00 Z-1.100
G01 Z-2.000
G00 Z0.500
G00 Z-1.500
G01 Z-2.400
G00 Z0.500
G00 Z-1.900
G01 Z-2.800
G00 Z0.500
G00 Z-2.300
G01 Z-3.200
G00 Z0.500
G00 Z-2.700
G01 Z-3.500
G00 Z20.000


(No. 6 Helical drill: Helical drill 2)
G00 X4.473 Y4.000 Z20.000
G00 Z0.500
G02 X3.764 Y3.591 Z0.367 I-0.4725 J0.0000 F120
G02 Y4.409 Z0.233 I0.2363 J0.4092
G02 X4.473 Y4.000 Z0.100 I0.2363 J-0.4092
G02 X3.764 Y3.591 Z0.067 I-0.4725 J0.0000
G02 Y4.409 Z0.033 I0.2363 J0.4092
G02 X4.473 Y4.000 Z0.000 I0.2363 J-0.4092
G02 X3.764 Y3.591 I-0.4725 J0.0000
G02 Y4.409 I0.2363 J0.4092
G02 X4.473 Y4.000 I0.2363 J-0.4092
G02 X3.764 Y3.591 Z-0.133 I-0.4725 J0.0000
G02 Y4.409 Z-0.267 I0.2363 J0.4092
G02 X4.473 Y4.000 Z-0.400 I0.2363 J-0.4092
G02 X3.764 Y3.591 I-0.4725 J0.0000
G02 Y4.409 I0.2363 J0.4092
G02 X4.473 Y4.000 I0.2363 J-0.4092
G02 X4.461 Y3.809 I-0.4767 J-0.0665 F400
G02 X4.371 Y3.629 I-0.4905 J0.1311
G02 X4.211 Y3.491 I-0.4219 J0.3277
G02 X4.000 Y3.423 I-0.2745 J0.4888
G02 X3.769 Y3.442 I-0.0666 J0.5832
G02 X3.555 Y3.555 I0.1718 J0.5888
G02 X3.394 Y3.749 I0.4028 J0.4970
G02 X3.318 Y4.000 I0.5869 J0.3152
G02 X3.345 Y4.271 I0.6893 J0.0666
G02 X3.480 Y4.520 I0.6868 J-0.2124
G02 X3.709 Y4.703 I0.5720 J-0.4777
G02 X4.000 Y4.788 I0.3557 J-0.6847
G02 X4.311 Y4.752 I0.0666 J-0.7951
G02 X4.594 Y4.594 I-0.2529 J-0.7845
G02 X4.800 Y4.331 I-0.5525 J-0.6467
G02 X4.893 Y4.000 I-0.7823 J-0.3961
G02 X4.849 Y3.648 I-0.9008 J-0.0666
G02 X4.668 Y3.332 I-0.8820 J0.2933
G02 X4.372 Y3.103 I-0.7213 J0.6272
G02 X4.000 Y3.003 I-0.4365 J0.8798
G02 X3.608 Y3.054 I-0.0666 J1.0063
G02 X3.258 Y3.258 I0.3337 J0.9795
G02 X3.006 Y3.588 I0.7018 J0.7959
G02 X2.900 Y4.000 I0.9792 J0.4707
G02 X2.984 Y4.421 I1.1000 J0.0000
G02 X3.222 Y4.778 I1.0163 J-0.4210
G02 X3.579 Y5.016 I0.7778 J-0.7778
G02 X4.000 Y5.100 I0.4210 J-1.0163
G02 X4.421 Y5.016 I0.0000 J-1.1000
G02 X4.778 Y4.778 I-0.4210 J-1.0163
G02 X5.016 Y4.421 I-0.7778 J-0.7778
G02 X5.100 Y4.000 I-1.0163 J-0.4210
G02 X3.450 Y3.047 I-1.1000 J0.0000
G02 Y4.953 I0.5500 J0.9526
G02 X5.100 Y4.000 I0.5500 J-0.9526
G02 X3.528 I-0.7863 J0.0000
G02 X4.473 I0.4725 J0.0000
G02 X3.764 Y3.591 Z-0.533 I-0.4725 J0.0000 F120
G02 Y4.409 Z-0.667 I0.2363 J0.4092
G02 X4.473 Y4.000 Z-0.800 I0.2363 J-0.4092
G02 X3.764 Y3.591 I-0.4725 J0.0000
G02 Y4.409 I0.2363 J0.4092
G02 X4.473 Y4.000 I0.2363 J-0.4092
G02 X4.461 Y3.809 I-0.4767 J-0.0665 F400
G02 X4.371 Y3.629 I-0.4905 J0.1311
G02 X4.211 Y3.491 I-0.4219 J0.3277
G02 X4.000 Y3.423 I-0.2745 J0.4888
G02 X3.769 Y3.442 I-0.0666 J0.5832
G02 X3.555 Y3.555 I0.1718 J0.5888
G02 X3.394 Y3.749 I0.4028 J0.4970
G02 X3.318 Y4.000 I0.5869 J0.3152
G02 X3.345 Y4.271 I0.6893 J0.0666
G02 X3.480 Y4.520 I0.6868 J-0.2124
G02 X3.709 Y4.703 I0.5720 J-0.4777
G02 X4.000 Y4.788 I0.3557 J-0.6847
G02 X4.311 Y4.752 I0.0666 J-0.7951
G02 X4.594 Y4.594 I-0.2529 J-0.7845
G02 X4.800 Y4.331 I-0.5525 J-0.6467
G02 X4.893 Y4.000 I-0.7823 J-0.3961
G02 X4.849 Y3.648 I-0.9008 J-0.0666
G02 X4.668 Y3.332 I-0.8820 J0.2933
G02 X4.372 Y3.103 I-0.7213 J0.6272
G02 X4.000 Y3.003 I-0.4365 J0.8798
G02 X3.608 Y3.054 I-0.0666 J1.0063
G02 X3.258 Y3.258 I0.3337 J0.9795
G02 X3.006 Y3.588 I0.7018 J0.7959
G02 X2.900 Y4.000 I0.9792 J0.4707
G02 X2.984 Y4.421 I1.1000 J0.0000
G02 X3.222 Y4.778 I1.0163 J-0.4210
G02 X3.579 Y5.016 I0.7778 J-0.7778
G02 X4.000 Y5.100 I0.4210 J-1.0163
G02 X4.421 Y5.016 I0.0000 J-1.1000
G02 X4.778 Y4.778 I-0.4210 J-1.0163
G02 X5.016 Y4.421 I-0.7778 J-0.7778
G02 X5.100 Y4.000 I-1.0163 J-0.4210
G02 X3.450 Y3.047 I-1.1000 J0.0000
G02 Y4.953 I0.5500 J0.9526
G02 X5.100 Y4.000 I0.5500 J-0.9526
G02 X3.528 I-0.7863 J0.0000
G02 X4.473 I0.4725 J0.0000
G02 X3.764 Y3.591 Z-0.933 I-0.4725 J0.0000 F120
G02 Y4.409 Z-1.067 I0.2363 J0.4092
G02 X4.473 Y4.000 Z-1.200 I0.2363 J-0.4092
G02 X3.764 Y3.591 I-0.4725 J0.0000
G02 Y4.409 I0.2363 J0.4092
G02 X4.473 Y4.000 I0.2363 J-0.4092
G02 X4.461 Y3.809 I-0.4767 J-0.0665 F400
G02 X4.371 Y3.629 I-0.4905 J0.1311
G02 X4.211 Y3.491 I-0.4219 J0.3277
G02 X4.000 Y3.423 I-0.2745 J0.4888
G02 X3.769 Y3.442 I-0.0666 J0.5832
G02 X3.555 Y3.555 I0.1718 J0.5888
G02 X3.394 Y3.749 I0.4028 J0.4970
G02 X3.318 Y4.000 I0.5869 J0.3152
G02 X3.345 Y4.271 I0.6893 J0.0666
G02 X3.480 Y4.520 I0.6868 J-0.2124
G02 X3.709 Y4.703 I0.5720 J-0.4777
G02 X4.000 Y4.788 I0.3557 J-0.6847
G02 X4.311 Y4.752 I0.0666 J-0.7951
G02 X4.594 Y4.594 I-0.2529 J-0.7845
G02 X4.800 Y4.331 I-0.5525 J-0.6467
G02 X4.893 Y4.000 I-0.7823 J-0.3961
G02 X4.849 Y3.648 I-0.9008 J-0.0666
G02 X4.668 Y3.332 I-0.8820 J0.2933
G02 X4.372 Y3.103 I-0.7213 J0.6272
G02 X4.000 Y3.003 I-0.4365 J0.8798
G02 X3.608 Y3.054 I-0.0666 J1.0063
G02 X3.258 Y3.258 I0.3337 J0.9795
G02 X3.006 Y3.588 I0.7018 J0.7959
G02 X2.900 Y4.000 I0.9792 J0.4707
G02 X2.984 Y4.421 I1.1000 J0.0000
G02 X3.222 Y4.778 I1.0163 J-0.4210
G02 X3.579 Y5.016 I0.7778 J-0.7778
G02 X4.000 Y5.100 I0.4210 J-1.0163
G02 X4.421 Y5.016 I0.0000 J-1.1000
G02 X4.778 Y4.778 I-0.4210 J-1.0163
G02 X5.016 Y4.421 I-0.7778 J-0.7778
G02 X5.100 Y4.000 I-1.0163 J-0.4210
G02 X3.450 Y3.047 I-1.1000 J0.0000
G02 Y4.953 I0.5500 J0.9526
G02 X5.100 Y4.000 I0.5500 J-0.9526
G02 X3.528 I-0.7863 J0.0000
G02 X4.473 I0.4725 J0.0000
G02 X3.764 Y3.591 Z-1.333 I-0.4725 J0.0000 F120
G02 Y4.409 Z-1.467 I0.2363 J0.4092
G02 X4.473 Y4.000 Z-1.600 I0.2363 J-0.4092
G02 X3.764 Y3.591 I-0.4725 J0.0000
G02 Y4.409 I0.2363 J0.4092
G02 X4.473 Y4.000 I0.2363 J-0.4092
G02 X4.461 Y3.809 I-0.4767 J-0.0665 F400
G02 X4.371 Y3.629 I-0.4905 J0.1311
G02 X4.211 Y3.491 I-0.4219 J0.3277
G02 X4.000 Y3.423 I-0.2745 J0.4888
G02 X3.769 Y3.442 I-0.0666 J0.5832
G02 X3.555 Y3.555 I0.1718 J0.5888
G02 X3.394 Y3.749 I0.4028 J0.4970
G02 X3.318 Y4.000 I0.5869 J0.3152
G02 X3.345 Y4.271 I0.6893 J0.0666
G02 X3.480 Y4.520 I0.6868 J-0.2124
G02 X3.709 Y4.703 I0.5720 J-0.4777
G02 X4.000 Y4.788 I0.3557 J-0.6847
G02 X4.311 Y4.752 I0.0666 J-0.7951
G02 X4.594 Y4.594 I-0.2529 J-0.7845
G02 X4.800 Y4.331 I-0.5525 J-0.6467
G02 X4.893 Y4.000 I-0.7823 J-0.3961
G02 X4.849 Y3.648 I-0.9008 J-0.0666
G02 X4.668 Y3.332 I-0.8820 J0.2933
G02 X4.372 Y3.103 I-0.7213 J0.6272
G02 X4.000 Y3.003 I-0.4365 J0.8798
G02 X3.608 Y3.054 I-0.0666 J1.0063
G02 X3.258 Y3.258 I0.3337 J0.9795
G02 X3.006 Y3.588 I0.7018 J0.7959
G02 X2.900 Y4.000 I0.9792 J0.4707
G02 X2.984 Y4.421 I1.1000 J0.0000
G02 X3.222 Y4.778 I1.0163 J-0.4210
G02 X3.579 Y5.016 I0.7778 J-0.7778
G02 X4.000 Y5.100 I0.4210 J-1.0163
G02 X4.421 Y5.016 I0.0000 J-1.1000
G02 X4.778 Y4.778 I-0.4210 J-1.0163
G02 X5.016 Y4.421 I-0.7778 J-0.7778
G02 X5.100 Y4.000 I-1.0163 J-0.4210
G02 X3.450 Y3.047 I-1.1000 J0.0000
G02 Y4.953 I0.5500 J0.9526
G02 X5.100 Y4.000 I0.5500 J-0.9526
G02 X3.528 I-0.7863 J0.0000
G02 X4.473 I0.4725 J0.0000
G02 X3.764 Y3.591 Z-1.733 I-0.4725 J0.0000 F120
G02 Y4.409 Z-1.867 I0.2363 J0.4092
G02 X4.473 Y4.000 Z-2.000 I0.2363 J-0.4092
G02 X3.764 Y3.591 I-0.4725 J0.0000
G02 Y4.409 I0.2363 J0.4092
G02 X4.473 Y4.000 I0.2363 J-0.4092
G02 X4.461 Y3.809 I-0.4767 J-0.0665 F400
G02 X4.371 Y3.629 I-0.4905 J0.1311
G02 X4.211 Y3.491 I-0.4219 J0.3277
G02 X4.000 Y3.423 I-0.2745 J0.4888
G02 X3.769 Y3.442 I-0.0666 J0.5832
G02 X3.555 Y3.555 I0.1718 J0.5888
G02 X3.394 Y3.749 I0.4028 J0.4970
G02 X3.318 Y4.000 I0.5869 J0.3152
G02 X3.345 Y4.271 I0.6893 J0.0666
G02 X3.480 Y4.520 I0.6868 J-0.2124
G02 X3.709 Y4.703 I0.5720 J-0.4777
G02 X4.000 Y4.788 I0.3557 J-0.6847
G02 X4.311 Y4.752 I0.0666 J-0.7951
G02 X4.594 Y4.594 I-0.2529 J-0.7845
G02 X4.800 Y4.331 I-0.5525 J-0.6467
G02 X4.893 Y4.000 I-0.7823 J-0.3961
G02 X4.849 Y3.648 I-0.9008 J-0.0666
G02 X4.668 Y3.332 I-0.8820 J0.2933
G02 X4.372 Y3.103 I-0.7213 J0.6272
G02 X4.000 Y3.003 I-0.4365 J0.8798
G02 X3.608 Y3.054 I-0.0666 J1.0063
G02 X3.258 Y3.258 I0.3337 J0.9795
G02 X3.006 Y3.588 I0.7018 J0.7959
G02 X2.900 Y4.000 I0.9792 J0.4707
G02 X2.984 Y4.421 I1.1000 J0.0000
G02 X3.222 Y4.778 I1.0163 J-0.4210
G02 X3.579 Y5.016 I0.7778 J-0.7778
G02 X4.000 Y5.100 I0.4210 J-1.0163
G02 X4.421 Y5.016 I0.0000 J-1.1000
G02 X4.778 Y4.778 I-0.4210 J-1.0163
G02 X5.016 Y4.421 I-0.7778 J-0.7778
G02 X5.100 Y4.000 I-1.0163 J-0.4210
G02 X3.450 Y3.047 I-1.1000 J0.0000
G02 Y4.953 I0.5500 J0.9526
G02 X5.100 Y4.000 I0.5500 J-0.9526
G02 X3.528 I-0.7863 J0.0000
G02 X4.473 I0.4725 J0.0000
G02 X3.764 Y3.591 Z-2.133 I-0.4725 J0.0000 F120
G02 Y4.409 Z-2.267 I0.2363 J0.4092
G02 X4.473 Y4.000 Z-2.400 I0.2363 J-0.4092
G02 X3.764 Y3.591 I-0.4725 J0.0000
G02 Y4.409 I0.2363 J0.4092
G02 X4.473 Y4.000 I0.2363 J-0.4092
G02 X4.461 Y3.809 I-0.4767 J-0.0665 F400
G02 X4.371 Y3.629 I-0.4905 J0.1311
G02 X4.211 Y3.491 I-0.4219 J0.3277
G02 X4.000 Y3.423 I-0.2745 J0.4888
G02 X3.769 Y3.442 I-0.0666 J0.5832
G02 X3.555 Y3.555 I0.1718 J0.5888
G02 X3.394 Y3.749 I0.4028 J0.4970
G02 X3.318 Y4.000 I0.5869 J0.3152
G02 X3.345 Y4.271 I0.6893 J0.0666
G02 X3.480 Y4.520 I0.6868 J-0.2124
G02 X3.709 Y4.703 I0.5720 J-0.4777
G02 X4.000 Y4.788 I0.3557 J-0.6847
G02 X4.311 Y4.752 I0.0666 J-0.7951
G02 X4.594 Y4.594 I-0.2529 J-0.7845
G02 X4.800 Y4.331 I-0.5525 J-0.6467
G02 X4.893 Y4.000 I-0.7823 J-0.3961
G02 X4.849 Y3.648 I-0.9008 J-0.0666
G02 X4.668 Y3.332 I-0.8820 J0.2933
G02 X4.372 Y3.103 I-0.7213 J0.6272
G02 X4.000 Y3.003 I-0.4365 J0.8798
G02 X3.608 Y3.054 I-0.0666 J1.0063
G02 X3.258 Y3.258 I0.3337 J0.9795
G02 X3.006 Y3.588 I0.7018 J0.7959
G02 X2.900 Y4.000 I0.9792 J0.4707
G02 X2.984 Y4.421 I1.1000 J0.0000
G02 X3.222 Y4.778 I1.0163 J-0.4210
G02 X3.579 Y5.016 I0.7778 J-0.7778
G02 X4.000 Y5.100 I0.4210 J-1.0163
G02 X4.421 Y5.016 I0.0000 J-1.1000
G02 X4.778 Y4.778 I-0.4210 J-1.0163
G02 X5.016 Y4.421 I-0.7778 J-0.7778
G02 X5.100 Y4.000 I-1.0163 J-0.4210
G02 X3.450 Y3.047 I-1.1000 J0.0000
G02 Y4.953 I0.5500 J0.9526
G02 X5.100 Y4.000 I0.5500 J-0.9526
G02 X3.528 I-0.7863 J0.0000
G02 X4.473 I0.4725 J0.0000
G02 X3.764 Y3.591 Z-2.533 I-0.4725 J0.0000 F120
G02 Y4.409 Z-2.667 I0.2363 J0.4092
G02 X4.473 Y4.000 Z-2.800 I0.2363 J-0.4092
G02 X3.764 Y3.591 I-0.4725 J0.0000
G02 Y4.409 I0.2363 J0.4092
G02 X4.473 Y4.000 I0.2363 J-0.4092
G02 X4.461 Y3.809 I-0.4767 J-0.0665 F400
G02 X4.371 Y3.629 I-0.4905 J0.1311
G02 X4.211 Y3.491 I-0.4219 J0.3277
G02 X4.000 Y3.423 I-0.2745 J0.4888
G02 X3.769 Y3.442 I-0.0666 J0.5832
G02 X3.555 Y3.555 I0.1718 J0.5888
G02 X3.394 Y3.749 I0.4028 J0.4970
G02 X3.318 Y4.000 I0.5869 J0.3152
G02 X3.345 Y4.271 I0.6893 J0.0666
G02 X3.480 Y4.520 I0.6868 J-0.2124
G02 X3.709 Y4.703 I0.5720 J-0.4777
G02 X4.000 Y4.788 I0.3557 J-0.6847
G02 X4.311 Y4.752 I0.0666 J-0.7951
G02 X4.594 Y4.594 I-0.2529 J-0.7845
G02 X4.800 Y4.331 I-0.5525 J-0.6467
G02 X4.893 Y4.000 I-0.7823 J-0.3961
G02 X4.849 Y3.648 I-0.9008 J-0.0666
G02 X4.668 Y3.332 I-0.8820 J0.2933
G02 X4.372 Y3.103 I-0.7213 J0.6272
G02 X4.000 Y3.003 I-0.4365 J0.8798
G02 X3.608 Y3.054 I-0.0666 J1.0063
G02 X3.258 Y3.258 I0.3337 J0.9795
G02 X3.006 Y3.588 I0.7018 J0.7959
G02 X2.900 Y4.000 I0.9792 J0.4707
G02 X2.984 Y4.421 I1.1000 J0.0000
G02 X3.222 Y4.778 I1.0163 J-0.4210
G02 X3.579 Y5.016 I0.7778 J-0.7778
G02 X4.000 Y5.100 I0.4210 J-1.0163
G02 X4.421 Y5.016 I0.0000 J-1.1000
G02 X4.778 Y4.778 I-0.4210 J-1.0163
G02 X5.016 Y4.421 I-0.7778 J-0.7778
G02 X5.100 Y4.000 I-1.0163 J-0.4210
G02 X3.450 Y3.047 I-1.1000 J0.0000
G02 Y4.953 I0.5500 J0.9526
G02 X5.100 Y4.000 I0.5500 J-0.9526
G02 X3.528 I-0.7863 J0.0000
G02 X4.473 I0.4725 J0.0000
G02 X3.764 Y3.591 Z-2.933 I-0.4725 J0.0000 F120
G02 Y4.409 Z-3.067 I0.2363 J0.4092
G02 X4.473 Y4.000 Z-3.200 I0.2363 J-0.4092
G02 X3.764 Y3.591 I-0.4725 J0.0000
G02 Y4.409 I0.2363 J0.4092
G02 X4.473 Y4.000 I0.2363 J-0.4092
G02 X4.461 Y3.809 I-0.4767 J-0.0665 F400
G02 X4.371 Y3.629 I-0.4905 J0.1311
G02 X4.211 Y3.491 I-0.4219 J0.3277
G02 X4.000 Y3.423 I-0.2745 J0.4888
G02 X3.769 Y3.442 I-0.0666 J0.5832
G02 X3.555 Y3.555 I0.1718 J0.5888
G02 X3.394 Y3.749 I0.4028 J0.4970
G02 X3.318 Y4.000 I0.5869 J0.3152
G02 X3.345 Y4.271 I0.6893 J0.0666
G02 X3.480 Y4.520 I0.6868 J-0.2124
G02 X3.709 Y4.703 I0.5720 J-0.4777
G02 X4.000 Y4.788 I0.3557 J-0.6847
G02 X4.311 Y4.752 I0.0666 J-0.7951
G02 X4.594 Y4.594 I-0.2529 J-0.7845
G02 X4.800 Y4.331 I-0.5525 J-0.6467
G02 X4.893 Y4.000 I-0.7823 J-0.3961
G02 X4.849 Y3.648 I-0.9008 J-0.0666
G02 X4.668 Y3.332 I-0.8820 J0.2933
G02 X4.372 Y3.103 I-0.7213 J0.6272
G02 X4.000 Y3.003 I-0.4365 J0.8798
G02 X3.608 Y3.054 I-0.0666 J1.0063
G02 X3.258 Y3.258 I0.3337 J0.9795
G02 X3.006 Y3.588 I0.7018 J0.7959
G02 X2.900 Y4.000 I0.9792 J0.4707
G02 X2.984 Y4.421 I1.1000 J0.0000
G02 X3.222 Y4.778 I1.0163 J-0.4210
G02 X3.579 Y5.016 I0.7778 J-0.7778
G02 X4.000 Y5.100 I0.4210 J-1.0163
G02 X4.421 Y5.016 I0.0000 J-1.1000
G02 X4.778 Y4.778 I-0.4210 J-1.0163
G02 X5.016 Y4.421 I-0.7778 J-0.7778
G02 X5.100 Y4.000 I-1.0163 J-0.4210
G02 X3.450 Y3.047 I-1.1000 J0.0000
G02 Y4.953 I0.5500 J0.9526
G02 X5.100 Y4.000 I0.5500 J-0.9526
G02 X3.528 I-0.7863 J0.0000
G02 X4.473 I0.4725 J0.0000
G02 X3.764 Y3.591 Z-3.300 I-0.4725 J0.0000 F120
G02 Y4.409 Z-3.400 I0.2363 J0.4092
G02 X4.473 Y4.000 Z-3.500 I0.2363 J-0.4092
G02 X3.764 Y3.591 I-0.4725 J0.0000
G02 Y4.409 I0.2363 J0.4092
G02 X4.473 Y4.000 I0.2363 J-0.4092
G02 X4.461 Y3.809 I-0.4767 J-0.0665 F400
G02 X4.371 Y3.629 I-0.4905 J0.1311
G02 X4.211 Y3.491 I-0.4219 J0.3277
G02 X4.000 Y3.423 I-0.2745 J0.4888
G02 X3.769 Y3.442 I-0.0666 J0.5832
G02 X3.555 Y3.555 I0.1718 J0.5888
G02 X3.394 Y3.749 I0.4028 J0.4970
G02 X3.318 Y4.000 I0.5869 J0.3152
G02 X3.345 Y4.271 I0.6893 J0.0666
G02 X3.480 Y4.520 I0.6868 J-0.2124
G02 X3.709 Y4.703 I0.5720 J-0.4777
G02 X4.000 Y4.788 I0.3557 J-0.6847
G02 X4.311 Y4.752 I0.0666 J-0.7951
G02 X4.594 Y4.594 I-0.2529 J-0.7845
G02 X4.800 Y4.331 I-0.5525 J-0.6467
G02 X4.893 Y4.000 I-0.7823 J-0.3961
G02 X4.849 Y3.648 I-0.9008 J-0.0666
G02 X4.668 Y3.332 I-0.8820 J0.2933
G02 X4.372 Y3.103 I-0.7213 J0.6272
G02 X4.000 Y3.003 I-0.4365 J0.8798
G02 X3.608 Y3.054 I-0.0666 J1.0063
G02 X3.258 Y3.258 I0.3337 J0.9795
G02 X3.006 Y3.588 I0.7018 J0.7959
G02 X2.900 Y4.000 I0.9792 J0.4707
G02 X2.984 Y4.421 I1.1000 J0.0000
G02 X3.222 Y4.778 I1.0163 J-0.4210
G02 X3.579 Y5.016 I0.7778 J-0.7778
G02 X4.000 Y5.100 I0.4210 J-1.0163
G02 X4.421 Y5.016 I0.0000 J-1.1000
G02 X4.778 Y4.778 I-0.4210 J-1.0163
G02 X5.016 Y4.421 I-0.7778 J-0.7778
G02 X5.100 Y4.000 I-1.0163 J-0.4210
G02 X3.450 Y3.047 I-1.1000 J0.0000
G02 Y4.953 I0.5500 J0.9526
G02 X5.100 Y4.000 I0.5500 J-0.9526
G02 X4.575 Y3.475 Z-3.000 I-0.5250 J0.0000 F120
G00 Z20.000


(No. 7 Helical drill: Helical drill 3)
G00 X4.473 Y31.000 Z20.000
G00 Z0.500
G02 X3.764 Y30.591 Z0.367 I-0.4725 J0.0000 F120
G02 Y31.409 Z0.233 I0.2363 J0.4092
G02 X4.473 Y31.000 Z0.100 I0.2363 J-0.4092
G02 X3.764 Y30.591 Z0.067 I-0.4725 J0.0000
G02 Y31.409 Z0.033 I0.2363 J0.4092
G02 X4.473 Y31.000 Z0.000 I0.2363 J-0.4092
G02 X3.764 Y30.591 I-0.4725 J0.0000
G02 Y31.409 I0.2363 J0.4092
G02 X4.473 Y31.000 I0.2363 J-0.4092
G02 X3.764 Y30.591 Z-0.133 I-0.4725 J0.0000
G02 Y31.409 Z-0.267 I0.2363 J0.4092
G02 X4.473 Y31.000 Z-0.400 I0.2363 J-0.4092
G02 X3.764 Y30.591 I-0.4725 J0.0000
G02 Y31.409 I0.2363 J0.4092
G02 X4.473 Y31.000 I0.2363 J-0.4092
G02 X4.461 Y30.809 I-0.4767 J-0.0665 F400
G02 X4.371 Y30.629 I-0.4905 J0.1311
G02 X4.211 Y30.491 I-0.4219 J0.3277
G02 X4.000 Y30.423 I-0.2745 J0.4888
G02 X3.769 Y30.442 I-0.0666 J0.5832
G02 X3.555 Y30.555 I0.1718 J0.5888
G02 X3.394 Y30.749 I0.4028 J0.4970
G02 X3.318 Y31.000 I0.5869 J0.3152
G02 X3.345 Y31.271 I0.6893 J0.0666
G02 X3.480 Y31.520 I0.6868 J-0.2124
G02 X3.709 Y31.703 I0.5720 J-0.4777
G02 X4.000 Y31.788 I0.3557 J-0.6847
G02 X4.311 Y31.752 I0.0666 J-0.7951
G02 X4.594 Y31.594 I-0.2529 J-0.7845
G02 X4.800 Y31.331 I-0.5525 J-0.6467
G02 X4.893 Y31.000 I-0.7823 J-0.3961
G02 X4.849 Y30.648 I-0.9008 J-0.0666
G02 X4.668 Y30.332 I-0.8820 J0.2933
G02 X4.372 Y30.103 I-0.7213 J0.6272
G02 X4.000 Y30.003 I-0.4365 J0.8798
G02 X3.608 Y30.054 I-0.0666 J1.0063
G02 X3.258 Y30.258 I0.3337 J0.9795
G02 X3.006 Y30.588 I0.7018 J0.7959
G02 X2.900 Y31.000 I0.9792 J0.4707
G02 X2.984 Y31.421 I1.1000 J0.0000
G02 X3.222 Y31.778 I1.0163 J-0.4210
G02 X3.579 Y32.016 I0.7778 J-0.7778
G02 X4.000 Y32.100 I0.4210 J-1.0163
G02 X4.421 Y32.016 I0.0000 J-1.1000
G02 X4.778 Y31.778 I-0.4210 J-1.0163
G02 X5.016 Y31.421 I-0.7778 J-0.7778
G02 X5.100 Y31.000 I-1.0163 J-0.4210
G02 X3.450 Y30.047 I-1.1000 J0.0000
G02 Y31.953 I0.5500 J0.9526
G02 X5.100 Y31.000 I0.5500 J-0.9526
G02 X3.528 I-0.7862 J0.0000
G02 X4.473 I0.4725 J0.0000
G02 X3.764 Y30.591 Z-0.533 I-0.4725 J0.0000 F120
G02 Y31.409 Z-0.667 I0.2363 J0.4092
G02 X4.473 Y31.000 Z-0.800 I0.2363 J-0.4092
G02 X3.764 Y30.591 I-0.4725 J0.0000
G02 Y31.409 I0.2363 J0.4092
G02 X4.473 Y31.000 I0.2363 J-0.4092
G02 X4.461 Y30.809 I-0.4767 J-0.0665 F400
G02 X4.371 Y30.629 I-0.4905 J0.1311
G02 X4.211 Y30.491 I-0.4219 J0.3277
G02 X4.000 Y30.423 I-0.2745 J0.4888
G02 X3.769 Y30.442 I-0.0666 J0.5832
G02 X3.555 Y30.555 I0.1718 J0.5888
G02 X3.394 Y30.749 I0.4028 J0.4970
G02 X3.318 Y31.000 I0.5869 J0.3152
G02 X3.345 Y31.271 I0.6893 J0.0666
G02 X3.480 Y31.520 I0.6868 J-0.2124
G02 X3.709 Y31.703 I0.5720 J-0.4777
G02 X4.000 Y31.788 I0.3557 J-0.6847
G02 X4.311 Y31.752 I0.0666 J-0.7951
G02 X4.594 Y31.594 I-0.2529 J-0.7845
G02 X4.800 Y31.331 I-0.5525 J-0.6467
G02 X4.893 Y31.000 I-0.7823 J-0.3961
G02 X4.849 Y30.648 I-0.9008 J-0.0666
G02 X4.668 Y30.332 I-0.8820 J0.2933
G02 X4.372 Y30.103 I-0.7213 J0.6272
G02 X4.000 Y30.003 I-0.4365 J0.8798
G02 X3.608 Y30.054 I-0.0666 J1.0063
G02 X3.258 Y30.258 I0.3337 J0.9795
G02 X3.006 Y30.588 I0.7018 J0.7959
G02 X2.900 Y31.000 I0.9792 J0.4707
G02 X2.984 Y31.421 I1.1000 J0.0000
G02 X3.222 Y31.778 I1.0163 J-0.4210
G02 X3.579 Y32.016 I0.7778 J-0.7778
G02 X4.000 Y32.100 I0.4210 J-1.0163
G02 X4.421 Y32.016 I0.0000 J-1.1000
G02 X4.778 Y31.778 I-0.4210 J-1.0163
G02 X5.016 Y31.421 I-0.7778 J-0.7778
G02 X5.100 Y31.000 I-1.0163 J-0.4210
G02 X3.450 Y30.047 I-1.1000 J0.0000
G02 Y31.953 I0.5500 J0.9526
G02 X5.100 Y31.000 I0.5500 J-0.9526
G02 X3.528 I-0.7862 J0.0000
G02 X4.473 I0.4725 J0.0000
G02 X3.764 Y30.591 Z-0.933 I-0.4725 J0.0000 F120
G02 Y31.409 Z-1.067 I0.2363 J0.4092
G02 X4.473 Y31.000 Z-1.200 I0.2363 J-0.4092
G02 X3.764 Y30.591 I-0.4725 J0.0000
G02 Y31.409 I0.2363 J0.4092
G02 X4.473 Y31.000 I0.2363 J-0.4092
G02 X4.461 Y30.809 I-0.4767 J-0.0665 F400
G02 X4.371 Y30.629 I-0.4905 J0.1311
G02 X4.211 Y30.491 I-0.4219 J0.3277
G02 X4.000 Y30.423 I-0.2745 J0.4888
G02 X3.769 Y30.442 I-0.0666 J0.5832
G02 X3.555 Y30.555 I0.1718 J0.5888
G02 X3.394 Y30.749 I0.4028 J0.4970
G02 X3.318 Y31.000 I0.5869 J0.3152
G02 X3.345 Y31.271 I0.6893 J0.0666
G02 X3.480 Y31.520 I0.6868 J-0.2124
G02 X3.709 Y31.703 I0.5720 J-0.4777
G02 X4.000 Y31.788 I0.3557 J-0.6847
G02 X4.311 Y31.752 I0.0666 J-0.7951
G02 X4.594 Y31.594 I-0.2529 J-0.7845
G02 X4.800 Y31.331 I-0.5525 J-0.6467
G02 X4.893 Y31.000 I-0.7823 J-0.3961
G02 X4.849 Y30.648 I-0.9008 J-0.0666
G02 X4.668 Y30.332 I-0.8820 J0.2933
G02 X4.372 Y30.103 I-0.7213 J0.6272
G02 X4.000 Y30.003 I-0.4365 J0.8798
G02 X3.608 Y30.054 I-0.0666 J1.0063
G02 X3.258 Y30.258 I0.3337 J0.9795
G02 X3.006 Y30.588 I0.7018 J0.7959
G02 X2.900 Y31.000 I0.9792 J0.4707
G02 X2.984 Y31.421 I1.1000 J0.0000
G02 X3.222 Y31.778 I1.0163 J-0.4210
G02 X3.579 Y32.016 I0.7778 J-0.7778
G02 X4.000 Y32.100 I0.4210 J-1.0163
G02 X4.421 Y32.016 I0.0000 J-1.1000
G02 X4.778 Y31.778 I-0.4210 J-1.0163
G02 X5.016 Y31.421 I-0.7778 J-0.7778
G02 X5.100 Y31.000 I-1.0163 J-0.4210
G02 X3.450 Y30.047 I-1.1000 J0.0000
G02 Y31.953 I0.5500 J0.9526
G02 X5.100 Y31.000 I0.5500 J-0.9526
G02 X3.528 I-0.7862 J0.0000
G02 X4.473 I0.4725 J0.0000
G02 X3.764 Y30.591 Z-1.333 I-0.4725 J0.0000 F120
G02 Y31.409 Z-1.467 I0.2363 J0.4092
G02 X4.473 Y31.000 Z-1.600 I0.2363 J-0.4092
G02 X3.764 Y30.591 I-0.4725 J0.0000
G02 Y31.409 I0.2363 J0.4092
G02 X4.473 Y31.000 I0.2363 J-0.4092
G02 X4.461 Y30.809 I-0.4767 J-0.0665 F400
G02 X4.371 Y30.629 I-0.4905 J0.1311
G02 X4.211 Y30.491 I-0.4219 J0.3277
G02 X4.000 Y30.423 I-0.2745 J0.4888
G02 X3.769 Y30.442 I-0.0666 J0.5832
G02 X3.555 Y30.555 I0.1718 J0.5888
G02 X3.394 Y30.749 I0.4028 J0.4970
G02 X3.318 Y31.000 I0.5869 J0.3152
G02 X3.345 Y31.271 I0.6893 J0.0666
G02 X3.480 Y31.520 I0.6868 J-0.2124
G02 X3.709 Y31.703 I0.5720 J-0.4777
G02 X4.000 Y31.788 I0.3557 J-0.6847
G02 X4.311 Y31.752 I0.0666 J-0.7951
G02 X4.594 Y31.594 I-0.2529 J-0.7845
G02 X4.800 Y31.331 I-0.5525 J-0.6467
G02 X4.893 Y31.000 I-0.7823 J-0.3961
G02 X4.849 Y30.648 I-0.9008 J-0.0666
G02 X4.668 Y30.332 I-0.8820 J0.2933
G02 X4.372 Y30.103 I-0.7213 J0.6272
G02 X4.000 Y30.003 I-0.4365 J0.8798
G02 X3.608 Y30.054 I-0.0666 J1.0063
G02 X3.258 Y30.258 I0.3337 J0.9795
G02 X3.006 Y30.588 I0.7018 J0.7959
G02 X2.900 Y31.000 I0.9792 J0.4707
G02 X2.984 Y31.421 I1.1000 J0.0000
G02 X3.222 Y31.778 I1.0163 J-0.4210
G02 X3.579 Y32.016 I0.7778 J-0.7778
G02 X4.000 Y32.100 I0.4210 J-1.0163
G02 X4.421 Y32.016 I0.0000 J-1.1000
G02 X4.778 Y31.778 I-0.4210 J-1.0163
G02 X5.016 Y31.421 I-0.7778 J-0.7778
G02 X5.100 Y31.000 I-1.0163 J-0.4210
G02 X3.450 Y30.047 I-1.1000 J0.0000
G02 Y31.953 I0.5500 J0.9526
G02 X5.100 Y31.000 I0.5500 J-0.9526
G02 X3.528 I-0.7862 J0.0000
G02 X4.473 I0.4725 J0.0000
G02 X3.764 Y30.591 Z-1.733 I-0.4725 J0.0000 F120
G02 Y31.409 Z-1.867 I0.2363 J0.4092
G02 X4.473 Y31.000 Z-2.000 I0.2363 J-0.4092
G02 X3.764 Y30.591 I-0.4725 J0.0000
G02 Y31.409 I0.2363 J0.4092
G02 X4.473 Y31.000 I0.2363 J-0.4092
G02 X4.461 Y30.809 I-0.4767 J-0.0665 F400
G02 X4.371 Y30.629 I-0.4905 J0.1311
G02 X4.211 Y30.491 I-0.4219 J0.3277
G02 X4.000 Y30.423 I-0.2745 J0.4888
G02 X3.769 Y30.442 I-0.0666 J0.5832
G02 X3.555 Y30.555 I0.1718 J0.5888
G02 X3.394 Y30.749 I0.4028 J0.4970
G02 X3.318 Y31.000 I0.5869 J0.3152
G02 X3.345 Y31.271 I0.6893 J0.0666
G02 X3.480 Y31.520 I0.6868 J-0.2124
G02 X3.709 Y31.703 I0.5720 J-0.4777
G02 X4.000 Y31.788 I0.3557 J-0.6847
G02 X4.311 Y31.752 I0.0666 J-0.7951
G02 X4.594 Y31.594 I-0.2529 J-0.7845
G02 X4.800 Y31.331 I-0.5525 J-0.6467
G02 X4.893 Y31.000 I-0.7823 J-0.3961
G02 X4.849 Y30.648 I-0.9008 J-0.0666
G02 X4.668 Y30.332 I-0.8820 J0.2933
G02 X4.372 Y30.103 I-0.7213 J0.6272
G02 X4.000 Y30.003 I-0.4365 J0.8798
G02 X3.608 Y30.054 I-0.0666 J1.0063
G02 X3.258 Y30.258 I0.3337 J0.9795
G02 X3.006 Y30.588 I0.7018 J0.7959
G02 X2.900 Y31.000 I0.9792 J0.4707
G02 X2.984 Y31.421 I1.1000 J0.0000
G02 X3.222 Y31.778 I1.0163 J-0.4210
G02 X3.579 Y32.016 I0.7778 J-0.7778
G02 X4.000 Y32.100 I0.4210 J-1.0163
G02 X4.421 Y32.016 I0.0000 J-1.1000
G02 X4.778 Y31.778 I-0.4210 J-1.0163
G02 X5.016 Y31.421 I-0.7778 J-0.7778
G02 X5.100 Y31.000 I-1.0163 J-0.4210
G02 X3.450 Y30.047 I-1.1000 J0.0000
G02 Y31.953 I0.5500 J0.9526
G02 X5.100 Y31.000 I0.5500 J-0.9526
G02 X3.528 I-0.7862 J0.0000
G02 X4.473 I0.4725 J0.0000
G02 X3.764 Y30.591 Z-2.133 I-0.4725 J0.0000 F120
G02 Y31.409 Z-2.267 I0.2363 J0.4092
G02 X4.473 Y31.000 Z-2.400 I0.2363 J-0.4092
G02 X3.764 Y30.591 I-0.4725 J0.0000
G02 Y31.409 I0.2363 J0.4092
G02 X4.473 Y31.000 I0.2363 J-0.4092
G02 X4.461 Y30.809 I-0.4767 J-0.0665 F400
G02 X4.371 Y30.629 I-0.4905 J0.1311
G02 X4.211 Y30.491 I-0.4219 J0.3277
G02 X4.000 Y30.423 I-0.2745 J0.4888
G02 X3.769 Y30.442 I-0.0666 J0.5832
G02 X3.555 Y30.555 I0.1718 J0.5888
G02 X3.394 Y30.749 I0.4028 J0.4970
G02 X3.318 Y31.000 I0.5869 J0.3152
G02 X3.345 Y31.271 I0.6893 J0.0666
G02 X3.480 Y31.520 I0.6868 J-0.2124
G02 X3.709 Y31.703 I0.5720 J-0.4777
G02 X4.000 Y31.788 I0.3557 J-0.6847
G02 X4.311 Y31.752 I0.0666 J-0.7951
G02 X4.594 Y31.594 I-0.2529 J-0.7845
G02 X4.800 Y31.331 I-0.5525 J-0.6467
G02 X4.893 Y31.000 I-0.7823 J-0.3961
G02 X4.849 Y30.648 I-0.9008 J-0.0666
G02 X4.668 Y30.332 I-0.8820 J0.2933
G02 X4.372 Y30.103 I-0.7213 J0.6272
G02 X4.000 Y30.003 I-0.4365 J0.8798
G02 X3.608 Y30.054 I-0.0666 J1.0063
G02 X3.258 Y30.258 I0.3337 J0.9795
G02 X3.006 Y30.588 I0.7018 J0.7959
G02 X2.900 Y31.000 I0.9792 J0.4707
G02 X2.984 Y31.421 I1.1000 J0.0000
G02 X3.222 Y31.778 I1.0163 J-0.4210
G02 X3.579 Y32.016 I0.7778 J-0.7778
G02 X4.000 Y32.100 I0.4210 J-1.0163
G02 X4.421 Y32.016 I0.0000 J-1.1000
G02 X4.778 Y31.778 I-0.4210 J-1.0163
G02 X5.016 Y31.421 I-0.7778 J-0.7778
G02 X5.100 Y31.000 I-1.0163 J-0.4210
G02 X3.450 Y30.047 I-1.1000 J0.0000
G02 Y31.953 I0.5500 J0.9526
G02 X5.100 Y31.000 I0.5500 J-0.9526
G02 X3.528 I-0.7862 J0.0000
G02 X4.473 I0.4725 J0.0000
G02 X3.764 Y30.591 Z-2.533 I-0.4725 J0.0000 F120
G02 Y31.409 Z-2.667 I0.2363 J0.4092
G02 X4.473 Y31.000 Z-2.800 I0.2363 J-0.4092
G02 X3.764 Y30.591 I-0.4725 J0.0000
G02 Y31.409 I0.2363 J0.4092
G02 X4.473 Y31.000 I0.2363 J-0.4092
G02 X4.461 Y30.809 I-0.4767 J-0.0665 F400
G02 X4.371 Y30.629 I-0.4905 J0.1311
G02 X4.211 Y30.491 I-0.4219 J0.3277
G02 X4.000 Y30.423 I-0.2745 J0.4888
G02 X3.769 Y30.442 I-0.0666 J0.5832
G02 X3.555 Y30.555 I0.1718 J0.5888
G02 X3.394 Y30.749 I0.4028 J0.4970
G02 X3.318 Y31.000 I0.5869 J0.3152
G02 X3.345 Y31.271 I0.6893 J0.0666
G02 X3.480 Y31.520 I0.6868 J-0.2124
G02 X3.709 Y31.703 I0.5720 J-0.4777
G02 X4.000 Y31.788 I0.3557 J-0.6847
G02 X4.311 Y31.752 I0.0666 J-0.7951
G02 X4.594 Y31.594 I-0.2529 J-0.7845
G02 X4.800 Y31.331 I-0.5525 J-0.6467
G02 X4.893 Y31.000 I-0.7823 J-0.3961
G02 X4.849 Y30.648 I-0.9008 J-0.0666
G02 X4.668 Y30.332 I-0.8820 J0.2933
G02 X4.372 Y30.103 I-0.7213 J0.6272
G02 X4.000 Y30.003 I-0.4365 J0.8798
G02 X3.608 Y30.054 I-0.0666 J1.0063
G02 X3.258 Y30.258 I0.3337 J0.9795
G02 X3.006 Y30.588 I0.7018 J0.7959
G02 X2.900 Y31.000 I0.9792 J0.4707
G02 X2.984 Y31.421 I1.1000 J0.0000
G02 X3.222 Y31.778 I1.0163 J-0.4210
G02 X3.579 Y32.016 I0.7778 J-0.7778
G02 X4.000 Y32.100 I0.4210 J-1.0163
G02 X4.421 Y32.016 I0.0000 J-1.1000
G02 X4.778 Y31.778 I-0.4210 J-1.0163
G02 X5.016 Y31.421 I-0.7778 J-0.7778
G02 X5.100 Y31.000 I-1.0163 J-0.4210
G02 X3.450 Y30.047 I-1.1000 J0.0000
G02 Y31.953 I0.5500 J0.9526
G02 X5.100 Y31.000 I0.5500 J-0.9526
G02 X3.528 I-0.7862 J0.0000
G02 X4.473 I0.4725 J0.0000
G02 X3.764 Y30.591 Z-2.933 I-0.4725 J0.0000 F120
G02 Y31.409 Z-3.067 I0.2363 J0.4092
G02 X4.473 Y31.000 Z-3.200 I0.2363 J-0.4092
G02 X3.764 Y30.591 I-0.4725 J0.0000
G02 Y31.409 I0.2363 J0.4092
G02 X4.473 Y31.000 I0.2363 J-0.4092
G02 X4.461 Y30.809 I-0.4767 J-0.0665 F400
G02 X4.371 Y30.629 I-0.4905 J0.1311
G02 X4.211 Y30.491 I-0.4219 J0.3277
G02 X4.000 Y30.423 I-0.2745 J0.4888
G02 X3.769 Y30.442 I-0.0666 J0.5832
G02 X3.555 Y30.555 I0.1718 J0.5888
G02 X3.394 Y30.749 I0.4028 J0.4970
G02 X3.318 Y31.000 I0.5869 J0.3152
G02 X3.345 Y31.271 I0.6893 J0.0666
G02 X3.480 Y31.520 I0.6868 J-0.2124
G02 X3.709 Y31.703 I0.5720 J-0.4777
G02 X4.000 Y31.788 I0.3557 J-0.6847
G02 X4.311 Y31.752 I0.0666 J-0.7951
G02 X4.594 Y31.594 I-0.2529 J-0.7845
G02 X4.800 Y31.331 I-0.5525 J-0.6467
G02 X4.893 Y31.000 I-0.7823 J-0.3961
G02 X4.849 Y30.648 I-0.9008 J-0.0666
G02 X4.668 Y30.332 I-0.8820 J0.2933
G02 X4.372 Y30.103 I-0.7213 J0.6272
G02 X4.000 Y30.003 I-0.4365 J0.8798
G02 X3.608 Y30.054 I-0.0666 J1.0063
G02 X3.258 Y30.258 I0.3337 J0.9795
G02 X3.006 Y30.588 I0.7018 J0.7959
G02 X2.900 Y31.000 I0.9792 J0.4707
G02 X2.984 Y31.421 I1.1000 J0.0000
G02 X3.222 Y31.778 I1.0163 J-0.4210
G02 X3.579 Y32.016 I0.7778 J-0.7778
G02 X4.000 Y32.100 I0.4210 J-1.0163
G02 X4.421 Y32.016 I0.0000 J-1.1000
G02 X4.778 Y31.778 I-0.4210 J-1.0163
G02 X5.016 Y31.421 I-0.7778 J-0.7778
G02 X5.100 Y31.000 I-1.0163 J-0.4210
G02 X3.450 Y30.047 I-1.1000 J0.0000
G02 Y31.953 I0.5500 J0.9526
G02 X5.100 Y31.000 I0.5500 J-0.9526
G02 X3.528 I-0.7862 J0.0000
G02 X4.473 I0.4725 J0.0000
G02 X3.764 Y30.591 Z-3.300 I-0.4725 J0.0000 F120
G02 Y31.409 Z-3.400 I0.2363 J0.4092
G02 X4.473 Y31.000 Z-3.500 I0.2363 J-0.4092
G02 X3.764 Y30.591 I-0.4725 J0.0000
G02 Y31.409 I0.2363 J0.4092
G02 X4.473 Y31.000 I0.2363 J-0.4092
G02 X4.461 Y30.809 I-0.4767 J-0.0665 F400
G02 X4.371 Y30.629 I-0.4905 J0.1311
G02 X4.211 Y30.491 I-0.4219 J0.3277
G02 X4.000 Y30.423 I-0.2745 J0.4888
G02 X3.769 Y30.442 I-0.0666 J0.5832
G02 X3.555 Y30.555 I0.1718 J0.5888
G02 X3.394 Y30.749 I0.4028 J0.4970
G02 X3.318 Y31.000 I0.5869 J0.3152
G02 X3.345 Y31.271 I0.6893 J0.0666
G02 X3.480 Y31.520 I0.6868 J-0.2124
G02 X3.709 Y31.703 I0.5720 J-0.4777
G02 X4.000 Y31.788 I0.3557 J-0.6847
G02 X4.311 Y31.752 I0.0666 J-0.7951
G02 X4.594 Y31.594 I-0.2529 J-0.7845
G02 X4.800 Y31.331 I-0.5525 J-0.6467
G02 X4.893 Y31.000 I-0.7823 J-0.3961
G02 X4.849 Y30.648 I-0.9008 J-0.0666
G02 X4.668 Y30.332 I-0.8820 J0.2933
G02 X4.372 Y30.103 I-0.7213 J0.6272
G02 X4.000 Y30.003 I-0.4365 J0.8798
G02 X3.608 Y30.054 I-0.0666 J1.0063
G02 X3.258 Y30.258 I0.3337 J0.9795
G02 X3.006 Y30.588 I0.7018 J0.7959
G02 X2.900 Y31.000 I0.9792 J0.4707
G02 X2.984 Y31.421 I1.1000 J0.0000
G02 X3.222 Y31.778 I1.0163 J-0.4210
G02 X3.579 Y32.016 I0.7778 J-0.7778
G02 X4.000 Y32.100 I0.4210 J-1.0163
G02 X4.421 Y32.016 I0.0000 J-1.1000
G02 X4.778 Y31.778 I-0.4210 J-1.0163
G02 X5.016 Y31.421 I-0.7778 J-0.7778
G02 X5.100 Y31.000 I-1.0163 J-0.4210
G02 X3.450 Y30.047 I-1.1000 J0.0000
G02 Y31.953 I0.5500 J0.9526
G02 X5.100 Y31.000 I0.5500 J-0.9526
G02 X4.575 Y30.475 Z-3.000 I-0.5250 J0.0000 F120
G00 Z20.000


(No. 8 Helical drill: Helical drill 4)
G00 X33.972 Y31.000 Z20.000
G00 Z0.500
G02 X33.264 Y30.591 Z0.367 I-0.4725 J0.0000 F120
G02 Y31.409 Z0.233 I0.2362 J0.4092
G02 X33.972 Y31.000 Z0.100 I0.2362 J-0.4092
G02 X33.264 Y30.591 Z0.067 I-0.4725 J0.0000
G02 Y31.409 Z0.033 I0.2362 J0.4092
G02 X33.972 Y31.000 Z0.000 I0.2362 J-0.4092
G02 X33.264 Y30.591 I-0.4725 J0.0000
G02 Y31.409 I0.2362 J0.4092
G02 X33.972 Y31.000 I0.2362 J-0.4092
G02 X33.264 Y30.591 Z-0.133 I-0.4725 J0.0000
G02 Y31.409 Z-0.267 I0.2362 J0.4092
G02 X33.972 Y31.000 Z-0.400 I0.2362 J-0.4092
G02 X33.264 Y30.591 I-0.4725 J0.0000
G02 Y31.409 I0.2362 J0.4092
G02 X33.972 Y31.000 I0.2362 J-0.4092
G02 X33.961 Y30.809 I-0.4767 J-0.0665 F400
G02 X33.871 Y30.629 I-0.4905 J0.1311
G02 X33.711 Y30.491 I-0.4219 J0.3277
G02 X33.500 Y30.423 I-0.2745 J0.4888
G02 X33.269 Y30.442 I-0.0666 J0.5832
G02 X33.055 Y30.555 I0.1718 J0.5888
G02 X32.894 Y30.749 I0.4028 J0.4970
G02 X32.817 Y31.000 I0.5869 J0.3152
G02 X32.845 Y31.271 I0.6893 J0.0666
G02 X32.980 Y31.520 I0.6868 J-0.2124
G02 X33.209 Y31.703 I0.5720 J-0.4777
G02 X33.500 Y31.788 I0.3557 J-0.6847
G02 X33.811 Y31.752 I0.0666 J-0.7951
G02 X34.094 Y31.594 I-0.2529 J-0.7845
G02 X34.300 Y31.331 I-0.5525 J-0.6467
G02 X34.392 Y31.000 I-0.7823 J-0.3961
G02 X34.349 Y30.648 I-0.9008 J-0.0666
G02 X34.168 Y30.332 I-0.8820 J0.2933
G02 X33.872 Y30.103 I-0.7213 J0.6272
G02 X33.500 Y30.003 I-0.4365 J0.8798
G02 X33.108 Y30.054 I-0.0666 J1.0063
G02 X32.758 Y30.258 I0.3337 J0.9795
G02 X32.506 Y30.588 I0.7018 J0.7959
G02 X32.400 Y31.000 I0.9792 J0.4707
G02 X32.484 Y31.421 I1.1000 J0.0000
G02 X32.722 Y31.778 I1.0163 J-0.4210
G02 X33.079 Y32.016 I0.7778 J-0.7778
G02 X33.500 Y32.100 I0.4210 J-1.0163
G02 X33.921 Y32.016 I0.0000 J-1.1000
G02 X34.278 Y31.778 I-0.4210 J-1.0163
G02 X34.516 Y31.421 I-0.7778 J-0.7778
G02 X34.600 Y31.000 I-1.0163 J-0.4210
G02 X32.950 Y30.047 I-1.1000 J0.0000
G02 Y31.953 I0.5500 J0.9526
G02 X34.600 Y31.000 I0.5500 J-0.9526
G02 X33.027 I-0.7863 J0.0000
G02 X33.972 I0.4725 J0.0000
G02 X33.264 Y30.591 Z-0.533 I-0.4725 J0.0000 F120
G02 Y31.409 Z-0.667 I0.2362 J0.4092
G02 X33.972 Y31.000 Z-0.800 I0.2362 J-0.4092
G02 X33.264 Y30.591 I-0.4725 J0.0000
G02 Y31.409 I0.2362 J0.4092
G02 X33.972 Y31.000 I0.2362 J-0.4092
G02 X33.961 Y30.809 I-0.4767 J-0.0665 F400
G02 X33.871 Y30.629 I-0.4905 J0.1311
G02 X33.711 Y30.491 I-0.4219 J0.3277
G02 X33.500 Y30.423 I-0.2745 J0.4888
G02 X33.269 Y30.442 I-0.0666 J0.5832
G02 X33.055 Y30.555 I0.1718 J0.5888
G02 X32.894 Y30.749 I0.4028 J0.4970
G02 X32.817 Y31.000 I0.5869 J0.3152
G02 X32.845 Y31.271 I0.6893 J0.0666
G02 X32.980 Y31.520 I0.6868 J-0.2124
G02 X33.209 Y31.703 I0.5720 J-0.4777
G02 X33.500 Y31.788 I0.3557 J-0.6847
G02 X33.811 Y31.752 I0.0666 J-0.7951
G02 X34.094 Y31.594 I-0.2529 J-0.7845
G02 X34.300 Y31.331 I-0.5525 J-0.6467
G02 X34.392 Y31.000 I-0.7823 J-0.3961
G02 X34.349 Y30.648 I-0.9008 J-0.0666
G02 X34.168 Y30.332 I-0.8820 J0.2933
G02 X33.872 Y30.103 I-0.7213 J0.6272
G02 X33.500 Y30.003 I-0.4365 J0.8798
G02 X33.108 Y30.054 I-0.0666 J1.0063
G02 X32.758 Y30.258 I0.3337 J0.9795
G02 X32.506 Y30.588 I0.7018 J0.7959
G02 X32.400 Y31.000 I0.9792 J0.4707
G02 X32.484 Y31.421 I1.1000 J0.0000
G02 X32.722 Y31.778 I1.0163 J-0.4210
G02 X33.079 Y32.016 I0.7778 J-0.7778
G02 X33.500 Y32.100 I0.4210 J-1.0163
G02 X33.921 Y32.016 I0.0000 J-1.1000
G02 X34.278 Y31.778 I-0.4210 J-1.0163
G02 X34.516 Y31.421 I-0.7778 J-0.7778
G02 X34.600 Y31.000 I-1.0163 J-0.4210
G02 X32.950 Y30.047 I-1.1000 J0.0000
G02 Y31.953 I0.5500 J0.9526
G02 X34.600 Y31.000 I0.5500 J-0.9526
G02 X33.027 I-0.7863 J0.0000
G02 X33.972 I0.4725 J0.0000
G02 X33.264 Y30.591 Z-0.933 I-0.4725 J0.0000 F120
G02 Y31.409 Z-1.067 I0.2362 J0.4092
G02 X33.972 Y31.000 Z-1.200 I0.2362 J-0.4092
G02 X33.264 Y30.591 I-0.4725 J0.0000
G02 Y31.409 I0.2362 J0.4092
G02 X33.972 Y31.000 I0.2362 J-0.4092
G02 X33.961 Y30.809 I-0.4767 J-0.0665 F400
G02 X33.871 Y30.629 I-0.4905 J0.1311
G02 X33.711 Y30.491 I-0.4219 J0.3277
G02 X33.500 Y30.423 I-0.2745 J0.4888
G02 X33.269 Y30.442 I-0.0666 J0.5832
G02 X33.055 Y30.555 I0.1718 J0.5888
G02 X32.894 Y30.749 I0.4028 J0.4970
G02 X32.817 Y31.000 I0.5869 J0.3152
G02 X32.845 Y31.271 I0.6893 J0.0666
G02 X32.980 Y31.520 I0.6868 J-0.2124
G02 X33.209 Y31.703 I0.5720 J-0.4777
G02 X33.500 Y31.788 I0.3557 J-0.6847
G02 X33.811 Y31.752 I0.0666 J-0.7951
G02 X34.094 Y31.594 I-0.2529 J-0.7845
G02 X34.300 Y31.331 I-0.5525 J-0.6467
G02 X34.392 Y31.000 I-0.7823 J-0.3961
G02 X34.349 Y30.648 I-0.9008 J-0.0666
G02 X34.168 Y30.332 I-0.8820 J0.2933
G02 X33.872 Y30.103 I-0.7213 J0.6272
G02 X33.500 Y30.003 I-0.4365 J0.8798
G02 X33.108 Y30.054 I-0.0666 J1.0063
G02 X32.758 Y30.258 I0.3337 J0.9795
G02 X32.506 Y30.588 I0.7018 J0.7959
G02 X32.400 Y31.000 I0.9792 J0.4707
G02 X32.484 Y31.421 I1.1000 J0.0000
G02 X32.722 Y31.778 I1.0163 J-0.4210
G02 X33.079 Y32.016 I0.7778 J-0.7778
G02 X33.500 Y32.100 I0.4210 J-1.0163
G02 X33.921 Y32.016 I0.0000 J-1.1000
G02 X34.278 Y31.778 I-0.4210 J-1.0163
G02 X34.516 Y31.421 I-0.7778 J-0.7778
G02 X34.600 Y31.000 I-1.0163 J-0.4210
G02 X32.950 Y30.047 I-1.1000 J0.0000
G02 Y31.953 I0.5500 J0.9526
G02 X34.600 Y31.000 I0.5500 J-0.9526
G02 X33.027 I-0.7863 J0.0000
G02 X33.972 I0.4725 J0.0000
G02 X33.264 Y30.591 Z-1.333 I-0.4725 J0.0000 F120
G02 Y31.409 Z-1.467 I0.2362 J0.4092
G02 X33.972 Y31.000 Z-1.600 I0.2362 J-0.4092
G02 X33.264 Y30.591 I-0.4725 J0.0000
G02 Y31.409 I0.2362 J0.4092
G02 X33.972 Y31.000 I0.2362 J-0.4092
G02 X33.961 Y30.809 I-0.4767 J-0.0665 F400
G02 X33.871 Y30.629 I-0.4905 J0.1311
G02 X33.711 Y30.491 I-0.4219 J0.3277
G02 X33.500 Y30.423 I-0.2745 J0.4888
G02 X33.269 Y30.442 I-0.0666 J0.5832
G02 X33.055 Y30.555 I0.1718 J0.5888
G02 X32.894 Y30.749 I0.4028 J0.4970
G02 X32.817 Y31.000 I0.5869 J0.3152
G02 X32.845 Y31.271 I0.6893 J0.0666
G02 X32.980 Y31.520 I0.6868 J-0.2124
G02 X33.209 Y31.703 I0.5720 J-0.4777
G02 X33.500 Y31.788 I0.3557 J-0.6847
G02 X33.811 Y31.752 I0.0666 J-0.7951
G02 X34.094 Y31.594 I-0.2529 J-0.7845
G02 X34.300 Y31.331 I-0.5525 J-0.6467
G02 X34.392 Y31.000 I-0.7823 J-0.3961
G02 X34.349 Y30.648 I-0.9008 J-0.0666
G02 X34.168 Y30.332 I-0.8820 J0.2933
G02 X33.872 Y30.103 I-0.7213 J0.6272
G02 X33.500 Y30.003 I-0.4365 J0.8798
G02 X33.108 Y30.054 I-0.0666 J1.0063
G02 X32.758 Y30.258 I0.3337 J0.9795
G02 X32.506 Y30.588 I0.7018 J0.7959
G02 X32.400 Y31.000 I0.9792 J0.4707
G02 X32.484 Y31.421 I1.1000 J0.0000
G02 X32.722 Y31.778 I1.0163 J-0.4210
G02 X33.079 Y32.016 I0.7778 J-0.7778
G02 X33.500 Y32.100 I0.4210 J-1.0163
G02 X33.921 Y32.016 I0.0000 J-1.1000
G02 X34.278 Y31.778 I-0.4210 J-1.0163
G02 X34.516 Y31.421 I-0.7778 J-0.7778
G02 X34.600 Y31.000 I-1.0163 J-0.4210
G02 X32.950 Y30.047 I-1.1000 J0.0000
G02 Y31.953 I0.5500 J0.9526
G02 X34.600 Y31.000 I0.5500 J-0.9526
G02 X33.027 I-0.7863 J0.0000
G02 X33.972 I0.4725 J0.0000
G02 X33.264 Y30.591 Z-1.733 I-0.4725 J0.0000 F120
G02 Y31.409 Z-1.867 I0.2362 J0.4092
G02 X33.972 Y31.000 Z-2.000 I0.2362 J-0.4092
G02 X33.264 Y30.591 I-0.4725 J0.0000
G02 Y31.409 I0.2362 J0.4092
G02 X33.972 Y31.000 I0.2362 J-0.4092
G02 X33.961 Y30.809 I-0.4767 J-0.0665 F400
G02 X33.871 Y30.629 I-0.4905 J0.1311
G02 X33.711 Y30.491 I-0.4219 J0.3277
G02 X33.500 Y30.423 I-0.2745 J0.4888
G02 X33.269 Y30.442 I-0.0666 J0.5832
G02 X33.055 Y30.555 I0.1718 J0.5888
G02 X32.894 Y30.749 I0.4028 J0.4970
G02 X32.817 Y31.000 I0.5869 J0.3152
G02 X32.845 Y31.271 I0.6893 J0.0666
G02 X32.980 Y31.520 I0.6868 J-0.2124
G02 X33.209 Y31.703 I0.5720 J-0.4777
G02 X33.500 Y31.788 I0.3557 J-0.6847
G02 X33.811 Y31.752 I0.0666 J-0.7951
G02 X34.094 Y31.594 I-0.2529 J-0.7845
G02 X34.300 Y31.331 I-0.5525 J-0.6467
G02 X34.392 Y31.000 I-0.7823 J-0.3961
G02 X34.349 Y30.648 I-0.9008 J-0.0666
G02 X34.168 Y30.332 I-0.8820 J0.2933
G02 X33.872 Y30.103 I-0.7213 J0.6272
G02 X33.500 Y30.003 I-0.4365 J0.8798
G02 X33.108 Y30.054 I-0.0666 J1.0063
G02 X32.758 Y30.258 I0.3337 J0.9795
G02 X32.506 Y30.588 I0.7018 J0.7959
G02 X32.400 Y31.000 I0.9792 J0.4707
G02 X32.484 Y31.421 I1.1000 J0.0000
G02 X32.722 Y31.778 I1.0163 J-0.4210
G02 X33.079 Y32.016 I0.7778 J-0.7778
G02 X33.500 Y32.100 I0.4210 J-1.0163
G02 X33.921 Y32.016 I0.0000 J-1.1000
G02 X34.278 Y31.778 I-0.4210 J-1.0163
G02 X34.516 Y31.421 I-0.7778 J-0.7778
G02 X34.600 Y31.000 I-1.0163 J-0.4210
G02 X32.950 Y30.047 I-1.1000 J0.0000
G02 Y31.953 I0.5500 J0.9526
G02 X34.600 Y31.000 I0.5500 J-0.9526
G02 X33.027 I-0.7863 J0.0000
G02 X33.972 I0.4725 J0.0000
G02 X33.264 Y30.591 Z-2.133 I-0.4725 J0.0000 F120
G02 Y31.409 Z-2.267 I0.2362 J0.4092
G02 X33.972 Y31.000 Z-2.400 I0.2362 J-0.4092
G02 X33.264 Y30.591 I-0.4725 J0.0000
G02 Y31.409 I0.2362 J0.4092
G02 X33.972 Y31.000 I0.2362 J-0.4092
G02 X33.961 Y30.809 I-0.4767 J-0.0665 F400
G02 X33.871 Y30.629 I-0.4905 J0.1311
G02 X33.711 Y30.491 I-0.4219 J0.3277
G02 X33.500 Y30.423 I-0.2745 J0.4888
G02 X33.269 Y30.442 I-0.0666 J0.5832
G02 X33.055 Y30.555 I0.1718 J0.5888
G02 X32.894 Y30.749 I0.4028 J0.4970
G02 X32.817 Y31.000 I0.5869 J0.3152
G02 X32.845 Y31.271 I0.6893 J0.0666
G02 X32.980 Y31.520 I0.6868 J-0.2124
G02 X33.209 Y31.703 I0.5720 J-0.4777
G02 X33.500 Y31.788 I0.3557 J-0.6847
G02 X33.811 Y31.752 I0.0666 J-0.7951
G02 X34.094 Y31.594 I-0.2529 J-0.7845
G02 X34.300 Y31.331 I-0.5525 J-0.6467
G02 X34.392 Y31.000 I-0.7823 J-0.3961
G02 X34.349 Y30.648 I-0.9008 J-0.0666
G02 X34.168 Y30.332 I-0.8820 J0.2933
G02 X33.872 Y30.103 I-0.7213 J0.6272
G02 X33.500 Y30.003 I-0.4365 J0.8798
G02 X33.108 Y30.054 I-0.0666 J1.0063
G02 X32.758 Y30.258 I0.3337 J0.9795
G02 X32.506 Y30.588 I0.7018 J0.7959
G02 X32.400 Y31.000 I0.9792 J0.4707
G02 X32.484 Y31.421 I1.1000 J0.0000
G02 X32.722 Y31.778 I1.0163 J-0.4210
G02 X33.079 Y32.016 I0.7778 J-0.7778
G02 X33.500 Y32.100 I0.4210 J-1.0163
G02 X33.921 Y32.016 I0.0000 J-1.1000
G02 X34.278 Y31.778 I-0.4210 J-1.0163
G02 X34.516 Y31.421 I-0.7778 J-0.7778
G02 X34.600 Y31.000 I-1.0163 J-0.4210
G02 X32.950 Y30.047 I-1.1000 J0.0000
G02 Y31.953 I0.5500 J0.9526
G02 X34.600 Y31.000 I0.5500 J-0.9526
G02 X33.027 I-0.7863 J0.0000
G02 X33.972 I0.4725 J0.0000
G02 X33.264 Y30.591 Z-2.533 I-0.4725 J0.0000 F120
G02 Y31.409 Z-2.667 I0.2362 J0.4092
G02 X33.972 Y31.000 Z-2.800 I0.2362 J-0.4092
G02 X33.264 Y30.591 I-0.4725 J0.0000
G02 Y31.409 I0.2362 J0.4092
G02 X33.972 Y31.000 I0.2362 J-0.4092
G02 X33.961 Y30.809 I-0.4767 J-0.0665 F400
G02 X33.871 Y30.629 I-0.4905 J0.1311
G02 X33.711 Y30.491 I-0.4219 J0.3277
G02 X33.500 Y30.423 I-0.2745 J0.4888
G02 X33.269 Y30.442 I-0.0666 J0.5832
G02 X33.055 Y30.555 I0.1718 J0.5888
G02 X32.894 Y30.749 I0.4028 J0.4970
G02 X32.817 Y31.000 I0.5869 J0.3152
G02 X32.845 Y31.271 I0.6893 J0.0666
G02 X32.980 Y31.520 I0.6868 J-0.2124
G02 X33.209 Y31.703 I0.5720 J-0.4777
G02 X33.500 Y31.788 I0.3557 J-0.6847
G02 X33.811 Y31.752 I0.0666 J-0.7951
G02 X34.094 Y31.594 I-0.2529 J-0.7845
G02 X34.300 Y31.331 I-0.5525 J-0.6467
G02 X34.392 Y31.000 I-0.7823 J-0.3961
G02 X34.349 Y30.648 I-0.9008 J-0.0666
G02 X34.168 Y30.332 I-0.8820 J0.2933
G02 X33.872 Y30.103 I-0.7213 J0.6272
G02 X33.500 Y30.003 I-0.4365 J0.8798
G02 X33.108 Y30.054 I-0.0666 J1.0063
G02 X32.758 Y30.258 I0.3337 J0.9795
G02 X32.506 Y30.588 I0.7018 J0.7959
G02 X32.400 Y31.000 I0.9792 J0.4707
G02 X32.484 Y31.421 I1.1000 J0.0000
G02 X32.722 Y31.778 I1.0163 J-0.4210
G02 X33.079 Y32.016 I0.7778 J-0.7778
G02 X33.500 Y32.100 I0.4210 J-1.0163
G02 X33.921 Y32.016 I0.0000 J-1.1000
G02 X34.278 Y31.778 I-0.4210 J-1.0163
G02 X34.516 Y31.421 I-0.7778 J-0.7778
G02 X34.600 Y31.000 I-1.0163 J-0.4210
G02 X32.950 Y30.047 I-1.1000 J0.0000
G02 Y31.953 I0.5500 J0.9526
G02 X34.600 Y31.000 I0.5500 J-0.9526
G02 X33.027 I-0.7863 J0.0000
G02 X33.972 I0.4725 J0.0000
G02 X33.264 Y30.591 Z-2.933 I-0.4725 J0.0000 F120
G02 Y31.409 Z-3.067 I0.2362 J0.4092
G02 X33.972 Y31.000 Z-3.200 I0.2362 J-0.4092
G02 X33.264 Y30.591 I-0.4725 J0.0000
G02 Y31.409 I0.2362 J0.4092
G02 X33.972 Y31.000 I0.2362 J-0.4092
G02 X33.961 Y30.809 I-0.4767 J-0.0665 F400
G02 X33.871 Y30.629 I-0.4905 J0.1311
G02 X33.711 Y30.491 I-0.4219 J0.3277
G02 X33.500 Y30.423 I-0.2745 J0.4888
G02 X33.269 Y30.442 I-0.0666 J0.5832
G02 X33.055 Y30.555 I0.1718 J0.5888
G02 X32.894 Y30.749 I0.4028 J0.4970
G02 X32.817 Y31.000 I0.5869 J0.3152
G02 X32.845 Y31.271 I0.6893 J0.0666
G02 X32.980 Y31.520 I0.6868 J-0.2124
G02 X33.209 Y31.703 I0.5720 J-0.4777
G02 X33.500 Y31.788 I0.3557 J-0.6847
G02 X33.811 Y31.752 I0.0666 J-0.7951
G02 X34.094 Y31.594 I-0.2529 J-0.7845
G02 X34.300 Y31.331 I-0.5525 J-0.6467
G02 X34.392 Y31.000 I-0.7823 J-0.3961
G02 X34.349 Y30.648 I-0.9008 J-0.0666
G02 X34.168 Y30.332 I-0.8820 J0.2933
G02 X33.872 Y30.103 I-0.7213 J0.6272
G02 X33.500 Y30.003 I-0.4365 J0.8798
G02 X33.108 Y30.054 I-0.0666 J1.0063
G02 X32.758 Y30.258 I0.3337 J0.9795
G02 X32.506 Y30.588 I0.7018 J0.7959
G02 X32.400 Y31.000 I0.9792 J0.4707
G02 X32.484 Y31.421 I1.1000 J0.0000
G02 X32.722 Y31.778 I1.0163 J-0.4210
G02 X33.079 Y32.016 I0.7778 J-0.7778
G02 X33.500 Y32.100 I0.4210 J-1.0163
G02 X33.921 Y32.016 I0.0000 J-1.1000
G02 X34.278 Y31.778 I-0.4210 J-1.0163
G02 X34.516 Y31.421 I-0.7778 J-0.7778
G02 X34.600 Y31.000 I-1.0163 J-0.4210
G02 X32.950 Y30.047 I-1.1000 J0.0000
G02 Y31.953 I0.5500 J0.9526
G02 X34.600 Y31.000 I0.5500 J-0.9526
G02 X33.027 I-0.7863 J0.0000
G02 X33.972 I0.4725 J0.0000
G02 X33.264 Y30.591 Z-3.300 I-0.4725 J0.0000 F120
G02 Y31.409 Z-3.400 I0.2362 J0.4092
G02 X33.972 Y31.000 Z-3.500 I0.2362 J-0.4092
G02 X33.264 Y30.591 I-0.4725 J0.0000
G02 Y31.409 I0.2362 J0.4092
G02 X33.972 Y31.000 I0.2362 J-0.4092
G02 X33.961 Y30.809 I-0.4767 J-0.0665 F400
G02 X33.871 Y30.629 I-0.4905 J0.1311
G02 X33.711 Y30.491 I-0.4219 J0.3277
G02 X33.500 Y30.423 I-0.2745 J0.4888
G02 X33.269 Y30.442 I-0.0666 J0.5832
G02 X33.055 Y30.555 I0.1718 J0.5888
G02 X32.894 Y30.749 I0.4028 J0.4970
G02 X32.817 Y31.000 I0.5869 J0.3152
G02 X32.845 Y31.271 I0.6893 J0.0666
G02 X32.980 Y31.520 I0.6868 J-0.2124
G02 X33.209 Y31.703 I0.5720 J-0.4777
G02 X33.500 Y31.788 I0.3557 J-0.6847
G02 X33.811 Y31.752 I0.0666 J-0.7951
G02 X34.094 Y31.594 I-0.2529 J-0.7845
G02 X34.300 Y31.331 I-0.5525 J-0.6467
G02 X34.392 Y31.000 I-0.7823 J-0.3961
G02 X34.349 Y30.648 I-0.9008 J-0.0666
G02 X34.168 Y30.332 I-0.8820 J0.2933
G02 X33.872 Y30.103 I-0.7213 J0.6272
G02 X33.500 Y30.003 I-0.4365 J0.8798
G02 X33.108 Y30.054 I-0.0666 J1.0063
G02 X32.758 Y30.258 I0.3337 J0.9795
G02 X32.506 Y30.588 I0.7018 J0.7959
G02 X32.400 Y31.000 I0.9792 J0.4707
G02 X32.484 Y31.421 I1.1000 J0.0000
G02 X32.722 Y31.778 I1.0163 J-0.4210
G02 X33.079 Y32.016 I0.7778 J-0.7778
G02 X33.500 Y32.100 I0.4210 J-1.0163
G02 X33.921 Y32.016 I0.0000 J-1.1000
G02 X34.278 Y31.778 I-0.4210 J-1.0163
G02 X34.516 Y31.421 I-0.7778 J-0.7778
G02 X34.600 Y31.000 I-1.0163 J-0.4210
G02 X32.950 Y30.047 I-1.1000 J0.0000
G02 Y31.953 I0.5500 J0.9526
G02 X34.600 Y31.000 I0.5500 J-0.9526
G02 X34.075 Y30.475 Z-3.000 I-0.5250 J0.0000 F120
G00 Z20.000


(No. 9 Helical drill: Helical drill 5)
G00 X33.973 Y4.000 Z20.000
G00 Z0.500
G02 X33.264 Y3.591 Z0.367 I-0.4725 J0.0000 F120
G02 Y4.409 Z0.233 I0.2362 J0.4092
G02 X33.973 Y4.000 Z0.100 I0.2362 J-0.4092
G02 X33.264 Y3.591 Z0.067 I-0.4725 J0.0000
G02 Y4.409 Z0.033 I0.2362 J0.4092
G02 X33.973 Y4.000 Z0.000 I0.2362 J-0.4092
G02 X33.264 Y3.591 I-0.4725 J0.0000
G02 Y4.409 I0.2362 J0.4092
G02 X33.973 Y4.000 I0.2362 J-0.4092
G02 X33.264 Y3.591 Z-0.133 I-0.4725 J0.0000
G02 Y4.409 Z-0.267 I0.2362 J0.4092
G02 X33.973 Y4.000 Z-0.400 I0.2362 J-0.4092
G02 X33.264 Y3.591 I-0.4725 J0.0000
G02 Y4.409 I0.2362 J0.4092
G02 X33.973 Y4.000 I0.2362 J-0.4092
G02 X33.961 Y3.809 I-0.4767 J-0.0665 F400
G02 X33.871 Y3.629 I-0.4905 J0.1311
G02 X33.711 Y3.491 I-0.4219 J0.3277
G02 X33.500 Y3.423 I-0.2745 J0.4888
G02 X33.269 Y3.442 I-0.0666 J0.5832
G02 X33.055 Y3.555 I0.1718 J0.5888
G02 X32.894 Y3.749 I0.4028 J0.4970
G02 X32.818 Y4.000 I0.5869 J0.3152
G02 X32.845 Y4.271 I0.6893 J0.0666
G02 X32.980 Y4.520 I0.6868 J-0.2124
G02 X33.209 Y4.703 I0.5720 J-0.4777
G02 X33.500 Y4.788 I0.3557 J-0.6847
G02 X33.811 Y4.752 I0.0666 J-0.7951
G02 X34.094 Y4.594 I-0.2529 J-0.7845
G02 X34.300 Y4.331 I-0.5525 J-0.6467
G02 X34.393 Y4.000 I-0.7823 J-0.3961
G02 X34.349 Y3.648 I-0.9008 J-0.0666
G02 X34.168 Y3.332 I-0.8820 J0.2933
G02 X33.872 Y3.103 I-0.7213 J0.6272
G02 X33.500 Y3.003 I-0.4365 J0.8798
G02 X33.108 Y3.054 I-0.0666 J1.0063
G02 X32.758 Y3.258 I0.3337 J0.9795
G02 X32.506 Y3.588 I0.7018 J0.7959
G02 X32.400 Y4.000 I0.9792 J0.4707
G02 X32.484 Y4.421 I1.1000 J0.0000
G02 X32.722 Y4.778 I1.0163 J-0.4210
G02 X33.079 Y5.016 I0.7778 J-0.7778
G02 X33.500 Y5.100 I0.4210 J-1.0163
G02 X33.921 Y5.016 I0.0000 J-1.1000
G02 X34.278 Y4.778 I-0.4210 J-1.0163
G02 X34.516 Y4.421 I-0.7778 J-0.7778
G02 X34.600 Y4.000 I-1.0163 J-0.4210
G02 X32.950 Y3.047 I-1.1000 J0.0000
G02 Y4.953 I0.5500 J0.9526
G02 X34.600 Y4.000 I0.5500 J-0.9526
G02 X33.028 I-0.7862 J0.0000
G02 X33.973 I0.4725 J0.0000
G02 X33.264 Y3.591 Z-0.533 I-0.4725 J0.0000 F120
G02 Y4.409 Z-0.667 I0.2362 J0.4092
G02 X33.973 Y4.000 Z-0.800 I0.2362 J-0.4092
G02 X33.264 Y3.591 I-0.4725 J0.0000
G02 Y4.409 I0.2362 J0.4092
G02 X33.973 Y4.000 I0.2362 J-0.4092
G02 X33.961 Y3.809 I-0.4767 J-0.0665 F400
G02 X33.871 Y3.629 I-0.4905 J0.1311
G02 X33.711 Y3.491 I-0.4219 J0.3277
G02 X33.500 Y3.423 I-0.2745 J0.4888
G02 X33.269 Y3.442 I-0.0666 J0.5832
G02 X33.055 Y3.555 I0.1718 J0.5888
G02 X32.894 Y3.749 I0.4028 J0.4970
G02 X32.818 Y4.000 I0.5869 J0.3152
G02 X32.845 Y4.271 I0.6893 J0.0666
G02 X32.980 Y4.520 I0.6868 J-0.2124
G02 X33.209 Y4.703 I0.5720 J-0.4777
G02 X33.500 Y4.788 I0.3557 J-0.6847
G02 X33.811 Y4.752 I0.0666 J-0.7951
G02 X34.094 Y4.594 I-0.2529 J-0.7845
G02 X34.300 Y4.331 I-0.5525 J-0.6467
G02 X34.393 Y4.000 I-0.7823 J-0.3961
G02 X34.349 Y3.648 I-0.9008 J-0.0666
G02 X34.168 Y3.332 I-0.8820 J0.2933
G02 X33.872 Y3.103 I-0.7213 J0.6272
G02 X33.500 Y3.003 I-0.4365 J0.8798
G02 X33.108 Y3.054 I-0.0666 J1.0063
G02 X32.758 Y3.258 I0.3337 J0.9795
G02 X32.506 Y3.588 I0.7018 J0.7959
G02 X32.400 Y4.000 I0.9792 J0.4707
G02 X32.484 Y4.421 I1.1000 J0.0000
G02 X32.722 Y4.778 I1.0163 J-0.4210
G02 X33.079 Y5.016 I0.7778 J-0.7778
G02 X33.500 Y5.100 I0.4210 J-1.0163
G02 X33.921 Y5.016 I0.0000 J-1.1000
G02 X34.278 Y4.778 I-0.4210 J-1.0163
G02 X34.516 Y4.421 I-0.7778 J-0.7778
G02 X34.600 Y4.000 I-1.0163 J-0.4210
G02 X32.950 Y3.047 I-1.1000 J0.0000
G02 Y4.953 I0.5500 J0.9526
G02 X34.600 Y4.000 I0.5500 J-0.9526
G02 X33.028 I-0.7862 J0.0000
G02 X33.973 I0.4725 J0.0000
G02 X33.264 Y3.591 Z-0.933 I-0.4725 J0.0000 F120
G02 Y4.409 Z-1.067 I0.2362 J0.4092
G02 X33.973 Y4.000 Z-1.200 I0.2362 J-0.4092
G02 X33.264 Y3.591 I-0.4725 J0.0000
G02 Y4.409 I0.2362 J0.4092
G02 X33.973 Y4.000 I0.2362 J-0.4092
G02 X33.961 Y3.809 I-0.4767 J-0.0665 F400
G02 X33.871 Y3.629 I-0.4905 J0.1311
G02 X33.711 Y3.491 I-0.4219 J0.3277
G02 X33.500 Y3.423 I-0.2745 J0.4888
G02 X33.269 Y3.442 I-0.0666 J0.5832
G02 X33.055 Y3.555 I0.1718 J0.5888
G02 X32.894 Y3.749 I0.4028 J0.4970
G02 X32.818 Y4.000 I0.5869 J0.3152
G02 X32.845 Y4.271 I0.6893 J0.0666
G02 X32.980 Y4.520 I0.6868 J-0.2124
G02 X33.209 Y4.703 I0.5720 J-0.4777
G02 X33.500 Y4.788 I0.3557 J-0.6847
G02 X33.811 Y4.752 I0.0666 J-0.7951
G02 X34.094 Y4.594 I-0.2529 J-0.7845
G02 X34.300 Y4.331 I-0.5525 J-0.6467
G02 X34.393 Y4.000 I-0.7823 J-0.3961
G02 X34.349 Y3.648 I-0.9008 J-0.0666
G02 X34.168 Y3.332 I-0.8820 J0.2933
G02 X33.872 Y3.103 I-0.7213 J0.6272
G02 X33.500 Y3.003 I-0.4365 J0.8798
G02 X33.108 Y3.054 I-0.0666 J1.0063
G02 X32.758 Y3.258 I0.3337 J0.9795
G02 X32.506 Y3.588 I0.7018 J0.7959
G02 X32.400 Y4.000 I0.9792 J0.4707
G02 X32.484 Y4.421 I1.1000 J0.0000
G02 X32.722 Y4.778 I1.0163 J-0.4210
G02 X33.079 Y5.016 I0.7778 J-0.7778
G02 X33.500 Y5.100 I0.4210 J-1.0163
G02 X33.921 Y5.016 I0.0000 J-1.1000
G02 X34.278 Y4.778 I-0.4210 J-1.0163
G02 X34.516 Y4.421 I-0.7778 J-0.7778
G02 X34.600 Y4.000 I-1.0163 J-0.4210
G02 X32.950 Y3.047 I-1.1000 J0.0000
G02 Y4.953 I0.5500 J0.9526
G02 X34.600 Y4.000 I0.5500 J-0.9526
G02 X33.028 I-0.7862 J0.0000
G02 X33.973 I0.4725 J0.0000
G02 X33.264 Y3.591 Z-1.333 I-0.4725 J0.0000 F120
G02 Y4.409 Z-1.467 I0.2362 J0.4092
G02 X33.973 Y4.000 Z-1.600 I0.2362 J-0.4092
G02 X33.264 Y3.591 I-0.4725 J0.0000
G02 Y4.409 I0.2362 J0.4092
G02 X33.973 Y4.000 I0.2362 J-0.4092
G02 X33.961 Y3.809 I-0.4767 J-0.0665 F400
G02 X33.871 Y3.629 I-0.4905 J0.1311
G02 X33.711 Y3.491 I-0.4219 J0.3277
G02 X33.500 Y3.423 I-0.2745 J0.4888
G02 X33.269 Y3.442 I-0.0666 J0.5832
G02 X33.055 Y3.555 I0.1718 J0.5888
G02 X32.894 Y3.749 I0.4028 J0.4970
G02 X32.818 Y4.000 I0.5869 J0.3152
G02 X32.845 Y4.271 I0.6893 J0.0666
G02 X32.980 Y4.520 I0.6868 J-0.2124
G02 X33.209 Y4.703 I0.5720 J-0.4777
G02 X33.500 Y4.788 I0.3557 J-0.6847
G02 X33.811 Y4.752 I0.0666 J-0.7951
G02 X34.094 Y4.594 I-0.2529 J-0.7845
G02 X34.300 Y4.331 I-0.5525 J-0.6467
G02 X34.393 Y4.000 I-0.7823 J-0.3961
G02 X34.349 Y3.648 I-0.9008 J-0.0666
G02 X34.168 Y3.332 I-0.8820 J0.2933
G02 X33.872 Y3.103 I-0.7213 J0.6272
G02 X33.500 Y3.003 I-0.4365 J0.8798
G02 X33.108 Y3.054 I-0.0666 J1.0063
G02 X32.758 Y3.258 I0.3337 J0.9795
G02 X32.506 Y3.588 I0.7018 J0.7959
G02 X32.400 Y4.000 I0.9792 J0.4707
G02 X32.484 Y4.421 I1.1000 J0.0000
G02 X32.722 Y4.778 I1.0163 J-0.4210
G02 X33.079 Y5.016 I0.7778 J-0.7778
G02 X33.500 Y5.100 I0.4210 J-1.0163
G02 X33.921 Y5.016 I0.0000 J-1.1000
G02 X34.278 Y4.778 I-0.4210 J-1.0163
G02 X34.516 Y4.421 I-0.7778 J-0.7778
G02 X34.600 Y4.000 I-1.0163 J-0.4210
G02 X32.950 Y3.047 I-1.1000 J0.0000
G02 Y4.953 I0.5500 J0.9526
G02 X34.600 Y4.000 I0.5500 J-0.9526
G02 X33.028 I-0.7862 J0.0000
G02 X33.973 I0.4725 J0.0000
G02 X33.264 Y3.591 Z-1.733 I-0.4725 J0.0000 F120
G02 Y4.409 Z-1.867 I0.2362 J0.4092
G02 X33.973 Y4.000 Z-2.000 I0.2362 J-0.4092
G02 X33.264 Y3.591 I-0.4725 J0.0000
G02 Y4.409 I0.2362 J0.4092
G02 X33.973 Y4.000 I0.2362 J-0.4092
G02 X33.961 Y3.809 I-0.4767 J-0.0665 F400
G02 X33.871 Y3.629 I-0.4905 J0.1311
G02 X33.711 Y3.491 I-0.4219 J0.3277
G02 X33.500 Y3.423 I-0.2745 J0.4888
G02 X33.269 Y3.442 I-0.0666 J0.5832
G02 X33.055 Y3.555 I0.1718 J0.5888
G02 X32.894 Y3.749 I0.4028 J0.4970
G02 X32.818 Y4.000 I0.5869 J0.3152
G02 X32.845 Y4.271 I0.6893 J0.0666
G02 X32.980 Y4.520 I0.6868 J-0.2124
G02 X33.209 Y4.703 I0.5720 J-0.4777
G02 X33.500 Y4.788 I0.3557 J-0.6847
G02 X33.811 Y4.752 I0.0666 J-0.7951
G02 X34.094 Y4.594 I-0.2529 J-0.7845
G02 X34.300 Y4.331 I-0.5525 J-0.6467
G02 X34.393 Y4.000 I-0.7823 J-0.3961
G02 X34.349 Y3.648 I-0.9008 J-0.0666
G02 X34.168 Y3.332 I-0.8820 J0.2933
G02 X33.872 Y3.103 I-0.7213 J0.6272
G02 X33.500 Y3.003 I-0.4365 J0.8798
G02 X33.108 Y3.054 I-0.0666 J1.0063
G02 X32.758 Y3.258 I0.3337 J0.9795
G02 X32.506 Y3.588 I0.7018 J0.7959
G02 X32.400 Y4.000 I0.9792 J0.4707
G02 X32.484 Y4.421 I1.1000 J0.0000
G02 X32.722 Y4.778 I1.0163 J-0.4210
G02 X33.079 Y5.016 I0.7778 J-0.7778
G02 X33.500 Y5.100 I0.4210 J-1.0163
G02 X33.921 Y5.016 I0.0000 J-1.1000
G02 X34.278 Y4.778 I-0.4210 J-1.0163
G02 X34.516 Y4.421 I-0.7778 J-0.7778
G02 X34.600 Y4.000 I-1.0163 J-0.4210
G02 X32.950 Y3.047 I-1.1000 J0.0000
G02 Y4.953 I0.5500 J0.9526
G02 X34.600 Y4.000 I0.5500 J-0.9526
G02 X33.028 I-0.7862 J0.0000
G02 X33.973 I0.4725 J0.0000
G02 X33.264 Y3.591 Z-2.133 I-0.4725 J0.0000 F120
G02 Y4.409 Z-2.267 I0.2362 J0.4092
G02 X33.973 Y4.000 Z-2.400 I0.2362 J-0.4092
G02 X33.264 Y3.591 I-0.4725 J0.0000
G02 Y4.409 I0.2362 J0.4092
G02 X33.973 Y4.000 I0.2362 J-0.4092
G02 X33.961 Y3.809 I-0.4767 J-0.0665 F400
G02 X33.871 Y3.629 I-0.4905 J0.1311
G02 X33.711 Y3.491 I-0.4219 J0.3277
G02 X33.500 Y3.423 I-0.2745 J0.4888
G02 X33.269 Y3.442 I-0.0666 J0.5832
G02 X33.055 Y3.555 I0.1718 J0.5888
G02 X32.894 Y3.749 I0.4028 J0.4970
G02 X32.818 Y4.000 I0.5869 J0.3152
G02 X32.845 Y4.271 I0.6893 J0.0666
G02 X32.980 Y4.520 I0.6868 J-0.2124
G02 X33.209 Y4.703 I0.5720 J-0.4777
G02 X33.500 Y4.788 I0.3557 J-0.6847
G02 X33.811 Y4.752 I0.0666 J-0.7951
G02 X34.094 Y4.594 I-0.2529 J-0.7845
G02 X34.300 Y4.331 I-0.5525 J-0.6467
G02 X34.393 Y4.000 I-0.7823 J-0.3961
G02 X34.349 Y3.648 I-0.9008 J-0.0666
G02 X34.168 Y3.332 I-0.8820 J0.2933
G02 X33.872 Y3.103 I-0.7213 J0.6272
G02 X33.500 Y3.003 I-0.4365 J0.8798
G02 X33.108 Y3.054 I-0.0666 J1.0063
G02 X32.758 Y3.258 I0.3337 J0.9795
G02 X32.506 Y3.588 I0.7018 J0.7959
G02 X32.400 Y4.000 I0.9792 J0.4707
G02 X32.484 Y4.421 I1.1000 J0.0000
G02 X32.722 Y4.778 I1.0163 J-0.4210
G02 X33.079 Y5.016 I0.7778 J-0.7778
G02 X33.500 Y5.100 I0.4210 J-1.0163
G02 X33.921 Y5.016 I0.0000 J-1.1000
G02 X34.278 Y4.778 I-0.4210 J-1.0163
G02 X34.516 Y4.421 I-0.7778 J-0.7778
G02 X34.600 Y4.000 I-1.0163 J-0.4210
G02 X32.950 Y3.047 I-1.1000 J0.0000
G02 Y4.953 I0.5500 J0.9526
G02 X34.600 Y4.000 I0.5500 J-0.9526
G02 X33.028 I-0.7862 J0.0000
G02 X33.973 I0.4725 J0.0000
G02 X33.264 Y3.591 Z-2.533 I-0.4725 J0.0000 F120
G02 Y4.409 Z-2.667 I0.2362 J0.4092
G02 X33.973 Y4.000 Z-2.800 I0.2362 J-0.4092
G02 X33.264 Y3.591 I-0.4725 J0.0000
G02 Y4.409 I0.2362 J0.4092
G02 X33.973 Y4.000 I0.2362 J-0.4092
G02 X33.961 Y3.809 I-0.4767 J-0.0665 F400
G02 X33.871 Y3.629 I-0.4905 J0.1311
G02 X33.711 Y3.491 I-0.4219 J0.3277
G02 X33.500 Y3.423 I-0.2745 J0.4888
G02 X33.269 Y3.442 I-0.0666 J0.5832
G02 X33.055 Y3.555 I0.1718 J0.5888
G02 X32.894 Y3.749 I0.4028 J0.4970
G02 X32.818 Y4.000 I0.5869 J0.3152
G02 X32.845 Y4.271 I0.6893 J0.0666
G02 X32.980 Y4.520 I0.6868 J-0.2124
G02 X33.209 Y4.703 I0.5720 J-0.4777
G02 X33.500 Y4.788 I0.3557 J-0.6847
G02 X33.811 Y4.752 I0.0666 J-0.7951
G02 X34.094 Y4.594 I-0.2529 J-0.7845
G02 X34.300 Y4.331 I-0.5525 J-0.6467
G02 X34.393 Y4.000 I-0.7823 J-0.3961
G02 X34.349 Y3.648 I-0.9008 J-0.0666
G02 X34.168 Y3.332 I-0.8820 J0.2933
G02 X33.872 Y3.103 I-0.7213 J0.6272
G02 X33.500 Y3.003 I-0.4365 J0.8798
G02 X33.108 Y3.054 I-0.0666 J1.0063
G02 X32.758 Y3.258 I0.3337 J0.9795
G02 X32.506 Y3.588 I0.7018 J0.7959
G02 X32.400 Y4.000 I0.9792 J0.4707
G02 X32.484 Y4.421 I1.1000 J0.0000
G02 X32.722 Y4.778 I1.0163 J-0.4210
G02 X33.079 Y5.016 I0.7778 J-0.7778
G02 X33.500 Y5.100 I0.4210 J-1.0163
G02 X33.921 Y5.016 I0.0000 J-1.1000
G02 X34.278 Y4.778 I-0.4210 J-1.0163
G02 X34.516 Y4.421 I-0.7778 J-0.7778
G02 X34.600 Y4.000 I-1.0163 J-0.4210
G02 X32.950 Y3.047 I-1.1000 J0.0000
G02 Y4.953 I0.5500 J0.9526
G02 X34.600 Y4.000 I0.5500 J-0.9526
G02 X33.028 I-0.7862 J0.0000
G02 X33.973 I0.4725 J0.0000
G02 X33.264 Y3.591 Z-2.933 I-0.4725 J0.0000 F120
G02 Y4.409 Z-3.067 I0.2362 J0.4092
G02 X33.973 Y4.000 Z-3.200 I0.2362 J-0.4092
G02 X33.264 Y3.591 I-0.4725 J0.0000
G02 Y4.409 I0.2362 J0.4092
G02 X33.973 Y4.000 I0.2362 J-0.4092
G02 X33.961 Y3.809 I-0.4767 J-0.0665 F400
G02 X33.871 Y3.629 I-0.4905 J0.1311
G02 X33.711 Y3.491 I-0.4219 J0.3277
G02 X33.500 Y3.423 I-0.2745 J0.4888
G02 X33.269 Y3.442 I-0.0666 J0.5832
G02 X33.055 Y3.555 I0.1718 J0.5888
G02 X32.894 Y3.749 I0.4028 J0.4970
G02 X32.818 Y4.000 I0.5869 J0.3152
G02 X32.845 Y4.271 I0.6893 J0.0666
G02 X32.980 Y4.520 I0.6868 J-0.2124
G02 X33.209 Y4.703 I0.5720 J-0.4777
G02 X33.500 Y4.788 I0.3557 J-0.6847
G02 X33.811 Y4.752 I0.0666 J-0.7951
G02 X34.094 Y4.594 I-0.2529 J-0.7845
G02 X34.300 Y4.331 I-0.5525 J-0.6467
G02 X34.393 Y4.000 I-0.7823 J-0.3961
G02 X34.349 Y3.648 I-0.9008 J-0.0666
G02 X34.168 Y3.332 I-0.8820 J0.2933
G02 X33.872 Y3.103 I-0.7213 J0.6272
G02 X33.500 Y3.003 I-0.4365 J0.8798
G02 X33.108 Y3.054 I-0.0666 J1.0063
G02 X32.758 Y3.258 I0.3337 J0.9795
G02 X32.506 Y3.588 I0.7018 J0.7959
G02 X32.400 Y4.000 I0.9792 J0.4707
G02 X32.484 Y4.421 I1.1000 J0.0000
G02 X32.722 Y4.778 I1.0163 J-0.4210
G02 X33.079 Y5.016 I0.7778 J-0.7778
G02 X33.500 Y5.100 I0.4210 J-1.0163
G02 X33.921 Y5.016 I0.0000 J-1.1000
G02 X34.278 Y4.778 I-0.4210 J-1.0163
G02 X34.516 Y4.421 I-0.7778 J-0.7778
G02 X34.600 Y4.000 I-1.0163 J-0.4210
G02 X32.950 Y3.047 I-1.1000 J0.0000
G02 Y4.953 I0.5500 J0.9526
G02 X34.600 Y4.000 I0.5500 J-0.9526
G02 X33.028 I-0.7862 J0.0000
G02 X33.973 I0.4725 J0.0000
G02 X33.264 Y3.591 Z-3.300 I-0.4725 J0.0000 F120
G02 Y4.409 Z-3.400 I0.2362 J0.4092
G02 X33.973 Y4.000 Z-3.500 I0.2362 J-0.4092
G02 X33.264 Y3.591 I-0.4725 J0.0000
G02 Y4.409 I0.2362 J0.4092
G02 X33.973 Y4.000 I0.2362 J-0.4092
G02 X33.961 Y3.809 I-0.4767 J-0.0665 F400
G02 X33.871 Y3.629 I-0.4905 J0.1311
G02 X33.711 Y3.491 I-0.4219 J0.3277
G02 X33.500 Y3.423 I-0.2745 J0.4888
G02 X33.269 Y3.442 I-0.0666 J0.5832
G02 X33.055 Y3.555 I0.1718 J0.5888
G02 X32.894 Y3.749 I0.4028 J0.4970
G02 X32.818 Y4.000 I0.5869 J0.3152
G02 X32.845 Y4.271 I0.6893 J0.0666
G02 X32.980 Y4.520 I0.6868 J-0.2124
G02 X33.209 Y4.703 I0.5720 J-0.4777
G02 X33.500 Y4.788 I0.3557 J-0.6847
G02 X33.811 Y4.752 I0.0666 J-0.7951
G02 X34.094 Y4.594 I-0.2529 J-0.7845
G02 X34.300 Y4.331 I-0.5525 J-0.6467
G02 X34.393 Y4.000 I-0.7823 J-0.3961
G02 X34.349 Y3.648 I-0.9008 J-0.0666
G02 X34.168 Y3.332 I-0.8820 J0.2933
G02 X33.872 Y3.103 I-0.7213 J0.6272
G02 X33.500 Y3.003 I-0.4365 J0.8798
G02 X33.108 Y3.054 I-0.0666 J1.0063
G02 X32.758 Y3.258 I0.3337 J0.9795
G02 X32.506 Y3.588 I0.7018 J0.7959
G02 X32.400 Y4.000 I0.9792 J0.4707
G02 X32.484 Y4.421 I1.1000 J0.0000
G02 X32.722 Y4.778 I1.0163 J-0.4210
G02 X33.079 Y5.016 I0.7778 J-0.7778
G02 X33.500 Y5.100 I0.4210 J-1.0163
G02 X33.921 Y5.016 I0.0000 J-1.1000
G02 X34.278 Y4.778 I-0.4210 J-1.0163
G02 X34.516 Y4.421 I-0.7778 J-0.7778
G02 X34.600 Y4.000 I-1.0163 J-0.4210
G02 X32.950 Y3.047 I-1.1000 J0.0000
G02 Y4.953 I0.5500 J0.9526
G02 X34.600 Y4.000 I0.5500 J-0.9526
G02 X34.075 Y3.475 Z-3.000 I-0.5250 J0.0000 F120
G00 Z20.000


(No. 10 Part: Part 1)
G00 X20.285 Y-0.525 Z20.000
G00 Z0.500
G01 Z-0.400 F120
G01 X37.500 F400
G03 X38.025 Y0.020 I-0.0003 J0.5256
G01 Y15.985
G01 Y19.035
G01 Y35.000
G03 X37.480 Y35.525 I-0.5256 J-0.0003
G01 X20.265
G01 X17.215
G01 X0.000
G03 X-0.524 Y35.037 I0.0000 J-0.5250
G01 X-0.525 Y34.980
G01 Y19.015
G01 Y15.965
G01 Y0.000
G03 X-0.484 Y-0.204 I0.5250 J0.0000
G03 X0.020 Y-0.525 I0.4844 J0.2052
G01 X17.235
G01 X20.285
G01 Z-0.800 F120
G01 X37.500 F400
G03 X38.025 Y0.020 I-0.0003 J0.5256
G01 Y15.985
G01 Y19.035
G01 Y35.000
G03 X37.480 Y35.525 I-0.5256 J-0.0003
G01 X20.265
G01 X17.215
G01 X0.000
G03 X-0.524 Y35.037 I0.0000 J-0.5250
G01 X-0.525 Y34.980
G01 Y19.015
G01 Y15.965
G01 Y0.000
G03 X-0.484 Y-0.204 I0.5250 J0.0000
G03 X0.020 Y-0.525 I0.4844 J0.2052
G01 X17.235
G01 X20.285
G01 Z-1.200 F120
G01 X37.500 F400
G03 X38.025 Y0.020 I-0.0003 J0.5256
G01 Y15.985
G01 Y19.035
G01 Y35.000
G03 X37.480 Y35.525 I-0.5256 J-0.0003
G01 X20.265
G01 X17.215
G01 X0.000
G03 X-0.524 Y35.037 I0.0000 J-0.5250
G01 X-0.525 Y34.980
G01 Y19.015
G01 Y15.965
G01 Y0.000
G03 X-0.484 Y-0.204 I0.5250 J0.0000
G03 X0.020 Y-0.525 I0.4844 J0.2052
G01 X17.235
G01 X20.285
G01 Z-1.600 F120
G01 X37.500 F400
G03 X38.025 Y0.020 I-0.0003 J0.5256
G01 Y15.985
G01 Y19.035
G01 Y35.000
G03 X37.480 Y35.525 I-0.5256 J-0.0003
G01 X20.265
G01 X17.215
G01 X0.000
G03 X-0.524 Y35.037 I0.0000 J-0.5250
G01 X-0.525 Y34.980
G01 Y19.015
G01 Y15.965
G01 Y0.000
G03 X-0.484 Y-0.204 I0.5250 J0.0000
G03 X0.020 Y-0.525 I0.4844 J0.2052
G01 X17.235
G01 X20.285
G01 Z-2.000 F120
G01 X37.500 F400
G03 X38.025 Y0.020 I-0.0003 J0.5256
G01 Y15.985
G01 Y19.035
G01 Y35.000
G03 X37.480 Y35.525 I-0.5256 J-0.0003
G01 X20.265
G01 X17.215
G01 X0.000
G03 X-0.524 Y35.037 I0.0000 J-0.5250
G01 X-0.525 Y34.980
G01 Y19.015
G01 Y15.965
G01 Y0.000
G03 X-0.484 Y-0.204 I0.5250 J0.0000
G03 X0.020 Y-0.525 I0.4844 J0.2052
G01 X17.235
G01 X20.285
G01 Z-2.400 F120
G01 X37.500 F400
G03 X38.025 Y0.020 I-0.0003 J0.5256
G01 Y15.985
G00 Z-2.000
G01 Y19.035
G01 Z-2.400 F120
G01 Y35.000 F400
G03 X37.480 Y35.525 I-0.5256 J-0.0003
G01 X20.265
G00 Z-2.000
G01 X17.215
G01 Z-2.400 F120
G01 X0.000 F400
G03 X-0.524 Y35.037 I0.0000 J-0.5250
G01 X-0.525 Y34.980
G01 Y19.015
G00 Z-2.000
G01 Y15.965
G01 Z-2.400 F120
G01 Y0.000 F400
G03 X-0.484 Y-0.204 I0.5250 J0.0000
G03 X0.020 Y-0.525 I0.4844 J0.2052
G01 X17.235
G00 Z-2.000
G01 X20.285
G01 Z-2.800 F120
G01 X37.500 F400
G03 X38.025 Y0.020 I-0.0003 J0.5256
G01 Y15.985
G00 Z-2.000
G01 Y19.035
G01 Z-2.800 F120
G01 Y35.000 F400
G03 X37.480 Y35.525 I-0.5256 J-0.0003
G01 X20.265
G00 Z-2.000
G01 X17.215
G01 Z-2.800 F120
G01 X0.000 F400
G03 X-0.524 Y35.037 I0.0000 J-0.5250
G01 X-0.525 Y34.980
G01 Y19.015
G00 Z-2.000
G01 Y15.965
G01 Z-2.800 F120
G01 Y0.000 F400
G03 X-0.484 Y-0.204 I0.5250 J0.0000
G03 X0.020 Y-0.525 I0.4844 J0.2052
G01 X17.235
G00 Z-2.000
G01 X20.285
G00 Z-2.300
G01 Z-3.200 F120
G01 X37.500 F400
G03 X38.025 Y0.020 I-0.0003 J0.5256
G01 Y15.985
G00 Z-2.000
G01 Y19.035
G00 Z-2.300
G01 Z-3.200 F120
G01 Y35.000 F400
G03 X37.480 Y35.525 I-0.5256 J-0.0003
G01 X20.265
G00 Z-2.000
G01 X17.215
G00 Z-2.300
G01 Z-3.200 F120
G01 X0.000 F400
G03 X-0.524 Y35.037 I0.0000 J-0.5250
G01 X-0.525 Y34.980
G01 Y19.015
G00 Z-2.000
G01 Y15.965
G00 Z-2.300
G01 Z-3.200 F120
G01 Y0.000 F400
G03 X-0.484 Y-0.204 I0.5250 J0.0000
G03 X0.020 Y-0.525 I0.4844 J0.2052
G01 X17.235
G00 Z-2.000
G01 X20.285
G00 Z-2.700
G01 Z-3.500 F120
G01 X37.500 F400
G03 X38.025 Y0.020 I-0.0003 J0.5256
G01 Y15.985
G00 Z-2.000
G01 Y19.035
G00 Z-2.700
G01 Z-3.500 F120
G01 Y35.000 F400
G03 X37.480 Y35.525 I-0.5256 J-0.0003
G01 X20.265
G00 Z-2.000
G01 X17.215
G00 Z-2.700
G01 Z-3.500 F120
G01 X0.000 F400
G03 X-0.524 Y35.037 I0.0000 J-0.5250
G01 X-0.525 Y34.980
G01 Y19.015
G00 Z-2.000
G01 Y15.965
G00 Z-2.700
G01 Z-3.500 F120
G01 Y0.000 F400
G03 X-0.484 Y-0.204 I0.5250 J0.0000
G03 X0.020 Y-0.525 I0.4844 J0.2052
G01 X17.235
G00 Z-2.000
G01 X20.285
G00 Z20.000
G00 X0.000 Y0.000

M05
M30
