(Project nrf51822-reverse-holder)
(Created by Estlcam version 11 build 11.118)
(Machining time about 00:41:49 hours)

(Required tools:)
(End 1.000mm)
G21
G90
G94
M03 S24000.0
G00 Z20.000


(No. 1 Parallel pocket: Hole 1)
G00 X19.051 Y17.163
G00 Z0.500
G01 Z-0.400 F120 S24000.0
G02 X18.919 Y17.413 I0.3079 J0.3232 F400
G01 X18.944 Y17.656
G02 X19.798 Y17.404 I0.4251 J-0.1323
G02 X19.051 Y17.163 I-0.4386 J0.0830
G01 X18.756 Y16.848
G02 X18.474 Y17.421 I0.5939 J0.6493
G01 X18.524 Y17.749
G02 X20.150 Y17.885 I0.8338 J-0.1797
G02 X18.756 Y16.848 I-0.7956 J-0.3855
G01 X18.472 Y16.525
G02 X18.020 Y17.488 I0.9333 J1.0248
G03 X18.107 Y17.843 I-1.8128 J0.6305
G02 X20.630 Y17.797 I1.2569 J-0.2821
G02 X18.472 Y16.525 I-1.2782 J-0.2986
G01 X18.191 Y16.203
G02 X17.608 Y17.354 I1.1810 J1.3206
G01 X17.558 Y17.497
G01 X17.659 Y17.740
G02 X21.088 Y17.600 I1.7099 J-0.1830
G02 X18.191 Y16.203 I-1.7374 J-0.0989
G01 X17.894 Y15.888
G02 X17.188 Y17.245 I1.4718 J1.6274
G01 X17.104 Y17.446
G01 Y17.522
G03 X17.292 Y18.112 I-2.8727 J1.2356
G02 X21.520 Y17.540 I2.0768 J-0.5623
G02 X17.894 Y15.888 I-2.1707 J-0.0406
G01 X17.608 Y15.565
G02 X16.768 Y17.136 I1.7722 J1.9571
G01 X16.676 Y17.354
G01 Y17.606
G01 X16.819 Y17.959
G02 X21.947 Y17.347 I2.5504 J-0.4203
G02 X17.608 Y15.565 I-2.5955 J0.1464
G01 X17.299 Y15.257
G02 X16.357 Y17.001 I2.0340 J2.2259
G01 X16.248 Y17.270
G01 Y17.690
G01 X16.390 Y18.043
G02 X22.373 Y17.382 I2.9722 J-0.5048
G02 X17.299 Y15.257 I-3.0253 J0.1033
G01 X17.001 Y14.950
G02 X15.928 Y16.917 I2.3761 J2.5709
G01 X15.819 Y17.178
G01 Y17.782
G01 X15.962 Y18.127
G02 X22.763 Y18.065 I3.3955 J-0.5897
G02 X17.001 Y14.950 I-3.4113 J-0.5773
G01 X16.718 Y14.625
G01 X16.644 Y14.689
G02 X15.500 Y16.833 I2.8144 J2.8796
G01 X15.391 Y17.094
G01 Y17.875
G01 X15.534 Y18.211
G02 X23.246 Y17.424 I3.8264 J-0.6851
G02 X16.718 Y14.625 I-3.8930 J0.0673
G01 X16.433 Y14.304
G02 X15.072 Y16.749 I2.9552 J3.2475
G01 X14.962 Y17.010
G01 Y17.959
G01 X15.139 Y18.396
G02 X23.562 Y16.518 I4.2268 J-0.8697
G02 X16.433 Y14.304 I-4.2121 J0.9794
G01 X16.128 Y13.992
G02 X14.643 Y16.665 I3.2861 J3.5747
G01 X14.534 Y16.926
G01 Y18.043
G01 X14.744 Y18.580
G02 X24.087 Y17.170 I4.6210 J-1.0400
G02 X16.128 Y13.992 I-4.7451 J0.3282
G01 X15.825 Y13.681
G02 X14.248 Y16.480 I3.4939 J3.8118
G01 X14.106 Y16.842
G01 Y18.127
G01 X14.316 Y18.664
G02 X24.406 Y16.365 I5.0483 J-1.1353
G02 X15.825 Y13.681 I-5.0645 J1.1334
G01 X15.525 Y13.372
G02 X13.828 Y16.388 I3.7891 J4.1161
G01 X13.677 Y16.758
G01 Y18.211
G01 X13.887 Y18.748
G02 X24.824 Y16.258 I5.4736 J-1.2224
G02 X15.525 Y13.372 I-5.4815 J1.2380
G01 X15.218 Y13.059
G02 X13.400 Y16.304 I4.0919 J4.4246
G01 X13.249 Y16.674
G01 Y18.295
G01 X13.459 Y18.832
G02 X25.238 Y16.120 I5.9001 J-1.3097
G02 X15.218 Y13.059 I-5.8964 J1.3712
G01 X14.905 Y12.741
G02 X12.972 Y16.220 I4.2765 J4.6525
G01 X12.820 Y16.590
G01 Y18.379
G01 X13.047 Y18.967
G02 X25.672 Y16.111 I6.3097 J-1.4403
G02 X14.905 Y12.741 I-6.3471 J1.3936
G01 X14.616 Y12.421
G01 X14.503 Y12.523
G02 X12.543 Y16.136 I4.7136 J4.8954
G01 X12.392 Y16.497
G01 Y18.463
G01 X12.619 Y19.051
G02 X26.024 Y15.708 I6.7379 J-1.5291
G02 X14.616 Y12.421 I-6.6935 J1.7914
G01 X14.320 Y12.105
G02 X12.115 Y16.052 I4.8923 J5.3223
G01 X11.964 Y16.405
G01 Y18.547
G01 X12.224 Y19.236
G02 X26.409 Y15.464 I7.1383 J-1.7132
G02 X14.320 Y12.105 I-7.0756 J2.0321
G01 X14.025 Y11.796
G02 X11.686 Y15.968 I5.2670 J5.6933
G01 X11.535 Y16.312
G01 Y18.631
G01 X11.796 Y19.320
G02 X26.817 Y15.315 I7.5644 J-1.8005
G02 X14.025 Y11.796 I-7.4811 J2.1839
G01 X13.732 Y11.476
G02 X11.275 Y15.850 I5.5653 J6.0034
G01 X11.224 Y15.968
G01 X11.107 Y16.212
G01 Y18.715
G01 X11.367 Y19.404
G02 X27.349 Y15.646 I7.9892 J-1.8847
G02 X13.732 Y11.476 I-8.0111 J1.8425
G01 X13.441 Y11.159
G02 X10.846 Y15.766 I5.8517 J6.3294
G01 X10.746 Y15.976
G01 X10.678 Y16.111
G01 Y18.799
G01 X10.939 Y19.488
G02 X27.741 Y15.424 I8.4148 J-1.9752
G02 X13.441 Y11.159 I-8.4047 J2.0750
G01 X13.137 Y10.846
G02 X10.418 Y15.682 I6.1710 J6.6519
G01 X10.250 Y16.002
G01 Y18.874
G01 X10.510 Y19.572
G02 X28.047 Y14.905 I8.8401 J-2.0642
G02 X13.137 Y10.846 I-8.7149 J2.5979
G01 X12.838 Y10.545
G02 X10.015 Y15.523 I6.6537 J7.0634
G01 X9.822 Y15.892
G01 Y18.950
G01 X10.082 Y19.656
G02 X28.586 Y15.208 I9.2677 J-2.1575
G02 X12.838 Y10.545 I-9.2420 J2.2883
G01 X12.551 Y10.223
G01 X12.485 Y10.283
G02 X9.612 Y15.363 I6.9772 J7.2980
G01 X9.393 Y15.792
G01 Y19.026
G01 X9.654 Y19.740
G02 X29.000 Y15.076 I9.6946 J-2.2423
G02 X12.551 Y10.223 I-9.6534 J2.4174
G00 Z20.000
G00 X12.543 Y10.230
G00 Z0.100
G01 Z-0.400 F120
G01 X12.398 Y10.068 F400
G02 X9.391 Y15.315 I7.1215 J7.5661
G01 X9.171 Y15.747
G01 Y19.048
G01 X9.174 Y19.065
G01 X9.411 Y19.727
G01 X9.431 Y19.790
G02 X29.238 Y15.121 I9.9138 J-2.2903
G02 X12.398 Y10.068 I-9.8915 J2.3785
G00 Z20.000
G00 X19.051 Y17.163
G00 Z0.100
G01 Z-0.800 F120
G02 X18.919 Y17.413 I0.3079 J0.3232 F400
G01 X18.944 Y17.656
G02 X19.798 Y17.404 I0.4251 J-0.1323
G02 X19.051 Y17.163 I-0.4386 J0.0830
G01 X18.756 Y16.848
G02 X18.474 Y17.421 I0.5939 J0.6493
G01 X18.524 Y17.749
G02 X20.150 Y17.885 I0.8338 J-0.1797
G02 X18.756 Y16.848 I-0.7956 J-0.3855
G01 X18.472 Y16.525
G02 X18.020 Y17.488 I0.9333 J1.0248
G03 X18.107 Y17.843 I-1.8128 J0.6305
G02 X20.630 Y17.797 I1.2569 J-0.2821
G02 X18.472 Y16.525 I-1.2782 J-0.2986
G01 X18.191 Y16.203
G02 X17.608 Y17.354 I1.1810 J1.3206
G01 X17.558 Y17.497
G01 X17.659 Y17.740
G02 X21.088 Y17.600 I1.7099 J-0.1830
G02 X18.191 Y16.203 I-1.7374 J-0.0989
G01 X17.894 Y15.888
G02 X17.188 Y17.245 I1.4718 J1.6274
G01 X17.104 Y17.446
G01 Y17.522
G03 X17.292 Y18.112 I-2.8727 J1.2356
G02 X21.520 Y17.540 I2.0768 J-0.5623
G02 X17.894 Y15.888 I-2.1707 J-0.0406
G01 X17.608 Y15.565
G02 X16.768 Y17.136 I1.7722 J1.9571
G01 X16.676 Y17.354
G01 Y17.606
G01 X16.819 Y17.959
G02 X21.947 Y17.347 I2.5504 J-0.4203
G02 X17.608 Y15.565 I-2.5955 J0.1464
G01 X17.299 Y15.257
G02 X16.357 Y17.001 I2.0340 J2.2259
G01 X16.248 Y17.270
G01 Y17.690
G01 X16.390 Y18.043
G02 X22.373 Y17.382 I2.9722 J-0.5048
G02 X17.299 Y15.257 I-3.0253 J0.1033
G01 X17.001 Y14.950
G02 X15.928 Y16.917 I2.3761 J2.5709
G01 X15.819 Y17.178
G01 Y17.782
G01 X15.962 Y18.127
G02 X22.763 Y18.065 I3.3955 J-0.5897
G02 X17.001 Y14.950 I-3.4113 J-0.5773
G01 X16.718 Y14.625
G01 X16.644 Y14.689
G02 X15.500 Y16.833 I2.8144 J2.8796
G01 X15.391 Y17.094
G01 Y17.875
G01 X15.534 Y18.211
G02 X23.246 Y17.424 I3.8264 J-0.6851
G02 X16.718 Y14.625 I-3.8930 J0.0673
G01 X16.433 Y14.304
G02 X15.072 Y16.749 I2.9552 J3.2475
G01 X14.962 Y17.010
G01 Y17.959
G01 X15.139 Y18.396
G02 X23.562 Y16.518 I4.2268 J-0.8697
G02 X16.433 Y14.304 I-4.2121 J0.9794
G01 X16.128 Y13.992
G02 X14.643 Y16.665 I3.2861 J3.5747
G01 X14.534 Y16.926
G01 Y18.043
G01 X14.744 Y18.580
G02 X24.087 Y17.170 I4.6210 J-1.0400
G02 X16.128 Y13.992 I-4.7451 J0.3282
G01 X15.825 Y13.681
G02 X14.248 Y16.480 I3.4939 J3.8118
G01 X14.106 Y16.842
G01 Y18.127
G01 X14.316 Y18.664
G02 X24.406 Y16.365 I5.0483 J-1.1353
G02 X15.825 Y13.681 I-5.0645 J1.1334
G01 X15.525 Y13.372
G02 X13.828 Y16.388 I3.7891 J4.1161
G01 X13.677 Y16.758
G01 Y18.211
G01 X13.887 Y18.748
G02 X24.824 Y16.258 I5.4736 J-1.2224
G02 X15.525 Y13.372 I-5.4815 J1.2380
G01 X15.218 Y13.059
G02 X13.400 Y16.304 I4.0919 J4.4246
G01 X13.249 Y16.674
G01 Y18.295
G01 X13.459 Y18.832
G02 X25.238 Y16.120 I5.9001 J-1.3097
G02 X15.218 Y13.059 I-5.8964 J1.3712
G01 X14.905 Y12.741
G02 X12.972 Y16.220 I4.2765 J4.6525
G01 X12.820 Y16.590
G01 Y18.379
G01 X13.047 Y18.967
G02 X25.672 Y16.111 I6.3097 J-1.4403
G02 X14.905 Y12.741 I-6.3471 J1.3936
G01 X14.616 Y12.421
G01 X14.503 Y12.523
G02 X12.543 Y16.136 I4.7136 J4.8954
G01 X12.392 Y16.497
G01 Y18.463
G01 X12.619 Y19.051
G02 X26.024 Y15.708 I6.7379 J-1.5291
G02 X14.616 Y12.421 I-6.6935 J1.7914
G01 X14.320 Y12.105
G02 X12.115 Y16.052 I4.8923 J5.3223
G01 X11.964 Y16.405
G01 Y18.547
G01 X12.224 Y19.236
G02 X26.409 Y15.464 I7.1383 J-1.7132
G02 X14.320 Y12.105 I-7.0756 J2.0321
G01 X14.025 Y11.796
G02 X11.686 Y15.968 I5.2670 J5.6933
G01 X11.535 Y16.312
G01 Y18.631
G01 X11.796 Y19.320
G02 X26.817 Y15.315 I7.5644 J-1.8005
G02 X14.025 Y11.796 I-7.4811 J2.1839
G01 X13.732 Y11.476
G02 X11.275 Y15.850 I5.5653 J6.0034
G01 X11.224 Y15.968
G01 X11.107 Y16.212
G01 Y18.715
G01 X11.367 Y19.404
G02 X27.349 Y15.646 I7.9892 J-1.8847
G02 X13.732 Y11.476 I-8.0111 J1.8425
G01 X13.441 Y11.159
G02 X10.846 Y15.766 I5.8517 J6.3294
G01 X10.746 Y15.976
G01 X10.678 Y16.111
G01 Y18.799
G01 X10.939 Y19.488
G02 X27.741 Y15.424 I8.4148 J-1.9752
G02 X13.441 Y11.159 I-8.4047 J2.0750
G01 X13.137 Y10.846
G02 X10.418 Y15.682 I6.1710 J6.6519
G01 X10.250 Y16.002
G01 Y18.874
G01 X10.510 Y19.572
G02 X28.047 Y14.905 I8.8401 J-2.0642
G02 X13.137 Y10.846 I-8.7149 J2.5979
G01 X12.838 Y10.545
G02 X10.015 Y15.523 I6.6537 J7.0634
G01 X9.822 Y15.892
G01 Y18.950
G01 X10.082 Y19.656
G02 X28.586 Y15.208 I9.2677 J-2.1575
G02 X12.838 Y10.545 I-9.2420 J2.2883
G01 X12.551 Y10.223
G01 X12.485 Y10.283
G02 X9.612 Y15.363 I6.9772 J7.2980
G01 X9.393 Y15.792
G01 Y19.026
G01 X9.654 Y19.740
G02 X29.000 Y15.076 I9.6946 J-2.2423
G02 X12.551 Y10.223 I-9.6534 J2.4174
G00 Z20.000
G00 X12.543 Y10.230
G00 Z-0.300
G01 Z-0.800 F120
G01 X12.398 Y10.068 F400
G02 X9.391 Y15.315 I7.1215 J7.5661
G01 X9.171 Y15.747
G01 Y19.048
G01 X9.174 Y19.065
G01 X9.411 Y19.727
G01 X9.431 Y19.790
G02 X29.238 Y15.121 I9.9138 J-2.2903
G02 X12.398 Y10.068 I-9.8915 J2.3785
G00 Z20.000
G00 X19.051 Y17.163
G00 Z-0.300
G01 Z-1.200 F120
G02 X18.919 Y17.413 I0.3079 J0.3232 F400
G01 X18.944 Y17.656
G02 X19.798 Y17.404 I0.4251 J-0.1323
G02 X19.051 Y17.163 I-0.4386 J0.0830
G01 X18.756 Y16.848
G02 X18.474 Y17.421 I0.5939 J0.6493
G01 X18.524 Y17.749
G02 X20.150 Y17.885 I0.8338 J-0.1797
G02 X18.756 Y16.848 I-0.7956 J-0.3855
G01 X18.472 Y16.525
G02 X18.020 Y17.488 I0.9333 J1.0248
G03 X18.107 Y17.843 I-1.8128 J0.6305
G02 X20.630 Y17.797 I1.2569 J-0.2821
G02 X18.472 Y16.525 I-1.2782 J-0.2986
G01 X18.191 Y16.203
G02 X17.608 Y17.354 I1.1810 J1.3206
G01 X17.558 Y17.497
G01 X17.659 Y17.740
G02 X21.088 Y17.600 I1.7099 J-0.1830
G02 X18.191 Y16.203 I-1.7374 J-0.0989
G01 X17.894 Y15.888
G02 X17.188 Y17.245 I1.4718 J1.6274
G01 X17.104 Y17.446
G01 Y17.522
G03 X17.292 Y18.112 I-2.8727 J1.2356
G02 X21.520 Y17.540 I2.0768 J-0.5623
G02 X17.894 Y15.888 I-2.1707 J-0.0406
G01 X17.608 Y15.565
G02 X16.768 Y17.136 I1.7722 J1.9571
G01 X16.676 Y17.354
G01 Y17.606
G01 X16.819 Y17.959
G02 X21.947 Y17.347 I2.5504 J-0.4203
G02 X17.608 Y15.565 I-2.5955 J0.1464
G01 X17.299 Y15.257
G02 X16.357 Y17.001 I2.0340 J2.2259
G01 X16.248 Y17.270
G01 Y17.690
G01 X16.390 Y18.043
G02 X22.373 Y17.382 I2.9722 J-0.5048
G02 X17.299 Y15.257 I-3.0253 J0.1033
G01 X17.001 Y14.950
G02 X15.928 Y16.917 I2.3761 J2.5709
G01 X15.819 Y17.178
G01 Y17.782
G01 X15.962 Y18.127
G02 X22.763 Y18.065 I3.3955 J-0.5897
G02 X17.001 Y14.950 I-3.4113 J-0.5773
G01 X16.718 Y14.625
G01 X16.644 Y14.689
G02 X15.500 Y16.833 I2.8144 J2.8796
G01 X15.391 Y17.094
G01 Y17.875
G01 X15.534 Y18.211
G02 X23.246 Y17.424 I3.8264 J-0.6851
G02 X16.718 Y14.625 I-3.8930 J0.0673
G01 X16.433 Y14.304
G02 X15.072 Y16.749 I2.9552 J3.2475
G01 X14.962 Y17.010
G01 Y17.959
G01 X15.139 Y18.396
G02 X23.562 Y16.518 I4.2268 J-0.8697
G02 X16.433 Y14.304 I-4.2121 J0.9794
G01 X16.128 Y13.992
G02 X14.643 Y16.665 I3.2861 J3.5747
G01 X14.534 Y16.926
G01 Y18.043
G01 X14.744 Y18.580
G02 X24.087 Y17.170 I4.6210 J-1.0400
G02 X16.128 Y13.992 I-4.7451 J0.3282
G01 X15.825 Y13.681
G02 X14.248 Y16.480 I3.4939 J3.8118
G01 X14.106 Y16.842
G01 Y18.127
G01 X14.316 Y18.664
G02 X24.406 Y16.365 I5.0483 J-1.1353
G02 X15.825 Y13.681 I-5.0645 J1.1334
G01 X15.525 Y13.372
G02 X13.828 Y16.388 I3.7891 J4.1161
G01 X13.677 Y16.758
G01 Y18.211
G01 X13.887 Y18.748
G02 X24.824 Y16.258 I5.4736 J-1.2224
G02 X15.525 Y13.372 I-5.4815 J1.2380
G01 X15.218 Y13.059
G02 X13.400 Y16.304 I4.0919 J4.4246
G01 X13.249 Y16.674
G01 Y18.295
G01 X13.459 Y18.832
G02 X25.238 Y16.120 I5.9001 J-1.3097
G02 X15.218 Y13.059 I-5.8964 J1.3712
G01 X14.905 Y12.741
G02 X12.972 Y16.220 I4.2765 J4.6525
G01 X12.820 Y16.590
G01 Y18.379
G01 X13.047 Y18.967
G02 X25.672 Y16.111 I6.3097 J-1.4403
G02 X14.905 Y12.741 I-6.3471 J1.3936
G01 X14.616 Y12.421
G01 X14.503 Y12.523
G02 X12.543 Y16.136 I4.7136 J4.8954
G01 X12.392 Y16.497
G01 Y18.463
G01 X12.619 Y19.051
G02 X26.024 Y15.708 I6.7379 J-1.5291
G02 X14.616 Y12.421 I-6.6935 J1.7914
G01 X14.320 Y12.105
G02 X12.115 Y16.052 I4.8923 J5.3223
G01 X11.964 Y16.405
G01 Y18.547
G01 X12.224 Y19.236
G02 X26.409 Y15.464 I7.1383 J-1.7132
G02 X14.320 Y12.105 I-7.0756 J2.0321
G01 X14.025 Y11.796
G02 X11.686 Y15.968 I5.2670 J5.6933
G01 X11.535 Y16.312
G01 Y18.631
G01 X11.796 Y19.320
G02 X26.817 Y15.315 I7.5644 J-1.8005
G02 X14.025 Y11.796 I-7.4811 J2.1839
G01 X13.732 Y11.476
G02 X11.275 Y15.850 I5.5653 J6.0034
G01 X11.224 Y15.968
G01 X11.107 Y16.212
G01 Y18.715
G01 X11.367 Y19.404
G02 X27.349 Y15.646 I7.9892 J-1.8847
G02 X13.732 Y11.476 I-8.0111 J1.8425
G01 X13.441 Y11.159
G02 X10.846 Y15.766 I5.8517 J6.3294
G01 X10.746 Y15.976
G01 X10.678 Y16.111
G01 Y18.799
G01 X10.939 Y19.488
G02 X27.741 Y15.424 I8.4148 J-1.9752
G02 X13.441 Y11.159 I-8.4047 J2.0750
G01 X13.137 Y10.846
G02 X10.418 Y15.682 I6.1710 J6.6519
G01 X10.250 Y16.002
G01 Y18.874
G01 X10.510 Y19.572
G02 X28.047 Y14.905 I8.8401 J-2.0642
G02 X13.137 Y10.846 I-8.7149 J2.5979
G01 X12.838 Y10.545
G02 X10.015 Y15.523 I6.6537 J7.0634
G01 X9.822 Y15.892
G01 Y18.950
G01 X10.082 Y19.656
G02 X28.586 Y15.208 I9.2677 J-2.1575
G02 X12.838 Y10.545 I-9.2420 J2.2883
G01 X12.551 Y10.223
G01 X12.485 Y10.283
G02 X9.612 Y15.363 I6.9772 J7.2980
G01 X9.393 Y15.792
G01 Y19.026
G01 X9.654 Y19.740
G02 X29.000 Y15.076 I9.6946 J-2.2423
G02 X12.551 Y10.223 I-9.6534 J2.4174
G00 Z20.000
G00 X12.543 Y10.230
G00 Z-0.700
G01 Z-1.200 F120
G01 X12.398 Y10.068 F400
G02 X9.391 Y15.315 I7.1215 J7.5661
G01 X9.171 Y15.747
G01 Y19.048
G01 X9.174 Y19.065
G01 X9.411 Y19.727
G01 X9.431 Y19.790
G02 X29.238 Y15.121 I9.9138 J-2.2903
G02 X12.398 Y10.068 I-9.8915 J2.3785
G00 Z20.000
G00 X19.051 Y17.163
G00 Z-0.700
G01 Z-1.600 F120
G02 X18.919 Y17.413 I0.3079 J0.3232 F400
G01 X18.944 Y17.656
G02 X19.798 Y17.404 I0.4251 J-0.1323
G02 X19.051 Y17.163 I-0.4386 J0.0830
G01 X18.756 Y16.848
G02 X18.474 Y17.421 I0.5939 J0.6493
G01 X18.524 Y17.749
G02 X20.150 Y17.885 I0.8338 J-0.1797
G02 X18.756 Y16.848 I-0.7956 J-0.3855
G01 X18.472 Y16.525
G02 X18.020 Y17.488 I0.9333 J1.0248
G03 X18.107 Y17.843 I-1.8128 J0.6305
G02 X20.630 Y17.797 I1.2569 J-0.2821
G02 X18.472 Y16.525 I-1.2782 J-0.2986
G01 X18.191 Y16.203
G02 X17.608 Y17.354 I1.1810 J1.3206
G01 X17.558 Y17.497
G01 X17.659 Y17.740
G02 X21.088 Y17.600 I1.7099 J-0.1830
G02 X18.191 Y16.203 I-1.7374 J-0.0989
G01 X17.894 Y15.888
G02 X17.188 Y17.245 I1.4718 J1.6274
G01 X17.104 Y17.446
G01 Y17.522
G03 X17.292 Y18.112 I-2.8727 J1.2356
G02 X21.520 Y17.540 I2.0768 J-0.5623
G02 X17.894 Y15.888 I-2.1707 J-0.0406
G01 X17.608 Y15.565
G02 X16.768 Y17.136 I1.7722 J1.9571
G01 X16.676 Y17.354
G01 Y17.606
G01 X16.819 Y17.959
G02 X21.947 Y17.347 I2.5504 J-0.4203
G02 X17.608 Y15.565 I-2.5955 J0.1464
G01 X17.299 Y15.257
G02 X16.357 Y17.001 I2.0340 J2.2259
G01 X16.248 Y17.270
G01 Y17.690
G01 X16.390 Y18.043
G02 X22.373 Y17.382 I2.9722 J-0.5048
G02 X17.299 Y15.257 I-3.0253 J0.1033
G01 X17.001 Y14.950
G02 X15.928 Y16.917 I2.3761 J2.5709
G01 X15.819 Y17.178
G01 Y17.782
G01 X15.962 Y18.127
G02 X22.763 Y18.065 I3.3955 J-0.5897
G02 X17.001 Y14.950 I-3.4113 J-0.5773
G01 X16.718 Y14.625
G01 X16.644 Y14.689
G02 X15.500 Y16.833 I2.8144 J2.8796
G01 X15.391 Y17.094
G01 Y17.875
G01 X15.534 Y18.211
G02 X23.246 Y17.424 I3.8264 J-0.6851
G02 X16.718 Y14.625 I-3.8930 J0.0673
G01 X16.433 Y14.304
G02 X15.072 Y16.749 I2.9552 J3.2475
G01 X14.962 Y17.010
G01 Y17.959
G01 X15.139 Y18.396
G02 X23.562 Y16.518 I4.2268 J-0.8697
G02 X16.433 Y14.304 I-4.2121 J0.9794
G01 X16.128 Y13.992
G02 X14.643 Y16.665 I3.2861 J3.5747
G01 X14.534 Y16.926
G01 Y18.043
G01 X14.744 Y18.580
G02 X24.087 Y17.170 I4.6210 J-1.0400
G02 X16.128 Y13.992 I-4.7451 J0.3282
G01 X15.825 Y13.681
G02 X14.248 Y16.480 I3.4939 J3.8118
G01 X14.106 Y16.842
G01 Y18.127
G01 X14.316 Y18.664
G02 X24.406 Y16.365 I5.0483 J-1.1353
G02 X15.825 Y13.681 I-5.0645 J1.1334
G01 X15.525 Y13.372
G02 X13.828 Y16.388 I3.7891 J4.1161
G01 X13.677 Y16.758
G01 Y18.211
G01 X13.887 Y18.748
G02 X24.824 Y16.258 I5.4736 J-1.2224
G02 X15.525 Y13.372 I-5.4815 J1.2380
G01 X15.218 Y13.059
G02 X13.400 Y16.304 I4.0919 J4.4246
G01 X13.249 Y16.674
G01 Y18.295
G01 X13.459 Y18.832
G02 X25.238 Y16.120 I5.9001 J-1.3097
G02 X15.218 Y13.059 I-5.8964 J1.3712
G01 X14.905 Y12.741
G02 X12.972 Y16.220 I4.2765 J4.6525
G01 X12.820 Y16.590
G01 Y18.379
G01 X13.047 Y18.967
G02 X25.672 Y16.111 I6.3097 J-1.4403
G02 X14.905 Y12.741 I-6.3471 J1.3936
G01 X14.616 Y12.421
G01 X14.503 Y12.523
G02 X12.543 Y16.136 I4.7136 J4.8954
G01 X12.392 Y16.497
G01 Y18.463
G01 X12.619 Y19.051
G02 X26.024 Y15.708 I6.7379 J-1.5291
G02 X14.616 Y12.421 I-6.6935 J1.7914
G01 X14.320 Y12.105
G02 X12.115 Y16.052 I4.8923 J5.3223
G01 X11.964 Y16.405
G01 Y18.547
G01 X12.224 Y19.236
G02 X26.409 Y15.464 I7.1383 J-1.7132
G02 X14.320 Y12.105 I-7.0756 J2.0321
G01 X14.025 Y11.796
G02 X11.686 Y15.968 I5.2670 J5.6933
G01 X11.535 Y16.312
G01 Y18.631
G01 X11.796 Y19.320
G02 X26.817 Y15.315 I7.5644 J-1.8005
G02 X14.025 Y11.796 I-7.4811 J2.1839
G01 X13.732 Y11.476
G02 X11.275 Y15.850 I5.5653 J6.0034
G01 X11.224 Y15.968
G01 X11.107 Y16.212
G01 Y18.715
G01 X11.367 Y19.404
G02 X27.349 Y15.646 I7.9892 J-1.8847
G02 X13.732 Y11.476 I-8.0111 J1.8425
G01 X13.441 Y11.159
G02 X10.846 Y15.766 I5.8517 J6.3294
G01 X10.746 Y15.976
G01 X10.678 Y16.111
G01 Y18.799
G01 X10.939 Y19.488
G02 X27.741 Y15.424 I8.4148 J-1.9752
G02 X13.441 Y11.159 I-8.4047 J2.0750
G01 X13.137 Y10.846
G02 X10.418 Y15.682 I6.1710 J6.6519
G01 X10.250 Y16.002
G01 Y18.874
G01 X10.510 Y19.572
G02 X28.047 Y14.905 I8.8401 J-2.0642
G02 X13.137 Y10.846 I-8.7149 J2.5979
G01 X12.838 Y10.545
G02 X10.015 Y15.523 I6.6537 J7.0634
G01 X9.822 Y15.892
G01 Y18.950
G01 X10.082 Y19.656
G02 X28.586 Y15.208 I9.2677 J-2.1575
G02 X12.838 Y10.545 I-9.2420 J2.2883
G01 X12.551 Y10.223
G01 X12.485 Y10.283
G02 X9.612 Y15.363 I6.9772 J7.2980
G01 X9.393 Y15.792
G01 Y19.026
G01 X9.654 Y19.740
G02 X29.000 Y15.076 I9.6946 J-2.2423
G02 X12.551 Y10.223 I-9.6534 J2.4174
G00 Z20.000
G00 X12.543 Y10.230
G00 Z-1.100
G01 Z-1.600 F120
G01 X12.398 Y10.068 F400
G02 X9.391 Y15.315 I7.1215 J7.5661
G01 X9.171 Y15.747
G01 Y19.048
G01 X9.174 Y19.065
G01 X9.411 Y19.727
G01 X9.431 Y19.790
G02 X29.238 Y15.121 I9.9138 J-2.2903
G02 X12.398 Y10.068 I-9.8915 J2.3785
G00 Z20.000
G00 X19.051 Y17.163
G00 Z-1.100
G01 Z-2.000 F120
G02 X18.919 Y17.413 I0.3079 J0.3232 F400
G01 X18.944 Y17.656
G02 X19.798 Y17.404 I0.4251 J-0.1323
G02 X19.051 Y17.163 I-0.4386 J0.0830
G01 X18.756 Y16.848
G02 X18.474 Y17.421 I0.5939 J0.6493
G01 X18.524 Y17.749
G02 X20.150 Y17.885 I0.8338 J-0.1797
G02 X18.756 Y16.848 I-0.7956 J-0.3855
G01 X18.472 Y16.525
G02 X18.020 Y17.488 I0.9333 J1.0248
G03 X18.107 Y17.843 I-1.8128 J0.6305
G02 X20.630 Y17.797 I1.2569 J-0.2821
G02 X18.472 Y16.525 I-1.2782 J-0.2986
G01 X18.191 Y16.203
G02 X17.608 Y17.354 I1.1810 J1.3206
G01 X17.558 Y17.497
G01 X17.659 Y17.740
G02 X21.088 Y17.600 I1.7099 J-0.1830
G02 X18.191 Y16.203 I-1.7374 J-0.0989
G01 X17.894 Y15.888
G02 X17.188 Y17.245 I1.4718 J1.6274
G01 X17.104 Y17.446
G01 Y17.522
G03 X17.292 Y18.112 I-2.8727 J1.2356
G02 X21.520 Y17.540 I2.0768 J-0.5623
G02 X17.894 Y15.888 I-2.1707 J-0.0406
G01 X17.608 Y15.565
G02 X16.768 Y17.136 I1.7722 J1.9571
G01 X16.676 Y17.354
G01 Y17.606
G01 X16.819 Y17.959
G02 X21.947 Y17.347 I2.5504 J-0.4203
G02 X17.608 Y15.565 I-2.5955 J0.1464
G01 X17.299 Y15.257
G02 X16.357 Y17.001 I2.0340 J2.2259
G01 X16.248 Y17.270
G01 Y17.690
G01 X16.390 Y18.043
G02 X22.373 Y17.382 I2.9722 J-0.5048
G02 X17.299 Y15.257 I-3.0253 J0.1033
G01 X17.001 Y14.950
G02 X15.928 Y16.917 I2.3761 J2.5709
G01 X15.819 Y17.178
G01 Y17.782
G01 X15.962 Y18.127
G02 X22.763 Y18.065 I3.3955 J-0.5897
G02 X17.001 Y14.950 I-3.4113 J-0.5773
G01 X16.718 Y14.625
G01 X16.644 Y14.689
G02 X15.500 Y16.833 I2.8144 J2.8796
G01 X15.391 Y17.094
G01 Y17.875
G01 X15.534 Y18.211
G02 X23.246 Y17.424 I3.8264 J-0.6851
G02 X16.718 Y14.625 I-3.8930 J0.0673
G01 X16.433 Y14.304
G02 X15.072 Y16.749 I2.9552 J3.2475
G01 X14.962 Y17.010
G01 Y17.959
G01 X15.139 Y18.396
G02 X23.562 Y16.518 I4.2268 J-0.8697
G02 X16.433 Y14.304 I-4.2121 J0.9794
G01 X16.128 Y13.992
G02 X14.643 Y16.665 I3.2861 J3.5747
G01 X14.534 Y16.926
G01 Y18.043
G01 X14.744 Y18.580
G02 X24.087 Y17.170 I4.6210 J-1.0400
G02 X16.128 Y13.992 I-4.7451 J0.3282
G01 X15.825 Y13.681
G02 X14.248 Y16.480 I3.4939 J3.8118
G01 X14.106 Y16.842
G01 Y18.127
G01 X14.316 Y18.664
G02 X24.406 Y16.365 I5.0483 J-1.1353
G02 X15.825 Y13.681 I-5.0645 J1.1334
G01 X15.525 Y13.372
G02 X13.828 Y16.388 I3.7891 J4.1161
G01 X13.677 Y16.758
G01 Y18.211
G01 X13.887 Y18.748
G02 X24.824 Y16.258 I5.4736 J-1.2224
G02 X15.525 Y13.372 I-5.4815 J1.2380
G01 X15.218 Y13.059
G02 X13.400 Y16.304 I4.0919 J4.4246
G01 X13.249 Y16.674
G01 Y18.295
G01 X13.459 Y18.832
G02 X25.238 Y16.120 I5.9001 J-1.3097
G02 X15.218 Y13.059 I-5.8964 J1.3712
G01 X14.905 Y12.741
G02 X12.972 Y16.220 I4.2765 J4.6525
G01 X12.820 Y16.590
G01 Y18.379
G01 X13.047 Y18.967
G02 X25.672 Y16.111 I6.3097 J-1.4403
G02 X14.905 Y12.741 I-6.3471 J1.3936
G01 X14.616 Y12.421
G01 X14.503 Y12.523
G02 X12.543 Y16.136 I4.7136 J4.8954
G01 X12.392 Y16.497
G01 Y18.463
G01 X12.619 Y19.051
G02 X26.024 Y15.708 I6.7379 J-1.5291
G02 X14.616 Y12.421 I-6.6935 J1.7914
G01 X14.320 Y12.105
G02 X12.115 Y16.052 I4.8923 J5.3223
G01 X11.964 Y16.405
G01 Y18.547
G01 X12.224 Y19.236
G02 X26.409 Y15.464 I7.1383 J-1.7132
G02 X14.320 Y12.105 I-7.0756 J2.0321
G01 X14.025 Y11.796
G02 X11.686 Y15.968 I5.2670 J5.6933
G01 X11.535 Y16.312
G01 Y18.631
G01 X11.796 Y19.320
G02 X26.817 Y15.315 I7.5644 J-1.8005
G02 X14.025 Y11.796 I-7.4811 J2.1839
G01 X13.732 Y11.476
G02 X11.275 Y15.850 I5.5653 J6.0034
G01 X11.224 Y15.968
G01 X11.107 Y16.212
G01 Y18.715
G01 X11.367 Y19.404
G02 X27.349 Y15.646 I7.9892 J-1.8847
G02 X13.732 Y11.476 I-8.0111 J1.8425
G01 X13.441 Y11.159
G02 X10.846 Y15.766 I5.8517 J6.3294
G01 X10.746 Y15.976
G01 X10.678 Y16.111
G01 Y18.799
G01 X10.939 Y19.488
G02 X27.741 Y15.424 I8.4148 J-1.9752
G02 X13.441 Y11.159 I-8.4047 J2.0750
G01 X13.137 Y10.846
G02 X10.418 Y15.682 I6.1710 J6.6519
G01 X10.250 Y16.002
G01 Y18.874
G01 X10.510 Y19.572
G02 X28.047 Y14.905 I8.8401 J-2.0642
G02 X13.137 Y10.846 I-8.7149 J2.5979
G01 X12.838 Y10.545
G02 X10.015 Y15.523 I6.6537 J7.0634
G01 X9.822 Y15.892
G01 Y18.950
G01 X10.082 Y19.656
G02 X28.586 Y15.208 I9.2677 J-2.1575
G02 X12.838 Y10.545 I-9.2420 J2.2883
G01 X12.551 Y10.223
G01 X12.485 Y10.283
G02 X9.612 Y15.363 I6.9772 J7.2980
G01 X9.393 Y15.792
G01 Y19.026
G01 X9.654 Y19.740
G02 X29.000 Y15.076 I9.6946 J-2.2423
G02 X12.551 Y10.223 I-9.6534 J2.4174
G00 Z20.000
G00 X12.543 Y10.230
G00 Z-1.500
G01 Z-2.000 F120
G01 X12.398 Y10.068 F400
G02 X9.391 Y15.315 I7.1215 J7.5661
G01 X9.171 Y15.747
G01 Y19.048
G01 X9.174 Y19.065
G01 X9.411 Y19.727
G01 X9.431 Y19.790
G02 X29.238 Y15.121 I9.9138 J-2.2903
G02 X12.398 Y10.068 I-9.8915 J2.3785
G00 Z20.000
G00 X19.051 Y17.163
G00 Z-1.500
G01 Z-2.400 F120
G02 X18.919 Y17.413 I0.3079 J0.3232 F400
G01 X18.944 Y17.656
G02 X19.798 Y17.404 I0.4251 J-0.1323
G02 X19.051 Y17.163 I-0.4386 J0.0830
G01 X18.756 Y16.848
G02 X18.474 Y17.421 I0.5939 J0.6493
G01 X18.524 Y17.749
G02 X20.150 Y17.885 I0.8338 J-0.1797
G02 X18.756 Y16.848 I-0.7956 J-0.3855
G01 X18.472 Y16.525
G02 X18.020 Y17.488 I0.9333 J1.0248
G03 X18.107 Y17.843 I-1.8128 J0.6305
G02 X20.630 Y17.797 I1.2569 J-0.2821
G02 X18.472 Y16.525 I-1.2782 J-0.2986
G01 X18.191 Y16.203
G02 X17.608 Y17.354 I1.1810 J1.3206
G01 X17.558 Y17.497
G01 X17.659 Y17.740
G02 X21.088 Y17.600 I1.7099 J-0.1830
G02 X18.191 Y16.203 I-1.7374 J-0.0989
G01 X17.894 Y15.888
G02 X17.188 Y17.245 I1.4718 J1.6274
G01 X17.104 Y17.446
G01 Y17.522
G03 X17.292 Y18.112 I-2.8727 J1.2356
G02 X21.520 Y17.540 I2.0768 J-0.5623
G02 X17.894 Y15.888 I-2.1707 J-0.0406
G01 X17.608 Y15.565
G02 X16.768 Y17.136 I1.7722 J1.9571
G01 X16.676 Y17.354
G01 Y17.606
G01 X16.819 Y17.959
G02 X21.947 Y17.347 I2.5504 J-0.4203
G02 X17.608 Y15.565 I-2.5955 J0.1464
G01 X17.299 Y15.257
G02 X16.357 Y17.001 I2.0340 J2.2259
G01 X16.248 Y17.270
G01 Y17.690
G01 X16.390 Y18.043
G02 X22.373 Y17.382 I2.9722 J-0.5048
G02 X17.299 Y15.257 I-3.0253 J0.1033
G01 X17.001 Y14.950
G02 X15.928 Y16.917 I2.3761 J2.5709
G01 X15.819 Y17.178
G01 Y17.782
G01 X15.962 Y18.127
G02 X22.763 Y18.065 I3.3955 J-0.5897
G02 X17.001 Y14.950 I-3.4113 J-0.5773
G01 X16.718 Y14.625
G01 X16.644 Y14.689
G02 X15.500 Y16.833 I2.8144 J2.8796
G01 X15.391 Y17.094
G01 Y17.875
G01 X15.534 Y18.211
G02 X23.246 Y17.424 I3.8264 J-0.6851
G02 X16.718 Y14.625 I-3.8930 J0.0673
G01 X16.433 Y14.304
G02 X15.072 Y16.749 I2.9552 J3.2475
G01 X14.962 Y17.010
G01 Y17.959
G01 X15.139 Y18.396
G02 X23.562 Y16.518 I4.2268 J-0.8697
G02 X16.433 Y14.304 I-4.2121 J0.9794
G01 X16.128 Y13.992
G02 X14.643 Y16.665 I3.2861 J3.5747
G01 X14.534 Y16.926
G01 Y18.043
G01 X14.744 Y18.580
G02 X24.087 Y17.170 I4.6210 J-1.0400
G02 X16.128 Y13.992 I-4.7451 J0.3282
G01 X15.825 Y13.681
G02 X14.248 Y16.480 I3.4939 J3.8118
G01 X14.106 Y16.842
G01 Y18.127
G01 X14.316 Y18.664
G02 X24.406 Y16.365 I5.0483 J-1.1353
G02 X15.825 Y13.681 I-5.0645 J1.1334
G01 X15.525 Y13.372
G02 X13.828 Y16.388 I3.7891 J4.1161
G01 X13.677 Y16.758
G01 Y18.211
G01 X13.887 Y18.748
G02 X24.824 Y16.258 I5.4736 J-1.2224
G02 X15.525 Y13.372 I-5.4815 J1.2380
G01 X15.218 Y13.059
G02 X13.400 Y16.304 I4.0919 J4.4246
G01 X13.249 Y16.674
G01 Y18.295
G01 X13.459 Y18.832
G02 X25.238 Y16.120 I5.9001 J-1.3097
G02 X15.218 Y13.059 I-5.8964 J1.3712
G01 X14.905 Y12.741
G02 X12.972 Y16.220 I4.2765 J4.6525
G01 X12.820 Y16.590
G01 Y18.379
G01 X13.047 Y18.967
G02 X25.672 Y16.111 I6.3097 J-1.4403
G02 X14.905 Y12.741 I-6.3471 J1.3936
G01 X14.616 Y12.421
G01 X14.503 Y12.523
G02 X12.543 Y16.136 I4.7136 J4.8954
G01 X12.392 Y16.497
G01 Y18.463
G01 X12.619 Y19.051
G02 X26.024 Y15.708 I6.7379 J-1.5291
G02 X14.616 Y12.421 I-6.6935 J1.7914
G01 X14.320 Y12.105
G02 X12.115 Y16.052 I4.8923 J5.3223
G01 X11.964 Y16.405
G01 Y18.547
G01 X12.224 Y19.236
G02 X26.409 Y15.464 I7.1383 J-1.7132
G02 X14.320 Y12.105 I-7.0756 J2.0321
G01 X14.025 Y11.796
G02 X11.686 Y15.968 I5.2670 J5.6933
G01 X11.535 Y16.312
G01 Y18.631
G01 X11.796 Y19.320
G02 X26.817 Y15.315 I7.5644 J-1.8005
G02 X14.025 Y11.796 I-7.4811 J2.1839
G01 X13.732 Y11.476
G02 X11.275 Y15.850 I5.5653 J6.0034
G01 X11.224 Y15.968
G01 X11.107 Y16.212
G01 Y18.715
G01 X11.367 Y19.404
G02 X27.349 Y15.646 I7.9892 J-1.8847
G02 X13.732 Y11.476 I-8.0111 J1.8425
G01 X13.441 Y11.159
G02 X10.846 Y15.766 I5.8517 J6.3294
G01 X10.746 Y15.976
G01 X10.678 Y16.111
G01 Y18.799
G01 X10.939 Y19.488
G02 X27.741 Y15.424 I8.4148 J-1.9752
G02 X13.441 Y11.159 I-8.4047 J2.0750
G01 X13.137 Y10.846
G02 X10.418 Y15.682 I6.1710 J6.6519
G01 X10.250 Y16.002
G01 Y18.874
G01 X10.510 Y19.572
G02 X28.047 Y14.905 I8.8401 J-2.0642
G02 X13.137 Y10.846 I-8.7149 J2.5979
G01 X12.838 Y10.545
G02 X10.015 Y15.523 I6.6537 J7.0634
G01 X9.822 Y15.892
G01 Y18.950
G01 X10.082 Y19.656
G02 X28.586 Y15.208 I9.2677 J-2.1575
G02 X12.838 Y10.545 I-9.2420 J2.2883
G01 X12.551 Y10.223
G01 X12.485 Y10.283
G02 X9.612 Y15.363 I6.9772 J7.2980
G01 X9.393 Y15.792
G01 Y19.026
G01 X9.654 Y19.740
G02 X29.000 Y15.076 I9.6946 J-2.2423
G02 X12.551 Y10.223 I-9.6534 J2.4174
G00 Z20.000
G00 X12.543 Y10.230
G00 Z-1.900
G01 Z-2.400 F120
G01 X12.398 Y10.068 F400
G02 X9.391 Y15.315 I7.1215 J7.5661
G01 X9.171 Y15.747
G01 Y19.048
G01 X9.174 Y19.065
G01 X9.411 Y19.727
G01 X9.431 Y19.790
G02 X29.238 Y15.121 I9.9138 J-2.2903
G02 X12.398 Y10.068 I-9.8915 J2.3785
G00 Z20.000
G00 X19.051 Y17.163
G00 Z-1.900
G01 Z-2.800 F120
G02 X18.919 Y17.413 I0.3079 J0.3232 F400
G01 X18.944 Y17.656
G02 X19.798 Y17.404 I0.4251 J-0.1323
G02 X19.051 Y17.163 I-0.4386 J0.0830
G01 X18.756 Y16.848
G02 X18.474 Y17.421 I0.5939 J0.6493
G01 X18.524 Y17.749
G02 X20.150 Y17.885 I0.8338 J-0.1797
G02 X18.756 Y16.848 I-0.7956 J-0.3855
G01 X18.472 Y16.525
G02 X18.020 Y17.488 I0.9333 J1.0248
G03 X18.107 Y17.843 I-1.8128 J0.6305
G02 X20.630 Y17.797 I1.2569 J-0.2821
G02 X18.472 Y16.525 I-1.2782 J-0.2986
G01 X18.191 Y16.203
G02 X17.608 Y17.354 I1.1810 J1.3206
G01 X17.558 Y17.497
G01 X17.659 Y17.740
G02 X21.088 Y17.600 I1.7099 J-0.1830
G02 X18.191 Y16.203 I-1.7374 J-0.0989
G01 X17.894 Y15.888
G02 X17.188 Y17.245 I1.4718 J1.6274
G01 X17.104 Y17.446
G01 Y17.522
G03 X17.292 Y18.112 I-2.8727 J1.2356
G02 X21.520 Y17.540 I2.0768 J-0.5623
G02 X17.894 Y15.888 I-2.1707 J-0.0406
G01 X17.608 Y15.565
G02 X16.768 Y17.136 I1.7722 J1.9571
G01 X16.676 Y17.354
G01 Y17.606
G01 X16.819 Y17.959
G02 X21.947 Y17.347 I2.5504 J-0.4203
G02 X17.608 Y15.565 I-2.5955 J0.1464
G01 X17.299 Y15.257
G02 X16.357 Y17.001 I2.0340 J2.2259
G01 X16.248 Y17.270
G01 Y17.690
G01 X16.390 Y18.043
G02 X22.373 Y17.382 I2.9722 J-0.5048
G02 X17.299 Y15.257 I-3.0253 J0.1033
G01 X17.001 Y14.950
G02 X15.928 Y16.917 I2.3761 J2.5709
G01 X15.819 Y17.178
G01 Y17.782
G01 X15.962 Y18.127
G02 X22.763 Y18.065 I3.3955 J-0.5897
G02 X17.001 Y14.950 I-3.4113 J-0.5773
G01 X16.718 Y14.625
G01 X16.644 Y14.689
G02 X15.500 Y16.833 I2.8144 J2.8796
G01 X15.391 Y17.094
G01 Y17.875
G01 X15.534 Y18.211
G02 X23.246 Y17.424 I3.8264 J-0.6851
G02 X16.718 Y14.625 I-3.8930 J0.0673
G01 X16.433 Y14.304
G02 X15.072 Y16.749 I2.9552 J3.2475
G01 X14.962 Y17.010
G01 Y17.959
G01 X15.139 Y18.396
G02 X23.562 Y16.518 I4.2268 J-0.8697
G02 X16.433 Y14.304 I-4.2121 J0.9794
G01 X16.128 Y13.992
G02 X14.643 Y16.665 I3.2861 J3.5747
G01 X14.534 Y16.926
G01 Y18.043
G01 X14.744 Y18.580
G02 X24.087 Y17.170 I4.6210 J-1.0400
G02 X16.128 Y13.992 I-4.7451 J0.3282
G01 X15.825 Y13.681
G02 X14.248 Y16.480 I3.4939 J3.8118
G01 X14.106 Y16.842
G01 Y18.127
G01 X14.316 Y18.664
G02 X24.406 Y16.365 I5.0483 J-1.1353
G02 X15.825 Y13.681 I-5.0645 J1.1334
G01 X15.525 Y13.372
G02 X13.828 Y16.388 I3.7891 J4.1161
G01 X13.677 Y16.758
G01 Y18.211
G01 X13.887 Y18.748
G02 X24.824 Y16.258 I5.4736 J-1.2224
G02 X15.525 Y13.372 I-5.4815 J1.2380
G01 X15.218 Y13.059
G02 X13.400 Y16.304 I4.0919 J4.4246
G01 X13.249 Y16.674
G01 Y18.295
G01 X13.459 Y18.832
G02 X25.238 Y16.120 I5.9001 J-1.3097
G02 X15.218 Y13.059 I-5.8964 J1.3712
G01 X14.905 Y12.741
G02 X12.972 Y16.220 I4.2765 J4.6525
G01 X12.820 Y16.590
G01 Y18.379
G01 X13.047 Y18.967
G02 X25.672 Y16.111 I6.3097 J-1.4403
G02 X14.905 Y12.741 I-6.3471 J1.3936
G01 X14.616 Y12.421
G01 X14.503 Y12.523
G02 X12.543 Y16.136 I4.7136 J4.8954
G01 X12.392 Y16.497
G01 Y18.463
G01 X12.619 Y19.051
G02 X26.024 Y15.708 I6.7379 J-1.5291
G02 X14.616 Y12.421 I-6.6935 J1.7914
G01 X14.320 Y12.105
G02 X12.115 Y16.052 I4.8923 J5.3223
G01 X11.964 Y16.405
G01 Y18.547
G01 X12.224 Y19.236
G02 X26.409 Y15.464 I7.1383 J-1.7132
G02 X14.320 Y12.105 I-7.0756 J2.0321
G01 X14.025 Y11.796
G02 X11.686 Y15.968 I5.2670 J5.6933
G01 X11.535 Y16.312
G01 Y18.631
G01 X11.796 Y19.320
G02 X26.817 Y15.315 I7.5644 J-1.8005
G02 X14.025 Y11.796 I-7.4811 J2.1839
G01 X13.732 Y11.476
G02 X11.275 Y15.850 I5.5653 J6.0034
G01 X11.224 Y15.968
G01 X11.107 Y16.212
G01 Y18.715
G01 X11.367 Y19.404
G02 X27.349 Y15.646 I7.9892 J-1.8847
G02 X13.732 Y11.476 I-8.0111 J1.8425
G01 X13.441 Y11.159
G02 X10.846 Y15.766 I5.8517 J6.3294
G01 X10.746 Y15.976
G01 X10.678 Y16.111
G01 Y18.799
G01 X10.939 Y19.488
G02 X27.741 Y15.424 I8.4148 J-1.9752
G02 X13.441 Y11.159 I-8.4047 J2.0750
G01 X13.137 Y10.846
G02 X10.418 Y15.682 I6.1710 J6.6519
G01 X10.250 Y16.002
G01 Y18.874
G01 X10.510 Y19.572
G02 X28.047 Y14.905 I8.8401 J-2.0642
G02 X13.137 Y10.846 I-8.7149 J2.5979
G01 X12.838 Y10.545
G02 X10.015 Y15.523 I6.6537 J7.0634
G01 X9.822 Y15.892
G01 Y18.950
G01 X10.082 Y19.656
G02 X28.586 Y15.208 I9.2677 J-2.1575
G02 X12.838 Y10.545 I-9.2420 J2.2883
G01 X12.551 Y10.223
G01 X12.485 Y10.283
G02 X9.612 Y15.363 I6.9772 J7.2980
G01 X9.393 Y15.792
G01 Y19.026
G01 X9.654 Y19.740
G02 X29.000 Y15.076 I9.6946 J-2.2423
G02 X12.551 Y10.223 I-9.6534 J2.4174
G00 Z20.000
G00 X12.543 Y10.230
G00 Z-2.300
G01 Z-2.800 F120
G01 X12.398 Y10.068 F400
G02 X9.391 Y15.315 I7.1215 J7.5661
G01 X9.171 Y15.747
G01 Y19.048
G01 X9.174 Y19.065
G01 X9.411 Y19.727
G01 X9.431 Y19.790
G02 X29.238 Y15.121 I9.9138 J-2.2903
G02 X12.398 Y10.068 I-9.8915 J2.3785
G00 Z20.000
G00 X19.051 Y17.163
G00 Z-2.300
G01 Z-3.200 F120
G02 X18.919 Y17.413 I0.3079 J0.3232 F400
G01 X18.944 Y17.656
G02 X19.798 Y17.404 I0.4251 J-0.1323
G02 X19.051 Y17.163 I-0.4386 J0.0830
G01 X18.756 Y16.848
G02 X18.474 Y17.421 I0.5939 J0.6493
G01 X18.524 Y17.749
G02 X20.150 Y17.885 I0.8338 J-0.1797
G02 X18.756 Y16.848 I-0.7956 J-0.3855
G01 X18.472 Y16.525
G02 X18.020 Y17.488 I0.9333 J1.0248
G03 X18.107 Y17.843 I-1.8128 J0.6305
G02 X20.630 Y17.797 I1.2569 J-0.2821
G02 X18.472 Y16.525 I-1.2782 J-0.2986
G01 X18.191 Y16.203
G02 X17.608 Y17.354 I1.1810 J1.3206
G01 X17.558 Y17.497
G01 X17.659 Y17.740
G02 X21.088 Y17.600 I1.7099 J-0.1830
G02 X18.191 Y16.203 I-1.7374 J-0.0989
G01 X17.894 Y15.888
G02 X17.188 Y17.245 I1.4718 J1.6274
G01 X17.104 Y17.446
G01 Y17.522
G03 X17.292 Y18.112 I-2.8727 J1.2356
G02 X21.520 Y17.540 I2.0768 J-0.5623
G02 X17.894 Y15.888 I-2.1707 J-0.0406
G01 X17.608 Y15.565
G02 X16.768 Y17.136 I1.7722 J1.9571
G01 X16.676 Y17.354
G01 Y17.606
G01 X16.819 Y17.959
G02 X21.947 Y17.347 I2.5504 J-0.4203
G02 X17.608 Y15.565 I-2.5955 J0.1464
G01 X17.299 Y15.257
G02 X16.357 Y17.001 I2.0340 J2.2259
G01 X16.248 Y17.270
G01 Y17.690
G01 X16.390 Y18.043
G02 X22.373 Y17.382 I2.9722 J-0.5048
G02 X17.299 Y15.257 I-3.0253 J0.1033
G01 X17.001 Y14.950
G02 X15.928 Y16.917 I2.3761 J2.5709
G01 X15.819 Y17.178
G01 Y17.782
G01 X15.962 Y18.127
G02 X22.763 Y18.065 I3.3955 J-0.5897
G02 X17.001 Y14.950 I-3.4113 J-0.5773
G01 X16.718 Y14.625
G01 X16.644 Y14.689
G02 X15.500 Y16.833 I2.8144 J2.8796
G01 X15.391 Y17.094
G01 Y17.875
G01 X15.534 Y18.211
G02 X23.246 Y17.424 I3.8264 J-0.6851
G02 X16.718 Y14.625 I-3.8930 J0.0673
G01 X16.433 Y14.304
G02 X15.072 Y16.749 I2.9552 J3.2475
G01 X14.962 Y17.010
G01 Y17.959
G01 X15.139 Y18.396
G02 X23.562 Y16.518 I4.2268 J-0.8697
G02 X16.433 Y14.304 I-4.2121 J0.9794
G01 X16.128 Y13.992
G02 X14.643 Y16.665 I3.2861 J3.5747
G01 X14.534 Y16.926
G01 Y18.043
G01 X14.744 Y18.580
G02 X24.087 Y17.170 I4.6210 J-1.0400
G02 X16.128 Y13.992 I-4.7451 J0.3282
G01 X15.825 Y13.681
G02 X14.248 Y16.480 I3.4939 J3.8118
G01 X14.106 Y16.842
G01 Y18.127
G01 X14.316 Y18.664
G02 X24.406 Y16.365 I5.0483 J-1.1353
G02 X15.825 Y13.681 I-5.0645 J1.1334
G01 X15.525 Y13.372
G02 X13.828 Y16.388 I3.7891 J4.1161
G01 X13.677 Y16.758
G01 Y18.211
G01 X13.887 Y18.748
G02 X24.824 Y16.258 I5.4736 J-1.2224
G02 X15.525 Y13.372 I-5.4815 J1.2380
G01 X15.218 Y13.059
G02 X13.400 Y16.304 I4.0919 J4.4246
G01 X13.249 Y16.674
G01 Y18.295
G01 X13.459 Y18.832
G02 X25.238 Y16.120 I5.9001 J-1.3097
G02 X15.218 Y13.059 I-5.8964 J1.3712
G01 X14.905 Y12.741
G02 X12.972 Y16.220 I4.2765 J4.6525
G01 X12.820 Y16.590
G01 Y18.379
G01 X13.047 Y18.967
G02 X25.672 Y16.111 I6.3097 J-1.4403
G02 X14.905 Y12.741 I-6.3471 J1.3936
G01 X14.616 Y12.421
G01 X14.503 Y12.523
G02 X12.543 Y16.136 I4.7136 J4.8954
G01 X12.392 Y16.497
G01 Y18.463
G01 X12.619 Y19.051
G02 X26.024 Y15.708 I6.7379 J-1.5291
G02 X14.616 Y12.421 I-6.6935 J1.7914
G01 X14.320 Y12.105
G02 X12.115 Y16.052 I4.8923 J5.3223
G01 X11.964 Y16.405
G01 Y18.547
G01 X12.224 Y19.236
G02 X26.409 Y15.464 I7.1383 J-1.7132
G02 X14.320 Y12.105 I-7.0756 J2.0321
G01 X14.025 Y11.796
G02 X11.686 Y15.968 I5.2670 J5.6933
G01 X11.535 Y16.312
G01 Y18.631
G01 X11.796 Y19.320
G02 X26.817 Y15.315 I7.5644 J-1.8005
G02 X14.025 Y11.796 I-7.4811 J2.1839
G01 X13.732 Y11.476
G02 X11.275 Y15.850 I5.5653 J6.0034
G01 X11.224 Y15.968
G01 X11.107 Y16.212
G01 Y18.715
G01 X11.367 Y19.404
G02 X27.349 Y15.646 I7.9892 J-1.8847
G02 X13.732 Y11.476 I-8.0111 J1.8425
G01 X13.441 Y11.159
G02 X10.846 Y15.766 I5.8517 J6.3294
G01 X10.746 Y15.976
G01 X10.678 Y16.111
G01 Y18.799
G01 X10.939 Y19.488
G02 X27.741 Y15.424 I8.4148 J-1.9752
G02 X13.441 Y11.159 I-8.4047 J2.0750
G01 X13.137 Y10.846
G02 X10.418 Y15.682 I6.1710 J6.6519
G01 X10.250 Y16.002
G01 Y18.874
G01 X10.510 Y19.572
G02 X28.047 Y14.905 I8.8401 J-2.0642
G02 X13.137 Y10.846 I-8.7149 J2.5979
G01 X12.838 Y10.545
G02 X10.015 Y15.523 I6.6537 J7.0634
G01 X9.822 Y15.892
G01 Y18.950
G01 X10.082 Y19.656
G02 X28.586 Y15.208 I9.2677 J-2.1575
G02 X12.838 Y10.545 I-9.2420 J2.2883
G01 X12.551 Y10.223
G01 X12.485 Y10.283
G02 X9.612 Y15.363 I6.9772 J7.2980
G01 X9.393 Y15.792
G01 Y19.026
G01 X9.654 Y19.740
G02 X29.000 Y15.076 I9.6946 J-2.2423
G02 X12.551 Y10.223 I-9.6534 J2.4174
G00 Z20.000
G00 X12.543 Y10.230
G00 Z-2.700
G01 Z-3.200 F120
G01 X12.398 Y10.068 F400
G02 X9.391 Y15.315 I7.1215 J7.5661
G01 X9.171 Y15.747
G01 Y19.048
G01 X9.174 Y19.065
G01 X9.411 Y19.727
G01 X9.431 Y19.790
G02 X29.238 Y15.121 I9.9138 J-2.2903
G02 X12.398 Y10.068 I-9.8915 J2.3785
G00 Z20.000
G00 X19.051 Y17.163
G00 Z-2.700
G01 Z-3.500 F120
G02 X18.919 Y17.413 I0.3079 J0.3232 F400
G01 X18.944 Y17.656
G02 X19.798 Y17.404 I0.4251 J-0.1323
G02 X19.051 Y17.163 I-0.4386 J0.0830
G01 X18.756 Y16.848
G02 X18.474 Y17.421 I0.5939 J0.6493
G01 X18.524 Y17.749
G02 X20.150 Y17.885 I0.8338 J-0.1797
G02 X18.756 Y16.848 I-0.7956 J-0.3855
G01 X18.472 Y16.525
G02 X18.020 Y17.488 I0.9333 J1.0248
G03 X18.107 Y17.843 I-1.8128 J0.6305
G02 X20.630 Y17.797 I1.2569 J-0.2821
G02 X18.472 Y16.525 I-1.2782 J-0.2986
G01 X18.191 Y16.203
G02 X17.608 Y17.354 I1.1810 J1.3206
G01 X17.558 Y17.497
G01 X17.659 Y17.740
G02 X21.088 Y17.600 I1.7099 J-0.1830
G02 X18.191 Y16.203 I-1.7374 J-0.0989
G01 X17.894 Y15.888
G02 X17.188 Y17.245 I1.4718 J1.6274
G01 X17.104 Y17.446
G01 Y17.522
G03 X17.292 Y18.112 I-2.8727 J1.2356
G02 X21.520 Y17.540 I2.0768 J-0.5623
G02 X17.894 Y15.888 I-2.1707 J-0.0406
G01 X17.608 Y15.565
G02 X16.768 Y17.136 I1.7722 J1.9571
G01 X16.676 Y17.354
G01 Y17.606
G01 X16.819 Y17.959
G02 X21.947 Y17.347 I2.5504 J-0.4203
G02 X17.608 Y15.565 I-2.5955 J0.1464
G01 X17.299 Y15.257
G02 X16.357 Y17.001 I2.0340 J2.2259
G01 X16.248 Y17.270
G01 Y17.690
G01 X16.390 Y18.043
G02 X22.373 Y17.382 I2.9722 J-0.5048
G02 X17.299 Y15.257 I-3.0253 J0.1033
G01 X17.001 Y14.950
G02 X15.928 Y16.917 I2.3761 J2.5709
G01 X15.819 Y17.178
G01 Y17.782
G01 X15.962 Y18.127
G02 X22.763 Y18.065 I3.3955 J-0.5897
G02 X17.001 Y14.950 I-3.4113 J-0.5773
G01 X16.718 Y14.625
G01 X16.644 Y14.689
G02 X15.500 Y16.833 I2.8144 J2.8796
G01 X15.391 Y17.094
G01 Y17.875
G01 X15.534 Y18.211
G02 X23.246 Y17.424 I3.8264 J-0.6851
G02 X16.718 Y14.625 I-3.8930 J0.0673
G01 X16.433 Y14.304
G02 X15.072 Y16.749 I2.9552 J3.2475
G01 X14.962 Y17.010
G01 Y17.959
G01 X15.139 Y18.396
G02 X23.562 Y16.518 I4.2268 J-0.8697
G02 X16.433 Y14.304 I-4.2121 J0.9794
G01 X16.128 Y13.992
G02 X14.643 Y16.665 I3.2861 J3.5747
G01 X14.534 Y16.926
G01 Y18.043
G01 X14.744 Y18.580
G02 X24.087 Y17.170 I4.6210 J-1.0400
G02 X16.128 Y13.992 I-4.7451 J0.3282
G01 X15.825 Y13.681
G02 X14.248 Y16.480 I3.4939 J3.8118
G01 X14.106 Y16.842
G01 Y18.127
G01 X14.316 Y18.664
G02 X24.406 Y16.365 I5.0483 J-1.1353
G02 X15.825 Y13.681 I-5.0645 J1.1334
G01 X15.525 Y13.372
G02 X13.828 Y16.388 I3.7891 J4.1161
G01 X13.677 Y16.758
G01 Y18.211
G01 X13.887 Y18.748
G02 X24.824 Y16.258 I5.4736 J-1.2224
G02 X15.525 Y13.372 I-5.4815 J1.2380
G01 X15.218 Y13.059
G02 X13.400 Y16.304 I4.0919 J4.4246
G01 X13.249 Y16.674
G01 Y18.295
G01 X13.459 Y18.832
G02 X25.238 Y16.120 I5.9001 J-1.3097
G02 X15.218 Y13.059 I-5.8964 J1.3712
G01 X14.905 Y12.741
G02 X12.972 Y16.220 I4.2765 J4.6525
G01 X12.820 Y16.590
G01 Y18.379
G01 X13.047 Y18.967
G02 X25.672 Y16.111 I6.3097 J-1.4403
G02 X14.905 Y12.741 I-6.3471 J1.3936
G01 X14.616 Y12.421
G01 X14.503 Y12.523
G02 X12.543 Y16.136 I4.7136 J4.8954
G01 X12.392 Y16.497
G01 Y18.463
G01 X12.619 Y19.051
G02 X26.024 Y15.708 I6.7379 J-1.5291
G02 X14.616 Y12.421 I-6.6935 J1.7914
G01 X14.320 Y12.105
G02 X12.115 Y16.052 I4.8923 J5.3223
G01 X11.964 Y16.405
G01 Y18.547
G01 X12.224 Y19.236
G02 X26.409 Y15.464 I7.1383 J-1.7132
G02 X14.320 Y12.105 I-7.0756 J2.0321
G01 X14.025 Y11.796
G02 X11.686 Y15.968 I5.2670 J5.6933
G01 X11.535 Y16.312
G01 Y18.631
G01 X11.796 Y19.320
G02 X26.817 Y15.315 I7.5644 J-1.8005
G02 X14.025 Y11.796 I-7.4811 J2.1839
G01 X13.732 Y11.476
G02 X11.275 Y15.850 I5.5653 J6.0034
G01 X11.224 Y15.968
G01 X11.107 Y16.212
G01 Y18.715
G01 X11.367 Y19.404
G02 X27.349 Y15.646 I7.9892 J-1.8847
G02 X13.732 Y11.476 I-8.0111 J1.8425
G01 X13.441 Y11.159
G02 X10.846 Y15.766 I5.8517 J6.3294
G01 X10.746 Y15.976
G01 X10.678 Y16.111
G01 Y18.799
G01 X10.939 Y19.488
G02 X27.741 Y15.424 I8.4148 J-1.9752
G02 X13.441 Y11.159 I-8.4047 J2.0750
G01 X13.137 Y10.846
G02 X10.418 Y15.682 I6.1710 J6.6519
G01 X10.250 Y16.002
G01 Y18.874
G01 X10.510 Y19.572
G02 X28.047 Y14.905 I8.8401 J-2.0642
G02 X13.137 Y10.846 I-8.7149 J2.5979
G01 X12.838 Y10.545
G02 X10.015 Y15.523 I6.6537 J7.0634
G01 X9.822 Y15.892
G01 Y18.950
G01 X10.082 Y19.656
G02 X28.586 Y15.208 I9.2677 J-2.1575
G02 X12.838 Y10.545 I-9.2420 J2.2883
G01 X12.551 Y10.223
G01 X12.485 Y10.283
G02 X9.612 Y15.363 I6.9772 J7.2980
G01 X9.393 Y15.792
G01 Y19.026
G01 X9.654 Y19.740
G02 X29.000 Y15.076 I9.6946 J-2.2423
G02 X12.551 Y10.223 I-9.6534 J2.4174
G00 Z20.000
G00 X12.543 Y10.230
G00 Z-3.000
G01 Z-3.500 F120
G01 X12.398 Y10.068 F400
G02 X9.391 Y15.315 I7.1215 J7.5661
G01 X9.171 Y15.747
G01 Y19.048
G01 X9.174 Y19.065
G01 X9.411 Y19.727
G01 X9.431 Y19.790
G02 X29.238 Y15.121 I9.9138 J-2.2903
G02 X12.398 Y10.068 I-9.8915 J2.3785
G00 Z20.000


(No. 2 Parallel pocket: Hole 2)
G00 X19.274 Y16.182 Z20.000
G00 Z0.500
G01 Z-0.400 F120
G01 X19.283 Y18.123 F400
G01 X19.266 Y18.895
G02 X19.274 Y16.182 I-1.4837 J-1.3612
G01 X18.842 Y16.189
G03 X18.804 Y19.794 I-60.1755 J1.1627
G02 Y15.275 I-1.0878 J-2.2596
G01 X18.837 Y15.897
G01 X18.842 Y16.189
G01 X18.407 Y16.195
G03 X18.359 Y20.273 I-55.2616 J1.3836
G01 Y20.416
G02 X18.350 Y14.653 I-0.6619 J-2.8802
G01 X18.405 Y16.058
G01 X18.407 Y16.195
G01 X17.981 Y16.198
G01 X17.997 Y18.492
G01 X17.922 Y20.550
G01 X17.846 Y20.928
G02 X17.880 Y14.149 I-0.1594 J-3.3903
G01 X17.955 Y15.309
G01 X17.981 Y16.090
G01 Y16.198
G01 X17.552 Y16.214
G01 X17.554 Y16.290
G03 X17.485 Y20.575 I-49.5261 J1.3431
G01 X17.300 Y21.323
G02 X21.184 Y19.102 I0.4347 J-3.7459
G02 X17.418 Y13.721 I-3.4932 J-1.5637
G01 X17.478 Y14.576
G01 X17.524 Y15.433
G01 X17.552 Y16.214
G01 X17.117 Y16.224
G01 X17.121 Y16.409
G03 X17.057 Y20.500 I-62.5750 J1.0593
G01 X16.771 Y21.642
G02 X20.645 Y20.605 I1.0360 J-3.8837
G02 X16.838 Y13.368 I-2.9465 J-3.0698
G01 X17.031 Y13.956
G01 X17.072 Y14.773
G01 X17.102 Y15.591
G01 X17.117 Y16.224
G01 X16.676 Y16.230
G03 X16.628 Y20.424 I-68.9099 J1.3178
G01 X16.410 Y21.340
G01 X16.225 Y21.911
G02 X21.528 Y20.249 I1.5946 J-4.2027
G02 X16.275 Y13.074 I-3.8237 J-2.7108
G01 X16.611 Y14.065
G01 X16.668 Y15.655
G01 X16.676 Y16.230
G01 X16.242
G01 Y16.602
G01 X16.200 Y20.349
G03 X15.679 Y22.138 I-9.5175 J-1.7999
G02 X20.810 Y21.600 I2.1414 J-4.3157
G02 X15.721 Y12.822 I-3.0983 J-4.0678
G01 X16.183 Y14.133
G01 X16.242 Y15.939
G01 Y16.230
G01 X15.813 Y16.225
G01 X15.771 Y20.273
G03 X15.133 Y22.331 I-10.1383 J-2.0169
G02 X20.803 Y22.135 I2.6832 J-4.4956
G02 X15.141 Y12.621 I-3.0855 J-4.6058
G01 Y12.646
G01 X15.385 Y13.150
G01 X15.755 Y14.200
G01 X15.813 Y16.132
G01 Y16.225
G01 X15.382 Y16.238
G01 X15.385 Y16.342
G01 Y16.972
G01 X15.343 Y20.197
G03 X14.570 Y22.482 I-8.7090 J-1.6726
G02 X21.620 Y22.055 I3.2525 J-4.7038
G02 X14.570 Y12.453 I-3.8953 J-4.5290
G01 X14.965 Y13.267
G01 X15.326 Y14.267
G01 X15.382 Y16.238
G01 X14.948 Y16.249
G01 X14.957 Y16.560
G01 X14.915 Y20.122
G03 X14.007 Y22.608 I-7.9371 J-1.4873
G02 X22.321 Y21.991 I3.8177 J-4.8741
G02 X13.999 Y12.310 I-4.5946 J-4.4678
G03 X14.898 Y14.334 I-8.5547 J5.0099
G01 X14.948 Y16.249
G01 X14.516 Y16.258
G01 X14.528 Y16.821
G01 X14.486 Y20.046
G03 X13.445 Y22.701 I-7.5667 J-1.4376
G02 X22.771 Y22.139 I4.3799 J-4.9803
G02 X13.419 Y12.209 I-5.0424 J-4.6195
G03 X14.478 Y14.443 I-7.9659 J5.1412
G01 X14.516 Y16.258
G01 X14.086 Y16.265
G01 X14.100 Y17.131
G01 X14.058 Y19.971
G03 X12.865 Y22.751 I-6.5335 J-1.1569
G02 X23.298 Y22.180 I4.9568 J-5.0268
G02 X12.848 Y12.133 I-5.5627 J-4.6717
G03 X14.058 Y14.553 I-7.7784 J5.4012
G01 X14.086 Y16.265
G01 X13.657 Y16.270
G01 X13.671 Y17.551
G01 X13.629 Y19.895
G03 X12.285 Y22.801 I-6.2602 J-1.1310
G02 X23.655 Y22.422 I5.5206 J-5.1102
G02 X12.277 Y12.100 I-5.9104 J-4.9171
G03 X13.638 Y14.662 I-6.8088 J5.2589
G01 X13.657 Y16.270
G01 X13.233 Y16.275
G01 X13.243 Y17.232
G01 X13.201 Y19.819
G03 X11.697 Y22.793 I-5.5874 J-0.9583
G02 X24.178 Y22.439 I6.1004 J-5.1113
G02 X11.714 Y12.066 I-6.4360 J-4.9412
G03 X13.218 Y14.771 I-6.8799 J5.5949
G01 X13.233 Y16.275
G01 X12.810 Y16.278
G01 X12.815 Y16.888
G01 X12.773 Y19.727
G01 X12.714 Y20.172
G03 X11.109 Y22.785 I-6.0292 J-1.9040
G02 X24.784 Y22.332 I6.6748 J-5.1338
G02 X11.151 Y12.058 I-7.0443 J-4.8345
G03 X12.798 Y14.880 I-6.6542 J5.7730
G01 X12.810 Y16.278
G01 X12.385 Y16.280
G01 X12.386 Y16.518
G01 X12.344 Y19.635
G01 X12.294 Y20.063
G03 X10.521 Y22.717 I-5.3229 J-1.6353
G02 X25.327 Y22.280 I7.2591 J-5.0763
G02 X10.572 Y12.066 I-7.5998 J-4.7857
G03 X12.378 Y14.989 I-5.7022 J5.5424
G01 X12.385 Y16.280
G01 X11.956 Y16.275
G01 X11.916 Y19.534
G01 X11.874 Y19.954
G03 X9.975 Y22.591 I-4.8632 J-1.4983
G01 X9.942 Y22.650
G02 X26.245 Y21.472 I7.8299 J-5.0433
G02 X10.001 Y12.125 I-8.5180 J-3.9861
G03 X11.949 Y15.057 I-4.8969 J5.3688
G01 X11.958 Y16.123
G01 X11.956 Y16.275
G01 X11.523 Y16.270
G01 X11.487 Y19.425
G03 X11.048 Y20.768 I-2.4735 J-0.0650
G03 X9.354 Y22.524 I-5.0961 J-3.2218
G02 X26.648 Y21.627 I8.4146 J-4.9251
G02 X9.421 Y12.217 I-8.9223 J-4.1390
G03 X11.521 Y15.124 I-4.1182 J5.1875
G01 X11.529 Y15.695
G01 X11.523 Y16.270
G01 X11.090 Y16.266
G01 X11.059 Y19.290
G03 X10.662 Y20.567 I-2.0627 J0.0579
G03 X8.757 Y22.407 I-4.8731 J-3.1382
G02 X27.649 Y20.118 I8.9962 J-4.8570
G02 X8.833 Y12.360 I-9.9225 J-2.6313
G03 X11.101 Y15.233 I-3.0774 J4.7611
G01 X11.090 Y16.266
G01 X10.661 Y16.261
G01 X10.622 Y19.593
G01 X10.488 Y20.013
G03 X8.169 Y22.230 I-4.6884 J-2.5809
G02 X28.300 Y19.093 I9.5779 J-4.6958
G02 X8.245 Y12.537 I-10.5749 J-1.6038
G03 X10.673 Y15.300 I-2.3871 J4.5449
G01 X10.661 Y16.261
G01 X10.235 Y16.256
G01 X10.202 Y19.483
G01 X10.085 Y19.853
G03 X7.581 Y22.029 I-4.3577 J-2.4860
G02 X28.775 Y16.225 I10.1550 J-4.5147
G02 X7.665 Y12.763 I-11.0442 J1.2541
G03 X10.244 Y15.367 I-1.7155 J4.2778
G01 X10.235 Y16.256
G01 X9.807 Y16.252
G01 X9.774 Y19.416
G01 X9.681 Y19.693
G03 X6.993 Y21.777 I-3.8925 J-2.2468
G02 X28.229 Y12.678 I10.7362 J-4.2730
G02 X7.077 Y12.999 I-10.5055 J4.8078
G03 X9.679 Y15.112 I-1.3060 J4.2651
G01 X9.816 Y15.435
G01 X9.807 Y16.252
G01 X9.379 Y16.247
G01 X9.345 Y19.341
G01 X9.312 Y19.467
G03 X6.405 Y21.466 I-3.5175 J-2.0015
G02 X28.902 Y13.171 I11.3148 J-3.9669
G02 X6.489 Y13.293 I-11.1833 J4.3135
G03 X9.362 Y15.384 I-0.7849 J4.0967
G01 X9.387 Y15.510
G01 X9.379 Y16.247
G00 Z20.000
G00 Z0.100
G01 Z-0.400 F120
G01 X9.164 Y16.245 F400
G01 X9.129 Y19.238
G03 X8.821 Y19.824 I-0.8832 J-0.0903
G01 X8.630 Y20.045
G01 X8.584 Y20.095
G01 X8.374 Y20.298
G01 X8.324 Y20.343
G01 X8.096 Y20.526
G01 X8.041 Y20.566
G01 X7.798 Y20.727
G01 X7.740 Y20.763
G01 X7.483 Y20.900
G01 X7.422 Y20.931
G01 X7.153 Y21.044
G01 X7.089 Y21.068
G01 X6.811 Y21.157
G01 X6.746 Y21.175
G01 X6.461 Y21.238
G01 X6.394 Y21.250
G01 X6.104 Y21.286
G01 X5.818 Y21.072
G01 X6.104 Y21.286
G01 X6.105 Y21.298
G02 X29.264 Y13.541 I11.6079 J-3.7947
G02 X6.193 Y13.493 I-11.5439 J3.9335
G01 X5.900 Y13.701
G01 X6.193 Y13.493
G01 X6.462 Y13.533
G01 X6.530 Y13.545
G01 X6.814 Y13.615
G01 X6.880 Y13.633
G01 X7.157 Y13.728
G01 X7.221 Y13.753
G01 X7.487 Y13.873
G01 X7.549 Y13.904
G01 X7.803 Y14.048
G01 X7.862 Y14.084
G01 X8.101 Y14.252
G01 X8.156 Y14.293
G01 X8.380 Y14.482
G01 X8.430 Y14.528
G01 X8.635 Y14.737
G01 X8.682 Y14.787
G01 X8.866 Y15.014
G01 X8.908 Y15.069
G01 X9.082 Y15.329
G03 X9.171 Y15.627 I-0.4367 J0.2914
G01 X9.164 Y16.245
G00 Z20.000
G00 X19.274 Y16.201
G00 Z0.100
G01 Z-0.800 F120
G01 X19.283 Y18.123 F400
G01 X19.266 Y18.895
G02 X19.274 Y16.182 I-1.4837 J-1.3612
G01 Y16.201
G01 X18.843 Y16.208
G03 X18.804 Y19.794 I-60.1322 J1.1452
G02 Y15.275 I-1.0878 J-2.2596
G01 X18.837 Y15.897
G01 X18.843 Y16.208
G01 X18.407 Y16.214
G03 X18.359 Y20.273 I-55.1462 J1.3689
G01 Y20.416
G02 X18.350 Y14.653 I-0.6619 J-2.8802
G01 X18.405 Y16.058
G01 X18.407 Y16.214
G01 X17.982 Y16.217
G01 X17.997 Y18.492
G01 X17.922 Y20.550
G01 X17.846 Y20.928
G02 X17.880 Y14.149 I-0.1594 J-3.3903
G01 X17.955 Y15.309
G01 X17.981 Y16.090
G01 X17.982 Y16.217
G01 X17.552 Y16.232
G01 X17.554 Y16.290
G03 X17.485 Y20.575 I-49.5261 J1.3431
G01 X17.300 Y21.323
G02 X21.184 Y19.102 I0.4347 J-3.7459
G02 X17.418 Y13.721 I-3.4932 J-1.5637
G01 X17.478 Y14.576
G01 X17.524 Y15.433
G01 X17.552 Y16.232
G01 X17.117 Y16.243
G01 X17.121 Y16.409
G03 X17.057 Y20.500 I-62.5750 J1.0593
G01 X16.771 Y21.642
G02 X20.645 Y20.605 I1.0360 J-3.8837
G02 X16.838 Y13.368 I-2.9465 J-3.0698
G01 X17.031 Y13.956
G01 X17.072 Y14.773
G01 X17.102 Y15.591
G01 X17.117 Y16.243
G01 X16.676 Y16.249
G03 X16.628 Y20.424 I-68.8210 J1.3017
G01 X16.410 Y21.340
G01 X16.225 Y21.911
G02 X21.528 Y20.249 I1.5946 J-4.2027
G02 X16.275 Y13.074 I-3.8237 J-2.7108
G01 X16.611 Y14.065
G01 X16.668 Y15.655
G01 X16.676 Y16.249
G01 X16.242
G01 Y16.602
G01 X16.200 Y20.349
G03 X15.679 Y22.138 I-9.5175 J-1.7999
G02 X20.810 Y21.600 I2.1414 J-4.3157
G02 X15.721 Y12.822 I-3.0983 J-4.0678
G01 X16.183 Y14.133
G01 X16.242 Y15.939
G01 Y16.249
G01 X15.812 Y16.244
G01 X15.771 Y20.273
G03 X15.133 Y22.331 I-10.1383 J-2.0169
G02 X20.803 Y22.135 I2.6832 J-4.4956
G02 X15.141 Y12.621 I-3.0855 J-4.6058
G01 Y12.646
G01 X15.385 Y13.150
G01 X15.755 Y14.200
G01 X15.813 Y16.132
G01 X15.812 Y16.244
G01 X15.383 Y16.256
G01 X15.385 Y16.342
G01 Y16.972
G01 X15.343 Y20.197
G03 X14.570 Y22.482 I-8.7090 J-1.6726
G02 X21.620 Y22.055 I3.2525 J-4.7038
G02 X14.570 Y12.453 I-3.8953 J-4.5290
G01 X14.965 Y13.267
G01 X15.326 Y14.267
G01 X15.383 Y16.256
G01 X14.949 Y16.268
G01 X14.957 Y16.560
G01 X14.915 Y20.122
G03 X14.007 Y22.608 I-7.9371 J-1.4873
G02 X22.321 Y21.991 I3.8177 J-4.8741
G02 X13.999 Y12.310 I-4.5946 J-4.4678
G03 X14.898 Y14.334 I-8.5547 J5.0099
G01 X14.949 Y16.268
G01 X14.517 Y16.277
G01 X14.528 Y16.821
G01 X14.486 Y20.046
G03 X13.445 Y22.701 I-7.5667 J-1.4376
G02 X22.771 Y22.139 I4.3799 J-4.9803
G02 X13.419 Y12.209 I-5.0424 J-4.6195
G03 X14.478 Y14.443 I-7.9659 J5.1412
G01 X14.517 Y16.277
G01 X14.086 Y16.284
G01 X14.100 Y17.131
G01 X14.058 Y19.971
G03 X12.865 Y22.751 I-6.5335 J-1.1569
G02 X23.298 Y22.180 I4.9568 J-5.0268
G02 X12.848 Y12.133 I-5.5627 J-4.6717
G03 X14.058 Y14.553 I-7.7784 J5.4012
G01 X14.086 Y16.284
G01 X13.657 Y16.289
G01 X13.671 Y17.551
G01 X13.629 Y19.895
G03 X12.285 Y22.801 I-6.2602 J-1.1310
G02 X23.655 Y22.422 I5.5206 J-5.1102
G02 X12.277 Y12.100 I-5.9104 J-4.9171
G03 X13.638 Y14.662 I-6.8088 J5.2589
G01 X13.657 Y16.289
G01 X13.233 Y16.293
G01 X13.243 Y17.232
G01 X13.201 Y19.819
G03 X11.697 Y22.793 I-5.5874 J-0.9583
G02 X24.178 Y22.439 I6.1004 J-5.1113
G02 X11.714 Y12.066 I-6.4360 J-4.9412
G03 X13.218 Y14.771 I-6.8799 J5.5949
G01 X13.233 Y16.293
G01 X12.810 Y16.297
G01 X12.815 Y16.888
G01 X12.773 Y19.727
G01 X12.714 Y20.172
G03 X11.109 Y22.785 I-6.0292 J-1.9040
G02 X24.784 Y22.332 I6.6748 J-5.1338
G02 X11.151 Y12.058 I-7.0443 J-4.8345
G03 X12.798 Y14.880 I-6.6542 J5.7730
G01 X12.810 Y16.297
G01 X12.385 Y16.299
G01 X12.386 Y16.518
G01 X12.344 Y19.635
G01 X12.294 Y20.063
G03 X10.521 Y22.717 I-5.3229 J-1.6353
G02 X25.327 Y22.280 I7.2591 J-5.0763
G02 X10.572 Y12.066 I-7.5998 J-4.7857
G03 X12.378 Y14.989 I-5.7022 J5.5424
G01 X12.385 Y16.299
G01 X11.956 Y16.294
G01 X11.916 Y19.534
G01 X11.874 Y19.954
G03 X9.975 Y22.591 I-4.8632 J-1.4983
G01 X9.942 Y22.650
G02 X26.245 Y21.472 I7.8299 J-5.0433
G02 X10.001 Y12.125 I-8.5180 J-3.9861
G03 X11.949 Y15.057 I-4.8969 J5.3688
G01 X11.958 Y16.123
G01 X11.956 Y16.294
G01 X11.523 Y16.289
G01 X11.487 Y19.425
G03 X11.048 Y20.768 I-2.4735 J-0.0650
G03 X9.354 Y22.524 I-5.0961 J-3.2218
G02 X26.648 Y21.627 I8.4146 J-4.9251
G02 X9.421 Y12.217 I-8.9223 J-4.1390
G03 X11.521 Y15.124 I-4.1182 J5.1875
G01 X11.529 Y15.695
G01 X11.523 Y16.289
G01 X11.090 Y16.285
G01 X11.059 Y19.290
G03 X10.662 Y20.567 I-2.0627 J0.0579
G03 X8.757 Y22.407 I-4.8731 J-3.1382
G02 X27.649 Y20.118 I8.9962 J-4.8570
G02 X8.833 Y12.360 I-9.9225 J-2.6313
G03 X11.101 Y15.233 I-3.0774 J4.7611
G01 X11.090 Y16.285
G01 X10.661 Y16.280
G01 X10.622 Y19.593
G01 X10.488 Y20.013
G03 X8.169 Y22.230 I-4.6884 J-2.5809
G02 X28.300 Y19.093 I9.5779 J-4.6958
G02 X8.245 Y12.537 I-10.5749 J-1.6038
G03 X10.673 Y15.300 I-2.3871 J4.5449
G01 X10.661 Y16.280
G01 X10.235 Y16.275
G01 X10.202 Y19.483
G01 X10.085 Y19.853
G03 X7.581 Y22.029 I-4.3577 J-2.4860
G02 X28.775 Y16.225 I10.1550 J-4.5147
G02 X7.665 Y12.763 I-11.0442 J1.2541
G03 X10.244 Y15.367 I-1.7155 J4.2778
G01 X10.235 Y16.275
G01 X9.807 Y16.271
G01 X9.774 Y19.416
G01 X9.681 Y19.693
G03 X6.993 Y21.777 I-3.8925 J-2.2468
G02 X28.229 Y12.678 I10.7362 J-4.2730
G02 X7.077 Y12.999 I-10.5055 J4.8078
G03 X9.679 Y15.112 I-1.3060 J4.2651
G01 X9.816 Y15.435
G01 X9.807 Y16.271
G01 X9.379 Y16.266
G01 X9.345 Y19.341
G01 X9.312 Y19.467
G03 X6.405 Y21.466 I-3.5175 J-2.0015
G02 X28.902 Y13.171 I11.3148 J-3.9669
G02 X6.489 Y13.293 I-11.1833 J4.3135
G03 X9.362 Y15.384 I-0.7849 J4.0967
G01 X9.387 Y15.510
G01 X9.379 Y16.266
G00 Z20.000
G00 Z-0.300
G01 Z-0.800 F120
G01 X9.163 Y16.264 F400
G01 X9.129 Y19.238
G03 X8.821 Y19.824 I-0.8832 J-0.0903
G01 X8.630 Y20.045
G01 X8.584 Y20.095
G01 X8.374 Y20.298
G01 X8.324 Y20.343
G01 X8.096 Y20.526
G01 X8.041 Y20.566
G01 X7.798 Y20.727
G01 X7.740 Y20.763
G01 X7.483 Y20.900
G01 X7.422 Y20.931
G01 X7.153 Y21.044
G01 X7.089 Y21.068
G01 X6.811 Y21.157
G01 X6.746 Y21.175
G01 X6.461 Y21.238
G01 X6.394 Y21.250
G01 X6.104 Y21.286
G01 X5.818 Y21.072
G01 X6.104 Y21.286
G01 X6.105 Y21.298
G02 X29.264 Y13.541 I11.6079 J-3.7947
G02 X6.193 Y13.493 I-11.5439 J3.9335
G01 X5.900 Y13.701
G01 X6.193 Y13.493
G01 X6.462 Y13.533
G01 X6.530 Y13.545
G01 X6.814 Y13.615
G01 X6.880 Y13.633
G01 X7.157 Y13.728
G01 X7.221 Y13.753
G01 X7.487 Y13.873
G01 X7.549 Y13.904
G01 X7.803 Y14.048
G01 X7.862 Y14.084
G01 X8.101 Y14.252
G01 X8.156 Y14.293
G01 X8.380 Y14.482
G01 X8.430 Y14.528
G01 X8.635 Y14.737
G01 X8.682 Y14.787
G01 X8.866 Y15.014
G01 X8.908 Y15.069
G01 X9.082 Y15.329
G03 X9.171 Y15.627 I-0.4367 J0.2914
G01 X9.163 Y16.264
G00 Z20.000
G00 X19.274 Y16.220
G00 Z-0.300
G01 Z-1.000 F120
G01 X19.283 Y18.123 F400
G01 X19.266 Y18.895
G02 X19.274 Y16.182 I-1.4837 J-1.3612
G01 Y16.220
G01 X18.843 Y16.227
G03 X18.804 Y19.794 I-60.0927 J1.1277
G02 Y15.275 I-1.0878 J-2.2596
G01 X18.837 Y15.897
G01 X18.843 Y16.227
G01 X18.408 Y16.233
G03 X18.359 Y20.273 I-55.0324 J1.3543
G01 Y20.416
G02 X18.350 Y14.653 I-0.6619 J-2.8802
G01 X18.405 Y16.058
G01 X18.408 Y16.233
G01 X17.982 Y16.236
G01 X17.997 Y18.492
G01 X17.922 Y20.550
G01 X17.846 Y20.928
G02 X17.880 Y14.149 I-0.1594 J-3.3903
G01 X17.955 Y15.309
G01 X17.981 Y16.090
G01 X17.982 Y16.236
G01 X17.553 Y16.251
G01 X17.554 Y16.290
G03 X17.485 Y20.575 I-49.5261 J1.3431
G01 X17.300 Y21.323
G02 X21.184 Y19.102 I0.4347 J-3.7459
G02 X17.418 Y13.721 I-3.4932 J-1.5637
G01 X17.478 Y14.576
G01 X17.524 Y15.433
G01 X17.553 Y16.251
G01 X17.118 Y16.261
G01 X17.121 Y16.409
G03 X17.057 Y20.500 I-62.5750 J1.0593
G01 X16.771 Y21.642
G02 X20.645 Y20.605 I1.0360 J-3.8837
G02 X16.838 Y13.368 I-2.9465 J-3.0698
G01 X17.031 Y13.956
G01 X17.072 Y14.773
G01 X17.102 Y15.591
G01 X17.118 Y16.261
G01 X16.676 Y16.267
G03 X16.628 Y20.424 I-68.7349 J1.2855
G01 X16.410 Y21.340
G01 X16.225 Y21.911
G02 X21.528 Y20.249 I1.5946 J-4.2027
G02 X16.275 Y13.074 I-3.8237 J-2.7108
G01 X16.611 Y14.065
G01 X16.668 Y15.655
G01 X16.676 Y16.267
G01 X16.242
G01 Y16.602
G01 X16.200 Y20.349
G03 X15.679 Y22.138 I-9.5175 J-1.7999
G02 X20.810 Y21.600 I2.1414 J-4.3157
G02 X15.721 Y12.822 I-3.0983 J-4.0678
G01 X16.183 Y14.133
G01 X16.242 Y15.939
G01 Y16.267
G01 X15.812 Y16.263
G01 X15.771 Y20.273
G03 X15.133 Y22.331 I-10.1383 J-2.0169
G02 X20.803 Y22.135 I2.6832 J-4.4956
G02 X15.141 Y12.621 I-3.0855 J-4.6058
G01 Y12.646
G01 X15.385 Y13.150
G01 X15.755 Y14.200
G01 X15.813 Y16.132
G01 X15.812 Y16.263
G01 X15.383 Y16.275
G01 X15.385 Y16.342
G01 Y16.972
G01 X15.343 Y20.197
G03 X14.570 Y22.482 I-8.7090 J-1.6726
G02 X21.620 Y22.055 I3.2525 J-4.7038
G02 X14.570 Y12.453 I-3.8953 J-4.5290
G01 X14.965 Y13.267
G01 X15.326 Y14.267
G01 X15.383 Y16.275
G01 X14.949 Y16.287
G01 X14.957 Y16.560
G01 X14.915 Y20.122
G03 X14.007 Y22.608 I-7.9371 J-1.4873
G02 X22.321 Y21.991 I3.8177 J-4.8741
G02 X13.999 Y12.310 I-4.5946 J-4.4678
G03 X14.898 Y14.334 I-8.5547 J5.0099
G01 X14.949 Y16.287
G01 X14.517 Y16.296
G01 X14.528 Y16.821
G01 X14.486 Y20.046
G03 X13.445 Y22.701 I-7.5667 J-1.4376
G02 X22.771 Y22.139 I4.3799 J-4.9803
G02 X13.419 Y12.209 I-5.0424 J-4.6195
G03 X14.478 Y14.443 I-7.9659 J5.1412
G01 X14.517 Y16.296
G01 X14.086 Y16.303
G01 X14.100 Y17.131
G01 X14.058 Y19.971
G03 X12.865 Y22.751 I-6.5335 J-1.1569
G02 X23.298 Y22.180 I4.9568 J-5.0268
G02 X12.848 Y12.133 I-5.5627 J-4.6717
G03 X14.058 Y14.553 I-7.7784 J5.4012
G01 X14.086 Y16.303
G01 X13.657 Y16.308
G01 X13.671 Y17.551
G01 X13.629 Y19.895
G03 X12.285 Y22.801 I-6.2602 J-1.1310
G02 X23.655 Y22.422 I5.5206 J-5.1102
G02 X12.277 Y12.100 I-5.9104 J-4.9171
G03 X13.638 Y14.662 I-6.8088 J5.2589
G01 X13.657 Y16.308
G01 X13.234 Y16.312
G01 X13.243 Y17.232
G01 X13.201 Y19.819
G03 X11.697 Y22.793 I-5.5874 J-0.9583
G02 X24.178 Y22.439 I6.1004 J-5.1113
G02 X11.714 Y12.066 I-6.4360 J-4.9412
G03 X13.218 Y14.771 I-6.8799 J5.5949
G01 X13.234 Y16.312
G01 X12.810 Y16.316
G01 X12.815 Y16.888
G01 X12.773 Y19.727
G01 X12.714 Y20.172
G03 X11.109 Y22.785 I-6.0292 J-1.9040
G02 X24.784 Y22.332 I6.6748 J-5.1338
G02 X11.151 Y12.058 I-7.0443 J-4.8345
G03 X12.798 Y14.880 I-6.6542 J5.7730
G01 X12.810 Y16.316
G01 X12.385 Y16.318
G01 X12.386 Y16.518
G01 X12.344 Y19.635
G01 X12.294 Y20.063
G03 X10.521 Y22.717 I-5.3229 J-1.6353
G02 X25.327 Y22.280 I7.2591 J-5.0763
G02 X10.572 Y12.066 I-7.5998 J-4.7857
G03 X12.378 Y14.989 I-5.7022 J5.5424
G01 X12.385 Y16.318
G01 X11.956 Y16.313
G01 X11.916 Y19.534
G01 X11.874 Y19.954
G03 X9.975 Y22.591 I-4.8632 J-1.4983
G01 X9.942 Y22.650
G02 X26.245 Y21.472 I7.8299 J-5.0433
G02 X10.001 Y12.125 I-8.5180 J-3.9861
G03 X11.949 Y15.057 I-4.8969 J5.3688
G01 X11.958 Y16.123
G01 X11.956 Y16.313
G01 X11.523 Y16.308
G01 X11.487 Y19.425
G03 X11.048 Y20.768 I-2.4735 J-0.0650
G03 X9.354 Y22.524 I-5.0961 J-3.2218
G02 X26.648 Y21.627 I8.4146 J-4.9251
G02 X9.421 Y12.217 I-8.9223 J-4.1390
G03 X11.521 Y15.124 I-4.1182 J5.1875
G01 X11.529 Y15.695
G01 X11.523 Y16.308
G01 X11.090 Y16.303
G01 X11.059 Y19.290
G03 X10.662 Y20.567 I-2.0627 J0.0579
G03 X8.757 Y22.407 I-4.8731 J-3.1382
G02 X27.649 Y20.118 I8.9962 J-4.8570
G02 X8.833 Y12.360 I-9.9225 J-2.6313
G03 X11.101 Y15.233 I-3.0774 J4.7611
G01 X11.090 Y16.303
G01 X10.661 Y16.298
G01 X10.622 Y19.593
G01 X10.488 Y20.013
G03 X8.169 Y22.230 I-4.6884 J-2.5809
G02 X28.300 Y19.093 I9.5779 J-4.6958
G02 X8.245 Y12.537 I-10.5749 J-1.6038
G03 X10.673 Y15.300 I-2.3871 J4.5449
G01 X10.661 Y16.298
G01 X10.235 Y16.294
G01 X10.202 Y19.483
G01 X10.085 Y19.853
G03 X7.581 Y22.029 I-4.3577 J-2.4860
G02 X28.775 Y16.225 I10.1550 J-4.5147
G02 X7.665 Y12.763 I-11.0442 J1.2541
G03 X10.244 Y15.367 I-1.7155 J4.2778
G01 X10.235 Y16.294
G01 X9.807 Y16.290
G01 X9.774 Y19.416
G01 X9.681 Y19.693
G03 X6.993 Y21.777 I-3.8925 J-2.2468
G02 X28.229 Y12.678 I10.7362 J-4.2730
G02 X7.077 Y12.999 I-10.5055 J4.8078
G03 X9.679 Y15.112 I-1.3060 J4.2651
G01 X9.816 Y15.435
G01 X9.807 Y16.290
G01 X9.379 Y16.285
G01 X9.345 Y19.341
G01 X9.312 Y19.467
G03 X6.405 Y21.466 I-3.5175 J-2.0015
G02 X28.902 Y13.171 I11.3148 J-3.9669
G02 X6.489 Y13.293 I-11.1833 J4.3135
G03 X9.362 Y15.384 I-0.7849 J4.0967
G01 X9.387 Y15.510
G01 X9.379 Y16.285
G00 Z20.000
G00 Z-0.500
G01 Z-1.000 F120
G01 X9.163 Y16.282 F400
G01 X9.129 Y19.238
G03 X8.821 Y19.824 I-0.8832 J-0.0903
G01 X8.630 Y20.045
G01 X8.584 Y20.095
G01 X8.374 Y20.298
G01 X8.324 Y20.343
G01 X8.096 Y20.526
G01 X8.041 Y20.566
G01 X7.798 Y20.727
G01 X7.740 Y20.763
G01 X7.483 Y20.900
G01 X7.422 Y20.931
G01 X7.153 Y21.044
G01 X7.089 Y21.068
G01 X6.811 Y21.157
G01 X6.746 Y21.175
G01 X6.461 Y21.238
G01 X6.394 Y21.250
G01 X6.104 Y21.286
G01 X5.818 Y21.072
G01 X6.104 Y21.286
G01 X6.105 Y21.298
G02 X29.264 Y13.541 I11.6079 J-3.7947
G02 X6.193 Y13.493 I-11.5439 J3.9335
G01 X5.900 Y13.701
G01 X6.193 Y13.493
G01 X6.462 Y13.533
G01 X6.530 Y13.545
G01 X6.814 Y13.615
G01 X6.880 Y13.633
G01 X7.157 Y13.728
G01 X7.221 Y13.753
G01 X7.487 Y13.873
G01 X7.549 Y13.904
G01 X7.803 Y14.048
G01 X7.862 Y14.084
G01 X8.101 Y14.252
G01 X8.156 Y14.293
G01 X8.380 Y14.482
G01 X8.430 Y14.528
G01 X8.635 Y14.737
G01 X8.682 Y14.787
G01 X8.866 Y15.014
G01 X8.908 Y15.069
G01 X9.082 Y15.329
G03 X9.171 Y15.627 I-0.4367 J0.2914
G01 X9.163 Y16.282
G00 Z20.000


(No. 3 Helical drill: Helical drill 4)
G00 X4.473 Y4.000 Z20.000
G00 Z0.500
G02 X3.764 Y3.591 Z0.367 I-0.4725 J0.0000 F120
G02 Y4.409 Z0.233 I0.2363 J0.4092
G02 X4.473 Y4.000 Z0.100 I0.2363 J-0.4092
G02 X3.764 Y3.591 Z0.067 I-0.4725 J0.0000
G02 Y4.409 Z0.033 I0.2363 J0.4092
G02 X4.473 Y4.000 Z0.000 I0.2363 J-0.4092
G02 X3.764 Y3.591 I-0.4725 J0.0000
G02 Y4.409 I0.2363 J0.4092
G02 X4.473 Y4.000 I0.2363 J-0.4092
G02 X3.764 Y3.591 Z-0.133 I-0.4725 J0.0000
G02 Y4.409 Z-0.267 I0.2363 J0.4092
G02 X4.473 Y4.000 Z-0.400 I0.2363 J-0.4092
G02 X3.764 Y3.591 I-0.4725 J0.0000
G02 Y4.409 I0.2363 J0.4092
G02 X4.473 Y4.000 I0.2363 J-0.4092
G02 X4.461 Y3.809 I-0.4767 J-0.0665 F400
G02 X4.371 Y3.629 I-0.4905 J0.1311
G02 X4.211 Y3.491 I-0.4219 J0.3277
G02 X4.000 Y3.423 I-0.2745 J0.4888
G02 X3.769 Y3.442 I-0.0666 J0.5832
G02 X3.555 Y3.555 I0.1718 J0.5888
G02 X3.394 Y3.749 I0.4028 J0.4970
G02 X3.318 Y4.000 I0.5869 J0.3152
G02 X3.345 Y4.271 I0.6893 J0.0666
G02 X3.480 Y4.520 I0.6868 J-0.2124
G02 X3.709 Y4.703 I0.5720 J-0.4777
G02 X4.000 Y4.788 I0.3557 J-0.6847
G02 X4.311 Y4.752 I0.0666 J-0.7951
G02 X4.594 Y4.594 I-0.2529 J-0.7845
G02 X4.800 Y4.331 I-0.5525 J-0.6467
G02 X4.893 Y4.000 I-0.7823 J-0.3961
G02 X4.849 Y3.648 I-0.9008 J-0.0666
G02 X4.668 Y3.332 I-0.8820 J0.2933
G02 X4.372 Y3.103 I-0.7213 J0.6272
G02 X4.000 Y3.003 I-0.4365 J0.8798
G02 X3.608 Y3.054 I-0.0666 J1.0063
G02 X3.258 Y3.258 I0.3337 J0.9795
G02 X3.006 Y3.588 I0.7018 J0.7959
G02 X2.900 Y4.000 I0.9792 J0.4707
G02 X2.984 Y4.421 I1.1000 J0.0000
G02 X3.222 Y4.778 I1.0163 J-0.4210
G02 X3.579 Y5.016 I0.7778 J-0.7778
G02 X4.000 Y5.100 I0.4210 J-1.0163
G02 X4.421 Y5.016 I0.0000 J-1.1000
G02 X4.778 Y4.778 I-0.4210 J-1.0163
G02 X5.016 Y4.421 I-0.7778 J-0.7778
G02 X5.100 Y4.000 I-1.0163 J-0.4210
G02 X3.450 Y3.047 I-1.1000 J0.0000
G02 Y4.953 I0.5500 J0.9526
G02 X5.100 Y4.000 I0.5500 J-0.9526
G02 X3.528 I-0.7863 J0.0000
G02 X4.473 I0.4725 J0.0000
G02 X3.764 Y3.591 Z-0.533 I-0.4725 J0.0000 F120
G02 Y4.409 Z-0.667 I0.2363 J0.4092
G02 X4.473 Y4.000 Z-0.800 I0.2363 J-0.4092
G02 X3.764 Y3.591 I-0.4725 J0.0000
G02 Y4.409 I0.2363 J0.4092
G02 X4.473 Y4.000 I0.2363 J-0.4092
G02 X4.461 Y3.809 I-0.4767 J-0.0665 F400
G02 X4.371 Y3.629 I-0.4905 J0.1311
G02 X4.211 Y3.491 I-0.4219 J0.3277
G02 X4.000 Y3.423 I-0.2745 J0.4888
G02 X3.769 Y3.442 I-0.0666 J0.5832
G02 X3.555 Y3.555 I0.1718 J0.5888
G02 X3.394 Y3.749 I0.4028 J0.4970
G02 X3.318 Y4.000 I0.5869 J0.3152
G02 X3.345 Y4.271 I0.6893 J0.0666
G02 X3.480 Y4.520 I0.6868 J-0.2124
G02 X3.709 Y4.703 I0.5720 J-0.4777
G02 X4.000 Y4.788 I0.3557 J-0.6847
G02 X4.311 Y4.752 I0.0666 J-0.7951
G02 X4.594 Y4.594 I-0.2529 J-0.7845
G02 X4.800 Y4.331 I-0.5525 J-0.6467
G02 X4.893 Y4.000 I-0.7823 J-0.3961
G02 X4.849 Y3.648 I-0.9008 J-0.0666
G02 X4.668 Y3.332 I-0.8820 J0.2933
G02 X4.372 Y3.103 I-0.7213 J0.6272
G02 X4.000 Y3.003 I-0.4365 J0.8798
G02 X3.608 Y3.054 I-0.0666 J1.0063
G02 X3.258 Y3.258 I0.3337 J0.9795
G02 X3.006 Y3.588 I0.7018 J0.7959
G02 X2.900 Y4.000 I0.9792 J0.4707
G02 X2.984 Y4.421 I1.1000 J0.0000
G02 X3.222 Y4.778 I1.0163 J-0.4210
G02 X3.579 Y5.016 I0.7778 J-0.7778
G02 X4.000 Y5.100 I0.4210 J-1.0163
G02 X4.421 Y5.016 I0.0000 J-1.1000
G02 X4.778 Y4.778 I-0.4210 J-1.0163
G02 X5.016 Y4.421 I-0.7778 J-0.7778
G02 X5.100 Y4.000 I-1.0163 J-0.4210
G02 X3.450 Y3.047 I-1.1000 J0.0000
G02 Y4.953 I0.5500 J0.9526
G02 X5.100 Y4.000 I0.5500 J-0.9526
G02 X3.528 I-0.7863 J0.0000
G02 X4.473 I0.4725 J0.0000
G02 X3.764 Y3.591 Z-0.933 I-0.4725 J0.0000 F120
G02 Y4.409 Z-1.067 I0.2363 J0.4092
G02 X4.473 Y4.000 Z-1.200 I0.2363 J-0.4092
G02 X3.764 Y3.591 I-0.4725 J0.0000
G02 Y4.409 I0.2363 J0.4092
G02 X4.473 Y4.000 I0.2363 J-0.4092
G02 X4.461 Y3.809 I-0.4767 J-0.0665 F400
G02 X4.371 Y3.629 I-0.4905 J0.1311
G02 X4.211 Y3.491 I-0.4219 J0.3277
G02 X4.000 Y3.423 I-0.2745 J0.4888
G02 X3.769 Y3.442 I-0.0666 J0.5832
G02 X3.555 Y3.555 I0.1718 J0.5888
G02 X3.394 Y3.749 I0.4028 J0.4970
G02 X3.318 Y4.000 I0.5869 J0.3152
G02 X3.345 Y4.271 I0.6893 J0.0666
G02 X3.480 Y4.520 I0.6868 J-0.2124
G02 X3.709 Y4.703 I0.5720 J-0.4777
G02 X4.000 Y4.788 I0.3557 J-0.6847
G02 X4.311 Y4.752 I0.0666 J-0.7951
G02 X4.594 Y4.594 I-0.2529 J-0.7845
G02 X4.800 Y4.331 I-0.5525 J-0.6467
G02 X4.893 Y4.000 I-0.7823 J-0.3961
G02 X4.849 Y3.648 I-0.9008 J-0.0666
G02 X4.668 Y3.332 I-0.8820 J0.2933
G02 X4.372 Y3.103 I-0.7213 J0.6272
G02 X4.000 Y3.003 I-0.4365 J0.8798
G02 X3.608 Y3.054 I-0.0666 J1.0063
G02 X3.258 Y3.258 I0.3337 J0.9795
G02 X3.006 Y3.588 I0.7018 J0.7959
G02 X2.900 Y4.000 I0.9792 J0.4707
G02 X2.984 Y4.421 I1.1000 J0.0000
G02 X3.222 Y4.778 I1.0163 J-0.4210
G02 X3.579 Y5.016 I0.7778 J-0.7778
G02 X4.000 Y5.100 I0.4210 J-1.0163
G02 X4.421 Y5.016 I0.0000 J-1.1000
G02 X4.778 Y4.778 I-0.4210 J-1.0163
G02 X5.016 Y4.421 I-0.7778 J-0.7778
G02 X5.100 Y4.000 I-1.0163 J-0.4210
G02 X3.450 Y3.047 I-1.1000 J0.0000
G02 Y4.953 I0.5500 J0.9526
G02 X5.100 Y4.000 I0.5500 J-0.9526
G02 X3.528 I-0.7863 J0.0000
G02 X4.473 I0.4725 J0.0000
G02 X3.764 Y3.591 Z-1.333 I-0.4725 J0.0000 F120
G02 Y4.409 Z-1.467 I0.2363 J0.4092
G02 X4.473 Y4.000 Z-1.600 I0.2363 J-0.4092
G02 X3.764 Y3.591 I-0.4725 J0.0000
G02 Y4.409 I0.2363 J0.4092
G02 X4.473 Y4.000 I0.2363 J-0.4092
G02 X4.461 Y3.809 I-0.4767 J-0.0665 F400
G02 X4.371 Y3.629 I-0.4905 J0.1311
G02 X4.211 Y3.491 I-0.4219 J0.3277
G02 X4.000 Y3.423 I-0.2745 J0.4888
G02 X3.769 Y3.442 I-0.0666 J0.5832
G02 X3.555 Y3.555 I0.1718 J0.5888
G02 X3.394 Y3.749 I0.4028 J0.4970
G02 X3.318 Y4.000 I0.5869 J0.3152
G02 X3.345 Y4.271 I0.6893 J0.0666
G02 X3.480 Y4.520 I0.6868 J-0.2124
G02 X3.709 Y4.703 I0.5720 J-0.4777
G02 X4.000 Y4.788 I0.3557 J-0.6847
G02 X4.311 Y4.752 I0.0666 J-0.7951
G02 X4.594 Y4.594 I-0.2529 J-0.7845
G02 X4.800 Y4.331 I-0.5525 J-0.6467
G02 X4.893 Y4.000 I-0.7823 J-0.3961
G02 X4.849 Y3.648 I-0.9008 J-0.0666
G02 X4.668 Y3.332 I-0.8820 J0.2933
G02 X4.372 Y3.103 I-0.7213 J0.6272
G02 X4.000 Y3.003 I-0.4365 J0.8798
G02 X3.608 Y3.054 I-0.0666 J1.0063
G02 X3.258 Y3.258 I0.3337 J0.9795
G02 X3.006 Y3.588 I0.7018 J0.7959
G02 X2.900 Y4.000 I0.9792 J0.4707
G02 X2.984 Y4.421 I1.1000 J0.0000
G02 X3.222 Y4.778 I1.0163 J-0.4210
G02 X3.579 Y5.016 I0.7778 J-0.7778
G02 X4.000 Y5.100 I0.4210 J-1.0163
G02 X4.421 Y5.016 I0.0000 J-1.1000
G02 X4.778 Y4.778 I-0.4210 J-1.0163
G02 X5.016 Y4.421 I-0.7778 J-0.7778
G02 X5.100 Y4.000 I-1.0163 J-0.4210
G02 X3.450 Y3.047 I-1.1000 J0.0000
G02 Y4.953 I0.5500 J0.9526
G02 X5.100 Y4.000 I0.5500 J-0.9526
G02 X3.528 I-0.7863 J0.0000
G02 X4.473 I0.4725 J0.0000
G02 X3.764 Y3.591 Z-1.733 I-0.4725 J0.0000 F120
G02 Y4.409 Z-1.867 I0.2363 J0.4092
G02 X4.473 Y4.000 Z-2.000 I0.2363 J-0.4092
G02 X3.764 Y3.591 I-0.4725 J0.0000
G02 Y4.409 I0.2363 J0.4092
G02 X4.473 Y4.000 I0.2363 J-0.4092
G02 X4.461 Y3.809 I-0.4767 J-0.0665 F400
G02 X4.371 Y3.629 I-0.4905 J0.1311
G02 X4.211 Y3.491 I-0.4219 J0.3277
G02 X4.000 Y3.423 I-0.2745 J0.4888
G02 X3.769 Y3.442 I-0.0666 J0.5832
G02 X3.555 Y3.555 I0.1718 J0.5888
G02 X3.394 Y3.749 I0.4028 J0.4970
G02 X3.318 Y4.000 I0.5869 J0.3152
G02 X3.345 Y4.271 I0.6893 J0.0666
G02 X3.480 Y4.520 I0.6868 J-0.2124
G02 X3.709 Y4.703 I0.5720 J-0.4777
G02 X4.000 Y4.788 I0.3557 J-0.6847
G02 X4.311 Y4.752 I0.0666 J-0.7951
G02 X4.594 Y4.594 I-0.2529 J-0.7845
G02 X4.800 Y4.331 I-0.5525 J-0.6467
G02 X4.893 Y4.000 I-0.7823 J-0.3961
G02 X4.849 Y3.648 I-0.9008 J-0.0666
G02 X4.668 Y3.332 I-0.8820 J0.2933
G02 X4.372 Y3.103 I-0.7213 J0.6272
G02 X4.000 Y3.003 I-0.4365 J0.8798
G02 X3.608 Y3.054 I-0.0666 J1.0063
G02 X3.258 Y3.258 I0.3337 J0.9795
G02 X3.006 Y3.588 I0.7018 J0.7959
G02 X2.900 Y4.000 I0.9792 J0.4707
G02 X2.984 Y4.421 I1.1000 J0.0000
G02 X3.222 Y4.778 I1.0163 J-0.4210
G02 X3.579 Y5.016 I0.7778 J-0.7778
G02 X4.000 Y5.100 I0.4210 J-1.0163
G02 X4.421 Y5.016 I0.0000 J-1.1000
G02 X4.778 Y4.778 I-0.4210 J-1.0163
G02 X5.016 Y4.421 I-0.7778 J-0.7778
G02 X5.100 Y4.000 I-1.0163 J-0.4210
G02 X3.450 Y3.047 I-1.1000 J0.0000
G02 Y4.953 I0.5500 J0.9526
G02 X5.100 Y4.000 I0.5500 J-0.9526
G02 X3.528 I-0.7863 J0.0000
G02 X4.473 I0.4725 J0.0000
G02 X3.764 Y3.591 Z-2.133 I-0.4725 J0.0000 F120
G02 Y4.409 Z-2.267 I0.2363 J0.4092
G02 X4.473 Y4.000 Z-2.400 I0.2363 J-0.4092
G02 X3.764 Y3.591 I-0.4725 J0.0000
G02 Y4.409 I0.2363 J0.4092
G02 X4.473 Y4.000 I0.2363 J-0.4092
G02 X4.461 Y3.809 I-0.4767 J-0.0665 F400
G02 X4.371 Y3.629 I-0.4905 J0.1311
G02 X4.211 Y3.491 I-0.4219 J0.3277
G02 X4.000 Y3.423 I-0.2745 J0.4888
G02 X3.769 Y3.442 I-0.0666 J0.5832
G02 X3.555 Y3.555 I0.1718 J0.5888
G02 X3.394 Y3.749 I0.4028 J0.4970
G02 X3.318 Y4.000 I0.5869 J0.3152
G02 X3.345 Y4.271 I0.6893 J0.0666
G02 X3.480 Y4.520 I0.6868 J-0.2124
G02 X3.709 Y4.703 I0.5720 J-0.4777
G02 X4.000 Y4.788 I0.3557 J-0.6847
G02 X4.311 Y4.752 I0.0666 J-0.7951
G02 X4.594 Y4.594 I-0.2529 J-0.7845
G02 X4.800 Y4.331 I-0.5525 J-0.6467
G02 X4.893 Y4.000 I-0.7823 J-0.3961
G02 X4.849 Y3.648 I-0.9008 J-0.0666
G02 X4.668 Y3.332 I-0.8820 J0.2933
G02 X4.372 Y3.103 I-0.7213 J0.6272
G02 X4.000 Y3.003 I-0.4365 J0.8798
G02 X3.608 Y3.054 I-0.0666 J1.0063
G02 X3.258 Y3.258 I0.3337 J0.9795
G02 X3.006 Y3.588 I0.7018 J0.7959
G02 X2.900 Y4.000 I0.9792 J0.4707
G02 X2.984 Y4.421 I1.1000 J0.0000
G02 X3.222 Y4.778 I1.0163 J-0.4210
G02 X3.579 Y5.016 I0.7778 J-0.7778
G02 X4.000 Y5.100 I0.4210 J-1.0163
G02 X4.421 Y5.016 I0.0000 J-1.1000
G02 X4.778 Y4.778 I-0.4210 J-1.0163
G02 X5.016 Y4.421 I-0.7778 J-0.7778
G02 X5.100 Y4.000 I-1.0163 J-0.4210
G02 X3.450 Y3.047 I-1.1000 J0.0000
G02 Y4.953 I0.5500 J0.9526
G02 X5.100 Y4.000 I0.5500 J-0.9526
G02 X3.528 I-0.7863 J0.0000
G02 X4.473 I0.4725 J0.0000
G02 X3.764 Y3.591 Z-2.533 I-0.4725 J0.0000 F120
G02 Y4.409 Z-2.667 I0.2363 J0.4092
G02 X4.473 Y4.000 Z-2.800 I0.2363 J-0.4092
G02 X3.764 Y3.591 I-0.4725 J0.0000
G02 Y4.409 I0.2363 J0.4092
G02 X4.473 Y4.000 I0.2363 J-0.4092
G02 X4.461 Y3.809 I-0.4767 J-0.0665 F400
G02 X4.371 Y3.629 I-0.4905 J0.1311
G02 X4.211 Y3.491 I-0.4219 J0.3277
G02 X4.000 Y3.423 I-0.2745 J0.4888
G02 X3.769 Y3.442 I-0.0666 J0.5832
G02 X3.555 Y3.555 I0.1718 J0.5888
G02 X3.394 Y3.749 I0.4028 J0.4970
G02 X3.318 Y4.000 I0.5869 J0.3152
G02 X3.345 Y4.271 I0.6893 J0.0666
G02 X3.480 Y4.520 I0.6868 J-0.2124
G02 X3.709 Y4.703 I0.5720 J-0.4777
G02 X4.000 Y4.788 I0.3557 J-0.6847
G02 X4.311 Y4.752 I0.0666 J-0.7951
G02 X4.594 Y4.594 I-0.2529 J-0.7845
G02 X4.800 Y4.331 I-0.5525 J-0.6467
G02 X4.893 Y4.000 I-0.7823 J-0.3961
G02 X4.849 Y3.648 I-0.9008 J-0.0666
G02 X4.668 Y3.332 I-0.8820 J0.2933
G02 X4.372 Y3.103 I-0.7213 J0.6272
G02 X4.000 Y3.003 I-0.4365 J0.8798
G02 X3.608 Y3.054 I-0.0666 J1.0063
G02 X3.258 Y3.258 I0.3337 J0.9795
G02 X3.006 Y3.588 I0.7018 J0.7959
G02 X2.900 Y4.000 I0.9792 J0.4707
G02 X2.984 Y4.421 I1.1000 J0.0000
G02 X3.222 Y4.778 I1.0163 J-0.4210
G02 X3.579 Y5.016 I0.7778 J-0.7778
G02 X4.000 Y5.100 I0.4210 J-1.0163
G02 X4.421 Y5.016 I0.0000 J-1.1000
G02 X4.778 Y4.778 I-0.4210 J-1.0163
G02 X5.016 Y4.421 I-0.7778 J-0.7778
G02 X5.100 Y4.000 I-1.0163 J-0.4210
G02 X3.450 Y3.047 I-1.1000 J0.0000
G02 Y4.953 I0.5500 J0.9526
G02 X5.100 Y4.000 I0.5500 J-0.9526
G02 X3.528 I-0.7863 J0.0000
G02 X4.473 I0.4725 J0.0000
G02 X3.764 Y3.591 Z-2.933 I-0.4725 J0.0000 F120
G02 Y4.409 Z-3.067 I0.2363 J0.4092
G02 X4.473 Y4.000 Z-3.200 I0.2363 J-0.4092
G02 X3.764 Y3.591 I-0.4725 J0.0000
G02 Y4.409 I0.2363 J0.4092
G02 X4.473 Y4.000 I0.2363 J-0.4092
G02 X4.461 Y3.809 I-0.4767 J-0.0665 F400
G02 X4.371 Y3.629 I-0.4905 J0.1311
G02 X4.211 Y3.491 I-0.4219 J0.3277
G02 X4.000 Y3.423 I-0.2745 J0.4888
G02 X3.769 Y3.442 I-0.0666 J0.5832
G02 X3.555 Y3.555 I0.1718 J0.5888
G02 X3.394 Y3.749 I0.4028 J0.4970
G02 X3.318 Y4.000 I0.5869 J0.3152
G02 X3.345 Y4.271 I0.6893 J0.0666
G02 X3.480 Y4.520 I0.6868 J-0.2124
G02 X3.709 Y4.703 I0.5720 J-0.4777
G02 X4.000 Y4.788 I0.3557 J-0.6847
G02 X4.311 Y4.752 I0.0666 J-0.7951
G02 X4.594 Y4.594 I-0.2529 J-0.7845
G02 X4.800 Y4.331 I-0.5525 J-0.6467
G02 X4.893 Y4.000 I-0.7823 J-0.3961
G02 X4.849 Y3.648 I-0.9008 J-0.0666
G02 X4.668 Y3.332 I-0.8820 J0.2933
G02 X4.372 Y3.103 I-0.7213 J0.6272
G02 X4.000 Y3.003 I-0.4365 J0.8798
G02 X3.608 Y3.054 I-0.0666 J1.0063
G02 X3.258 Y3.258 I0.3337 J0.9795
G02 X3.006 Y3.588 I0.7018 J0.7959
G02 X2.900 Y4.000 I0.9792 J0.4707
G02 X2.984 Y4.421 I1.1000 J0.0000
G02 X3.222 Y4.778 I1.0163 J-0.4210
G02 X3.579 Y5.016 I0.7778 J-0.7778
G02 X4.000 Y5.100 I0.4210 J-1.0163
G02 X4.421 Y5.016 I0.0000 J-1.1000
G02 X4.778 Y4.778 I-0.4210 J-1.0163
G02 X5.016 Y4.421 I-0.7778 J-0.7778
G02 X5.100 Y4.000 I-1.0163 J-0.4210
G02 X3.450 Y3.047 I-1.1000 J0.0000
G02 Y4.953 I0.5500 J0.9526
G02 X5.100 Y4.000 I0.5500 J-0.9526
G02 X3.528 I-0.7863 J0.0000
G02 X4.473 I0.4725 J0.0000
G02 X3.764 Y3.591 Z-3.300 I-0.4725 J0.0000 F120
G02 Y4.409 Z-3.400 I0.2363 J0.4092
G02 X4.473 Y4.000 Z-3.500 I0.2363 J-0.4092
G02 X3.764 Y3.591 I-0.4725 J0.0000
G02 Y4.409 I0.2363 J0.4092
G02 X4.473 Y4.000 I0.2363 J-0.4092
G02 X4.461 Y3.809 I-0.4767 J-0.0665 F400
G02 X4.371 Y3.629 I-0.4905 J0.1311
G02 X4.211 Y3.491 I-0.4219 J0.3277
G02 X4.000 Y3.423 I-0.2745 J0.4888
G02 X3.769 Y3.442 I-0.0666 J0.5832
G02 X3.555 Y3.555 I0.1718 J0.5888
G02 X3.394 Y3.749 I0.4028 J0.4970
G02 X3.318 Y4.000 I0.5869 J0.3152
G02 X3.345 Y4.271 I0.6893 J0.0666
G02 X3.480 Y4.520 I0.6868 J-0.2124
G02 X3.709 Y4.703 I0.5720 J-0.4777
G02 X4.000 Y4.788 I0.3557 J-0.6847
G02 X4.311 Y4.752 I0.0666 J-0.7951
G02 X4.594 Y4.594 I-0.2529 J-0.7845
G02 X4.800 Y4.331 I-0.5525 J-0.6467
G02 X4.893 Y4.000 I-0.7823 J-0.3961
G02 X4.849 Y3.648 I-0.9008 J-0.0666
G02 X4.668 Y3.332 I-0.8820 J0.2933
G02 X4.372 Y3.103 I-0.7213 J0.6272
G02 X4.000 Y3.003 I-0.4365 J0.8798
G02 X3.608 Y3.054 I-0.0666 J1.0063
G02 X3.258 Y3.258 I0.3337 J0.9795
G02 X3.006 Y3.588 I0.7018 J0.7959
G02 X2.900 Y4.000 I0.9792 J0.4707
G02 X2.984 Y4.421 I1.1000 J0.0000
G02 X3.222 Y4.778 I1.0163 J-0.4210
G02 X3.579 Y5.016 I0.7778 J-0.7778
G02 X4.000 Y5.100 I0.4210 J-1.0163
G02 X4.421 Y5.016 I0.0000 J-1.1000
G02 X4.778 Y4.778 I-0.4210 J-1.0163
G02 X5.016 Y4.421 I-0.7778 J-0.7778
G02 X5.100 Y4.000 I-1.0163 J-0.4210
G02 X3.450 Y3.047 I-1.1000 J0.0000
G02 Y4.953 I0.5500 J0.9526
G02 X5.100 Y4.000 I0.5500 J-0.9526
G02 X4.575 Y3.475 Z-3.000 I-0.5250 J0.0000 F120
G00 Z20.000


(No. 4 Helical drill: Helical drill 1)
G00 X4.473 Y31.000 Z20.000
G00 Z0.500
G02 X3.764 Y30.591 Z0.367 I-0.4725 J0.0000 F120
G02 Y31.409 Z0.233 I0.2363 J0.4092
G02 X4.473 Y31.000 Z0.100 I0.2363 J-0.4092
G02 X3.764 Y30.591 Z0.067 I-0.4725 J0.0000
G02 Y31.409 Z0.033 I0.2363 J0.4092
G02 X4.473 Y31.000 Z0.000 I0.2363 J-0.4092
G02 X3.764 Y30.591 I-0.4725 J0.0000
G02 Y31.409 I0.2363 J0.4092
G02 X4.473 Y31.000 I0.2363 J-0.4092
G02 X3.764 Y30.591 Z-0.133 I-0.4725 J0.0000
G02 Y31.409 Z-0.267 I0.2363 J0.4092
G02 X4.473 Y31.000 Z-0.400 I0.2363 J-0.4092
G02 X3.764 Y30.591 I-0.4725 J0.0000
G02 Y31.409 I0.2363 J0.4092
G02 X4.473 Y31.000 I0.2363 J-0.4092
G02 X4.461 Y30.809 I-0.4767 J-0.0665 F400
G02 X4.371 Y30.629 I-0.4905 J0.1311
G02 X4.211 Y30.491 I-0.4219 J0.3277
G02 X4.000 Y30.423 I-0.2745 J0.4888
G02 X3.769 Y30.442 I-0.0666 J0.5832
G02 X3.555 Y30.555 I0.1718 J0.5888
G02 X3.394 Y30.749 I0.4028 J0.4970
G02 X3.318 Y31.000 I0.5869 J0.3152
G02 X3.345 Y31.271 I0.6893 J0.0666
G02 X3.480 Y31.520 I0.6868 J-0.2124
G02 X3.709 Y31.703 I0.5720 J-0.4777
G02 X4.000 Y31.788 I0.3557 J-0.6847
G02 X4.311 Y31.752 I0.0666 J-0.7951
G02 X4.594 Y31.594 I-0.2529 J-0.7845
G02 X4.800 Y31.331 I-0.5525 J-0.6467
G02 X4.893 Y31.000 I-0.7823 J-0.3961
G02 X4.849 Y30.648 I-0.9008 J-0.0666
G02 X4.668 Y30.332 I-0.8820 J0.2933
G02 X4.372 Y30.103 I-0.7213 J0.6272
G02 X4.000 Y30.003 I-0.4365 J0.8798
G02 X3.608 Y30.054 I-0.0666 J1.0063
G02 X3.258 Y30.258 I0.3337 J0.9795
G02 X3.006 Y30.588 I0.7018 J0.7959
G02 X2.900 Y31.000 I0.9792 J0.4707
G02 X2.984 Y31.421 I1.1000 J0.0000
G02 X3.222 Y31.778 I1.0163 J-0.4210
G02 X3.579 Y32.016 I0.7778 J-0.7778
G02 X4.000 Y32.100 I0.4210 J-1.0163
G02 X4.421 Y32.016 I0.0000 J-1.1000
G02 X4.778 Y31.778 I-0.4210 J-1.0163
G02 X5.016 Y31.421 I-0.7778 J-0.7778
G02 X5.100 Y31.000 I-1.0163 J-0.4210
G02 X3.450 Y30.047 I-1.1000 J0.0000
G02 Y31.953 I0.5500 J0.9526
G02 X5.100 Y31.000 I0.5500 J-0.9526
G02 X3.528 I-0.7863 J0.0000
G02 X4.473 I0.4725 J0.0000
G02 X3.764 Y30.591 Z-0.533 I-0.4725 J0.0000 F120
G02 Y31.409 Z-0.667 I0.2363 J0.4092
G02 X4.473 Y31.000 Z-0.800 I0.2363 J-0.4092
G02 X3.764 Y30.591 I-0.4725 J0.0000
G02 Y31.409 I0.2363 J0.4092
G02 X4.473 Y31.000 I0.2363 J-0.4092
G02 X4.461 Y30.809 I-0.4767 J-0.0665 F400
G02 X4.371 Y30.629 I-0.4905 J0.1311
G02 X4.211 Y30.491 I-0.4219 J0.3277
G02 X4.000 Y30.423 I-0.2745 J0.4888
G02 X3.769 Y30.442 I-0.0666 J0.5832
G02 X3.555 Y30.555 I0.1718 J0.5888
G02 X3.394 Y30.749 I0.4028 J0.4970
G02 X3.318 Y31.000 I0.5869 J0.3152
G02 X3.345 Y31.271 I0.6893 J0.0666
G02 X3.480 Y31.520 I0.6868 J-0.2124
G02 X3.709 Y31.703 I0.5720 J-0.4777
G02 X4.000 Y31.788 I0.3557 J-0.6847
G02 X4.311 Y31.752 I0.0666 J-0.7951
G02 X4.594 Y31.594 I-0.2529 J-0.7845
G02 X4.800 Y31.331 I-0.5525 J-0.6467
G02 X4.893 Y31.000 I-0.7823 J-0.3961
G02 X4.849 Y30.648 I-0.9008 J-0.0666
G02 X4.668 Y30.332 I-0.8820 J0.2933
G02 X4.372 Y30.103 I-0.7213 J0.6272
G02 X4.000 Y30.003 I-0.4365 J0.8798
G02 X3.608 Y30.054 I-0.0666 J1.0063
G02 X3.258 Y30.258 I0.3337 J0.9795
G02 X3.006 Y30.588 I0.7018 J0.7959
G02 X2.900 Y31.000 I0.9792 J0.4707
G02 X2.984 Y31.421 I1.1000 J0.0000
G02 X3.222 Y31.778 I1.0163 J-0.4210
G02 X3.579 Y32.016 I0.7778 J-0.7778
G02 X4.000 Y32.100 I0.4210 J-1.0163
G02 X4.421 Y32.016 I0.0000 J-1.1000
G02 X4.778 Y31.778 I-0.4210 J-1.0163
G02 X5.016 Y31.421 I-0.7778 J-0.7778
G02 X5.100 Y31.000 I-1.0163 J-0.4210
G02 X3.450 Y30.047 I-1.1000 J0.0000
G02 Y31.953 I0.5500 J0.9526
G02 X5.100 Y31.000 I0.5500 J-0.9526
G02 X3.528 I-0.7863 J0.0000
G02 X4.473 I0.4725 J0.0000
G02 X3.764 Y30.591 Z-0.933 I-0.4725 J0.0000 F120
G02 Y31.409 Z-1.067 I0.2363 J0.4092
G02 X4.473 Y31.000 Z-1.200 I0.2363 J-0.4092
G02 X3.764 Y30.591 I-0.4725 J0.0000
G02 Y31.409 I0.2363 J0.4092
G02 X4.473 Y31.000 I0.2363 J-0.4092
G02 X4.461 Y30.809 I-0.4767 J-0.0665 F400
G02 X4.371 Y30.629 I-0.4905 J0.1311
G02 X4.211 Y30.491 I-0.4219 J0.3277
G02 X4.000 Y30.423 I-0.2745 J0.4888
G02 X3.769 Y30.442 I-0.0666 J0.5832
G02 X3.555 Y30.555 I0.1718 J0.5888
G02 X3.394 Y30.749 I0.4028 J0.4970
G02 X3.318 Y31.000 I0.5869 J0.3152
G02 X3.345 Y31.271 I0.6893 J0.0666
G02 X3.480 Y31.520 I0.6868 J-0.2124
G02 X3.709 Y31.703 I0.5720 J-0.4777
G02 X4.000 Y31.788 I0.3557 J-0.6847
G02 X4.311 Y31.752 I0.0666 J-0.7951
G02 X4.594 Y31.594 I-0.2529 J-0.7845
G02 X4.800 Y31.331 I-0.5525 J-0.6467
G02 X4.893 Y31.000 I-0.7823 J-0.3961
G02 X4.849 Y30.648 I-0.9008 J-0.0666
G02 X4.668 Y30.332 I-0.8820 J0.2933
G02 X4.372 Y30.103 I-0.7213 J0.6272
G02 X4.000 Y30.003 I-0.4365 J0.8798
G02 X3.608 Y30.054 I-0.0666 J1.0063
G02 X3.258 Y30.258 I0.3337 J0.9795
G02 X3.006 Y30.588 I0.7018 J0.7959
G02 X2.900 Y31.000 I0.9792 J0.4707
G02 X2.984 Y31.421 I1.1000 J0.0000
G02 X3.222 Y31.778 I1.0163 J-0.4210
G02 X3.579 Y32.016 I0.7778 J-0.7778
G02 X4.000 Y32.100 I0.4210 J-1.0163
G02 X4.421 Y32.016 I0.0000 J-1.1000
G02 X4.778 Y31.778 I-0.4210 J-1.0163
G02 X5.016 Y31.421 I-0.7778 J-0.7778
G02 X5.100 Y31.000 I-1.0163 J-0.4210
G02 X3.450 Y30.047 I-1.1000 J0.0000
G02 Y31.953 I0.5500 J0.9526
G02 X5.100 Y31.000 I0.5500 J-0.9526
G02 X3.528 I-0.7863 J0.0000
G02 X4.473 I0.4725 J0.0000
G02 X3.764 Y30.591 Z-1.333 I-0.4725 J0.0000 F120
G02 Y31.409 Z-1.467 I0.2363 J0.4092
G02 X4.473 Y31.000 Z-1.600 I0.2363 J-0.4092
G02 X3.764 Y30.591 I-0.4725 J0.0000
G02 Y31.409 I0.2363 J0.4092
G02 X4.473 Y31.000 I0.2363 J-0.4092
G02 X4.461 Y30.809 I-0.4767 J-0.0665 F400
G02 X4.371 Y30.629 I-0.4905 J0.1311
G02 X4.211 Y30.491 I-0.4219 J0.3277
G02 X4.000 Y30.423 I-0.2745 J0.4888
G02 X3.769 Y30.442 I-0.0666 J0.5832
G02 X3.555 Y30.555 I0.1718 J0.5888
G02 X3.394 Y30.749 I0.4028 J0.4970
G02 X3.318 Y31.000 I0.5869 J0.3152
G02 X3.345 Y31.271 I0.6893 J0.0666
G02 X3.480 Y31.520 I0.6868 J-0.2124
G02 X3.709 Y31.703 I0.5720 J-0.4777
G02 X4.000 Y31.788 I0.3557 J-0.6847
G02 X4.311 Y31.752 I0.0666 J-0.7951
G02 X4.594 Y31.594 I-0.2529 J-0.7845
G02 X4.800 Y31.331 I-0.5525 J-0.6467
G02 X4.893 Y31.000 I-0.7823 J-0.3961
G02 X4.849 Y30.648 I-0.9008 J-0.0666
G02 X4.668 Y30.332 I-0.8820 J0.2933
G02 X4.372 Y30.103 I-0.7213 J0.6272
G02 X4.000 Y30.003 I-0.4365 J0.8798
G02 X3.608 Y30.054 I-0.0666 J1.0063
G02 X3.258 Y30.258 I0.3337 J0.9795
G02 X3.006 Y30.588 I0.7018 J0.7959
G02 X2.900 Y31.000 I0.9792 J0.4707
G02 X2.984 Y31.421 I1.1000 J0.0000
G02 X3.222 Y31.778 I1.0163 J-0.4210
G02 X3.579 Y32.016 I0.7778 J-0.7778
G02 X4.000 Y32.100 I0.4210 J-1.0163
G02 X4.421 Y32.016 I0.0000 J-1.1000
G02 X4.778 Y31.778 I-0.4210 J-1.0163
G02 X5.016 Y31.421 I-0.7778 J-0.7778
G02 X5.100 Y31.000 I-1.0163 J-0.4210
G02 X3.450 Y30.047 I-1.1000 J0.0000
G02 Y31.953 I0.5500 J0.9526
G02 X5.100 Y31.000 I0.5500 J-0.9526
G02 X3.528 I-0.7863 J0.0000
G02 X4.473 I0.4725 J0.0000
G02 X3.764 Y30.591 Z-1.733 I-0.4725 J0.0000 F120
G02 Y31.409 Z-1.867 I0.2363 J0.4092
G02 X4.473 Y31.000 Z-2.000 I0.2363 J-0.4092
G02 X3.764 Y30.591 I-0.4725 J0.0000
G02 Y31.409 I0.2363 J0.4092
G02 X4.473 Y31.000 I0.2363 J-0.4092
G02 X4.461 Y30.809 I-0.4767 J-0.0665 F400
G02 X4.371 Y30.629 I-0.4905 J0.1311
G02 X4.211 Y30.491 I-0.4219 J0.3277
G02 X4.000 Y30.423 I-0.2745 J0.4888
G02 X3.769 Y30.442 I-0.0666 J0.5832
G02 X3.555 Y30.555 I0.1718 J0.5888
G02 X3.394 Y30.749 I0.4028 J0.4970
G02 X3.318 Y31.000 I0.5869 J0.3152
G02 X3.345 Y31.271 I0.6893 J0.0666
G02 X3.480 Y31.520 I0.6868 J-0.2124
G02 X3.709 Y31.703 I0.5720 J-0.4777
G02 X4.000 Y31.788 I0.3557 J-0.6847
G02 X4.311 Y31.752 I0.0666 J-0.7951
G02 X4.594 Y31.594 I-0.2529 J-0.7845
G02 X4.800 Y31.331 I-0.5525 J-0.6467
G02 X4.893 Y31.000 I-0.7823 J-0.3961
G02 X4.849 Y30.648 I-0.9008 J-0.0666
G02 X4.668 Y30.332 I-0.8820 J0.2933
G02 X4.372 Y30.103 I-0.7213 J0.6272
G02 X4.000 Y30.003 I-0.4365 J0.8798
G02 X3.608 Y30.054 I-0.0666 J1.0063
G02 X3.258 Y30.258 I0.3337 J0.9795
G02 X3.006 Y30.588 I0.7018 J0.7959
G02 X2.900 Y31.000 I0.9792 J0.4707
G02 X2.984 Y31.421 I1.1000 J0.0000
G02 X3.222 Y31.778 I1.0163 J-0.4210
G02 X3.579 Y32.016 I0.7778 J-0.7778
G02 X4.000 Y32.100 I0.4210 J-1.0163
G02 X4.421 Y32.016 I0.0000 J-1.1000
G02 X4.778 Y31.778 I-0.4210 J-1.0163
G02 X5.016 Y31.421 I-0.7778 J-0.7778
G02 X5.100 Y31.000 I-1.0163 J-0.4210
G02 X3.450 Y30.047 I-1.1000 J0.0000
G02 Y31.953 I0.5500 J0.9526
G02 X5.100 Y31.000 I0.5500 J-0.9526
G02 X3.528 I-0.7863 J0.0000
G02 X4.473 I0.4725 J0.0000
G02 X3.764 Y30.591 Z-2.133 I-0.4725 J0.0000 F120
G02 Y31.409 Z-2.267 I0.2363 J0.4092
G02 X4.473 Y31.000 Z-2.400 I0.2363 J-0.4092
G02 X3.764 Y30.591 I-0.4725 J0.0000
G02 Y31.409 I0.2363 J0.4092
G02 X4.473 Y31.000 I0.2363 J-0.4092
G02 X4.461 Y30.809 I-0.4767 J-0.0665 F400
G02 X4.371 Y30.629 I-0.4905 J0.1311
G02 X4.211 Y30.491 I-0.4219 J0.3277
G02 X4.000 Y30.423 I-0.2745 J0.4888
G02 X3.769 Y30.442 I-0.0666 J0.5832
G02 X3.555 Y30.555 I0.1718 J0.5888
G02 X3.394 Y30.749 I0.4028 J0.4970
G02 X3.318 Y31.000 I0.5869 J0.3152
G02 X3.345 Y31.271 I0.6893 J0.0666
G02 X3.480 Y31.520 I0.6868 J-0.2124
G02 X3.709 Y31.703 I0.5720 J-0.4777
G02 X4.000 Y31.788 I0.3557 J-0.6847
G02 X4.311 Y31.752 I0.0666 J-0.7951
G02 X4.594 Y31.594 I-0.2529 J-0.7845
G02 X4.800 Y31.331 I-0.5525 J-0.6467
G02 X4.893 Y31.000 I-0.7823 J-0.3961
G02 X4.849 Y30.648 I-0.9008 J-0.0666
G02 X4.668 Y30.332 I-0.8820 J0.2933
G02 X4.372 Y30.103 I-0.7213 J0.6272
G02 X4.000 Y30.003 I-0.4365 J0.8798
G02 X3.608 Y30.054 I-0.0666 J1.0063
G02 X3.258 Y30.258 I0.3337 J0.9795
G02 X3.006 Y30.588 I0.7018 J0.7959
G02 X2.900 Y31.000 I0.9792 J0.4707
G02 X2.984 Y31.421 I1.1000 J0.0000
G02 X3.222 Y31.778 I1.0163 J-0.4210
G02 X3.579 Y32.016 I0.7778 J-0.7778
G02 X4.000 Y32.100 I0.4210 J-1.0163
G02 X4.421 Y32.016 I0.0000 J-1.1000
G02 X4.778 Y31.778 I-0.4210 J-1.0163
G02 X5.016 Y31.421 I-0.7778 J-0.7778
G02 X5.100 Y31.000 I-1.0163 J-0.4210
G02 X3.450 Y30.047 I-1.1000 J0.0000
G02 Y31.953 I0.5500 J0.9526
G02 X5.100 Y31.000 I0.5500 J-0.9526
G02 X3.528 I-0.7863 J0.0000
G02 X4.473 I0.4725 J0.0000
G02 X3.764 Y30.591 Z-2.533 I-0.4725 J0.0000 F120
G02 Y31.409 Z-2.667 I0.2363 J0.4092
G02 X4.473 Y31.000 Z-2.800 I0.2363 J-0.4092
G02 X3.764 Y30.591 I-0.4725 J0.0000
G02 Y31.409 I0.2363 J0.4092
G02 X4.473 Y31.000 I0.2363 J-0.4092
G02 X4.461 Y30.809 I-0.4767 J-0.0665 F400
G02 X4.371 Y30.629 I-0.4905 J0.1311
G02 X4.211 Y30.491 I-0.4219 J0.3277
G02 X4.000 Y30.423 I-0.2745 J0.4888
G02 X3.769 Y30.442 I-0.0666 J0.5832
G02 X3.555 Y30.555 I0.1718 J0.5888
G02 X3.394 Y30.749 I0.4028 J0.4970
G02 X3.318 Y31.000 I0.5869 J0.3152
G02 X3.345 Y31.271 I0.6893 J0.0666
G02 X3.480 Y31.520 I0.6868 J-0.2124
G02 X3.709 Y31.703 I0.5720 J-0.4777
G02 X4.000 Y31.788 I0.3557 J-0.6847
G02 X4.311 Y31.752 I0.0666 J-0.7951
G02 X4.594 Y31.594 I-0.2529 J-0.7845
G02 X4.800 Y31.331 I-0.5525 J-0.6467
G02 X4.893 Y31.000 I-0.7823 J-0.3961
G02 X4.849 Y30.648 I-0.9008 J-0.0666
G02 X4.668 Y30.332 I-0.8820 J0.2933
G02 X4.372 Y30.103 I-0.7213 J0.6272
G02 X4.000 Y30.003 I-0.4365 J0.8798
G02 X3.608 Y30.054 I-0.0666 J1.0063
G02 X3.258 Y30.258 I0.3337 J0.9795
G02 X3.006 Y30.588 I0.7018 J0.7959
G02 X2.900 Y31.000 I0.9792 J0.4707
G02 X2.984 Y31.421 I1.1000 J0.0000
G02 X3.222 Y31.778 I1.0163 J-0.4210
G02 X3.579 Y32.016 I0.7778 J-0.7778
G02 X4.000 Y32.100 I0.4210 J-1.0163
G02 X4.421 Y32.016 I0.0000 J-1.1000
G02 X4.778 Y31.778 I-0.4210 J-1.0163
G02 X5.016 Y31.421 I-0.7778 J-0.7778
G02 X5.100 Y31.000 I-1.0163 J-0.4210
G02 X3.450 Y30.047 I-1.1000 J0.0000
G02 Y31.953 I0.5500 J0.9526
G02 X5.100 Y31.000 I0.5500 J-0.9526
G02 X3.528 I-0.7863 J0.0000
G02 X4.473 I0.4725 J0.0000
G02 X3.764 Y30.591 Z-2.933 I-0.4725 J0.0000 F120
G02 Y31.409 Z-3.067 I0.2363 J0.4092
G02 X4.473 Y31.000 Z-3.200 I0.2363 J-0.4092
G02 X3.764 Y30.591 I-0.4725 J0.0000
G02 Y31.409 I0.2363 J0.4092
G02 X4.473 Y31.000 I0.2363 J-0.4092
G02 X4.461 Y30.809 I-0.4767 J-0.0665 F400
G02 X4.371 Y30.629 I-0.4905 J0.1311
G02 X4.211 Y30.491 I-0.4219 J0.3277
G02 X4.000 Y30.423 I-0.2745 J0.4888
G02 X3.769 Y30.442 I-0.0666 J0.5832
G02 X3.555 Y30.555 I0.1718 J0.5888
G02 X3.394 Y30.749 I0.4028 J0.4970
G02 X3.318 Y31.000 I0.5869 J0.3152
G02 X3.345 Y31.271 I0.6893 J0.0666
G02 X3.480 Y31.520 I0.6868 J-0.2124
G02 X3.709 Y31.703 I0.5720 J-0.4777
G02 X4.000 Y31.788 I0.3557 J-0.6847
G02 X4.311 Y31.752 I0.0666 J-0.7951
G02 X4.594 Y31.594 I-0.2529 J-0.7845
G02 X4.800 Y31.331 I-0.5525 J-0.6467
G02 X4.893 Y31.000 I-0.7823 J-0.3961
G02 X4.849 Y30.648 I-0.9008 J-0.0666
G02 X4.668 Y30.332 I-0.8820 J0.2933
G02 X4.372 Y30.103 I-0.7213 J0.6272
G02 X4.000 Y30.003 I-0.4365 J0.8798
G02 X3.608 Y30.054 I-0.0666 J1.0063
G02 X3.258 Y30.258 I0.3337 J0.9795
G02 X3.006 Y30.588 I0.7018 J0.7959
G02 X2.900 Y31.000 I0.9792 J0.4707
G02 X2.984 Y31.421 I1.1000 J0.0000
G02 X3.222 Y31.778 I1.0163 J-0.4210
G02 X3.579 Y32.016 I0.7778 J-0.7778
G02 X4.000 Y32.100 I0.4210 J-1.0163
G02 X4.421 Y32.016 I0.0000 J-1.1000
G02 X4.778 Y31.778 I-0.4210 J-1.0163
G02 X5.016 Y31.421 I-0.7778 J-0.7778
G02 X5.100 Y31.000 I-1.0163 J-0.4210
G02 X3.450 Y30.047 I-1.1000 J0.0000
G02 Y31.953 I0.5500 J0.9526
G02 X5.100 Y31.000 I0.5500 J-0.9526
G02 X3.528 I-0.7863 J0.0000
G02 X4.473 I0.4725 J0.0000
G02 X3.764 Y30.591 Z-3.300 I-0.4725 J0.0000 F120
G02 Y31.409 Z-3.400 I0.2363 J0.4092
G02 X4.473 Y31.000 Z-3.500 I0.2363 J-0.4092
G02 X3.764 Y30.591 I-0.4725 J0.0000
G02 Y31.409 I0.2363 J0.4092
G02 X4.473 Y31.000 I0.2363 J-0.4092
G02 X4.461 Y30.809 I-0.4767 J-0.0665 F400
G02 X4.371 Y30.629 I-0.4905 J0.1311
G02 X4.211 Y30.491 I-0.4219 J0.3277
G02 X4.000 Y30.423 I-0.2745 J0.4888
G02 X3.769 Y30.442 I-0.0666 J0.5832
G02 X3.555 Y30.555 I0.1718 J0.5888
G02 X3.394 Y30.749 I0.4028 J0.4970
G02 X3.318 Y31.000 I0.5869 J0.3152
G02 X3.345 Y31.271 I0.6893 J0.0666
G02 X3.480 Y31.520 I0.6868 J-0.2124
G02 X3.709 Y31.703 I0.5720 J-0.4777
G02 X4.000 Y31.788 I0.3557 J-0.6847
G02 X4.311 Y31.752 I0.0666 J-0.7951
G02 X4.594 Y31.594 I-0.2529 J-0.7845
G02 X4.800 Y31.331 I-0.5525 J-0.6467
G02 X4.893 Y31.000 I-0.7823 J-0.3961
G02 X4.849 Y30.648 I-0.9008 J-0.0666
G02 X4.668 Y30.332 I-0.8820 J0.2933
G02 X4.372 Y30.103 I-0.7213 J0.6272
G02 X4.000 Y30.003 I-0.4365 J0.8798
G02 X3.608 Y30.054 I-0.0666 J1.0063
G02 X3.258 Y30.258 I0.3337 J0.9795
G02 X3.006 Y30.588 I0.7018 J0.7959
G02 X2.900 Y31.000 I0.9792 J0.4707
G02 X2.984 Y31.421 I1.1000 J0.0000
G02 X3.222 Y31.778 I1.0163 J-0.4210
G02 X3.579 Y32.016 I0.7778 J-0.7778
G02 X4.000 Y32.100 I0.4210 J-1.0163
G02 X4.421 Y32.016 I0.0000 J-1.1000
G02 X4.778 Y31.778 I-0.4210 J-1.0163
G02 X5.016 Y31.421 I-0.7778 J-0.7778
G02 X5.100 Y31.000 I-1.0163 J-0.4210
G02 X3.450 Y30.047 I-1.1000 J0.0000
G02 Y31.953 I0.5500 J0.9526
G02 X5.100 Y31.000 I0.5500 J-0.9526
G02 X4.575 Y30.475 Z-3.000 I-0.5250 J0.0000 F120
G00 Z20.000


(No. 5 Helical drill: Helical drill 2)
G00 X33.972 Y31.000 Z20.000
G00 Z0.500
G02 X33.264 Y30.591 Z0.367 I-0.4725 J0.0000 F120
G02 Y31.409 Z0.233 I0.2362 J0.4092
G02 X33.972 Y31.000 Z0.100 I0.2362 J-0.4092
G02 X33.264 Y30.591 Z0.067 I-0.4725 J0.0000
G02 Y31.409 Z0.033 I0.2362 J0.4092
G02 X33.972 Y31.000 Z0.000 I0.2362 J-0.4092
G02 X33.264 Y30.591 I-0.4725 J0.0000
G02 Y31.409 I0.2362 J0.4092
G02 X33.972 Y31.000 I0.2362 J-0.4092
G02 X33.264 Y30.591 Z-0.133 I-0.4725 J0.0000
G02 Y31.409 Z-0.267 I0.2362 J0.4092
G02 X33.972 Y31.000 Z-0.400 I0.2362 J-0.4092
G02 X33.264 Y30.591 I-0.4725 J0.0000
G02 Y31.409 I0.2362 J0.4092
G02 X33.972 Y31.000 I0.2362 J-0.4092
G02 X33.961 Y30.809 I-0.4767 J-0.0665 F400
G02 X33.871 Y30.629 I-0.4905 J0.1311
G02 X33.711 Y30.491 I-0.4219 J0.3277
G02 X33.500 Y30.422 I-0.2745 J0.4888
G02 X33.269 Y30.442 I-0.0666 J0.5832
G02 X33.055 Y30.555 I0.1718 J0.5888
G02 X32.894 Y30.749 I0.4028 J0.4970
G02 X32.817 Y31.000 I0.5869 J0.3152
G02 X32.845 Y31.271 I0.6893 J0.0666
G02 X32.980 Y31.520 I0.6868 J-0.2124
G02 X33.209 Y31.703 I0.5720 J-0.4777
G02 X33.500 Y31.787 I0.3557 J-0.6847
G02 X33.811 Y31.752 I0.0666 J-0.7951
G02 X34.094 Y31.594 I-0.2529 J-0.7845
G02 X34.300 Y31.331 I-0.5525 J-0.6467
G02 X34.392 Y31.000 I-0.7823 J-0.3961
G02 X34.349 Y30.648 I-0.9008 J-0.0666
G02 X34.168 Y30.332 I-0.8820 J0.2933
G02 X33.872 Y30.103 I-0.7213 J0.6272
G02 X33.500 Y30.002 I-0.4365 J0.8798
G02 X33.108 Y30.054 I-0.0666 J1.0063
G02 X32.758 Y30.258 I0.3337 J0.9795
G02 X32.506 Y30.588 I0.7018 J0.7959
G02 X32.400 Y31.000 I0.9792 J0.4707
G02 X32.484 Y31.421 I1.1000 J0.0000
G02 X32.722 Y31.778 I1.0163 J-0.4210
G02 X33.079 Y32.016 I0.7778 J-0.7778
G02 X33.500 Y32.100 I0.4210 J-1.0163
G02 X33.921 Y32.016 I0.0000 J-1.1000
G02 X34.278 Y31.778 I-0.4210 J-1.0163
G02 X34.516 Y31.421 I-0.7778 J-0.7778
G02 X34.600 Y31.000 I-1.0163 J-0.4210
G02 X32.950 Y30.047 I-1.1000 J0.0000
G02 Y31.953 I0.5500 J0.9526
G02 X34.600 Y31.000 I0.5500 J-0.9526
G02 X33.027 I-0.7862 J0.0000
G02 X33.972 I0.4725 J0.0000
G02 X33.264 Y30.591 Z-0.533 I-0.4725 J0.0000 F120
G02 Y31.409 Z-0.667 I0.2362 J0.4092
G02 X33.972 Y31.000 Z-0.800 I0.2362 J-0.4092
G02 X33.264 Y30.591 I-0.4725 J0.0000
G02 Y31.409 I0.2362 J0.4092
G02 X33.972 Y31.000 I0.2362 J-0.4092
G02 X33.961 Y30.809 I-0.4767 J-0.0665 F400
G02 X33.871 Y30.629 I-0.4905 J0.1311
G02 X33.711 Y30.491 I-0.4219 J0.3277
G02 X33.500 Y30.422 I-0.2745 J0.4888
G02 X33.269 Y30.442 I-0.0666 J0.5832
G02 X33.055 Y30.555 I0.1718 J0.5888
G02 X32.894 Y30.749 I0.4028 J0.4970
G02 X32.817 Y31.000 I0.5869 J0.3152
G02 X32.845 Y31.271 I0.6893 J0.0666
G02 X32.980 Y31.520 I0.6868 J-0.2124
G02 X33.209 Y31.703 I0.5720 J-0.4777
G02 X33.500 Y31.787 I0.3557 J-0.6847
G02 X33.811 Y31.752 I0.0666 J-0.7951
G02 X34.094 Y31.594 I-0.2529 J-0.7845
G02 X34.300 Y31.331 I-0.5525 J-0.6467
G02 X34.392 Y31.000 I-0.7823 J-0.3961
G02 X34.349 Y30.648 I-0.9008 J-0.0666
G02 X34.168 Y30.332 I-0.8820 J0.2933
G02 X33.872 Y30.103 I-0.7213 J0.6272
G02 X33.500 Y30.002 I-0.4365 J0.8798
G02 X33.108 Y30.054 I-0.0666 J1.0063
G02 X32.758 Y30.258 I0.3337 J0.9795
G02 X32.506 Y30.588 I0.7018 J0.7959
G02 X32.400 Y31.000 I0.9792 J0.4707
G02 X32.484 Y31.421 I1.1000 J0.0000
G02 X32.722 Y31.778 I1.0163 J-0.4210
G02 X33.079 Y32.016 I0.7778 J-0.7778
G02 X33.500 Y32.100 I0.4210 J-1.0163
G02 X33.921 Y32.016 I0.0000 J-1.1000
G02 X34.278 Y31.778 I-0.4210 J-1.0163
G02 X34.516 Y31.421 I-0.7778 J-0.7778
G02 X34.600 Y31.000 I-1.0163 J-0.4210
G02 X32.950 Y30.047 I-1.1000 J0.0000
G02 Y31.953 I0.5500 J0.9526
G02 X34.600 Y31.000 I0.5500 J-0.9526
G02 X33.027 I-0.7862 J0.0000
G02 X33.972 I0.4725 J0.0000
G02 X33.264 Y30.591 Z-0.933 I-0.4725 J0.0000 F120
G02 Y31.409 Z-1.067 I0.2362 J0.4092
G02 X33.972 Y31.000 Z-1.200 I0.2362 J-0.4092
G02 X33.264 Y30.591 I-0.4725 J0.0000
G02 Y31.409 I0.2362 J0.4092
G02 X33.972 Y31.000 I0.2362 J-0.4092
G02 X33.961 Y30.809 I-0.4767 J-0.0665 F400
G02 X33.871 Y30.629 I-0.4905 J0.1311
G02 X33.711 Y30.491 I-0.4219 J0.3277
G02 X33.500 Y30.422 I-0.2745 J0.4888
G02 X33.269 Y30.442 I-0.0666 J0.5832
G02 X33.055 Y30.555 I0.1718 J0.5888
G02 X32.894 Y30.749 I0.4028 J0.4970
G02 X32.817 Y31.000 I0.5869 J0.3152
G02 X32.845 Y31.271 I0.6893 J0.0666
G02 X32.980 Y31.520 I0.6868 J-0.2124
G02 X33.209 Y31.703 I0.5720 J-0.4777
G02 X33.500 Y31.787 I0.3557 J-0.6847
G02 X33.811 Y31.752 I0.0666 J-0.7951
G02 X34.094 Y31.594 I-0.2529 J-0.7845
G02 X34.300 Y31.331 I-0.5525 J-0.6467
G02 X34.392 Y31.000 I-0.7823 J-0.3961
G02 X34.349 Y30.648 I-0.9008 J-0.0666
G02 X34.168 Y30.332 I-0.8820 J0.2933
G02 X33.872 Y30.103 I-0.7213 J0.6272
G02 X33.500 Y30.002 I-0.4365 J0.8798
G02 X33.108 Y30.054 I-0.0666 J1.0063
G02 X32.758 Y30.258 I0.3337 J0.9795
G02 X32.506 Y30.588 I0.7018 J0.7959
G02 X32.400 Y31.000 I0.9792 J0.4707
G02 X32.484 Y31.421 I1.1000 J0.0000
G02 X32.722 Y31.778 I1.0163 J-0.4210
G02 X33.079 Y32.016 I0.7778 J-0.7778
G02 X33.500 Y32.100 I0.4210 J-1.0163
G02 X33.921 Y32.016 I0.0000 J-1.1000
G02 X34.278 Y31.778 I-0.4210 J-1.0163
G02 X34.516 Y31.421 I-0.7778 J-0.7778
G02 X34.600 Y31.000 I-1.0163 J-0.4210
G02 X32.950 Y30.047 I-1.1000 J0.0000
G02 Y31.953 I0.5500 J0.9526
G02 X34.600 Y31.000 I0.5500 J-0.9526
G02 X33.027 I-0.7862 J0.0000
G02 X33.972 I0.4725 J0.0000
G02 X33.264 Y30.591 Z-1.333 I-0.4725 J0.0000 F120
G02 Y31.409 Z-1.467 I0.2362 J0.4092
G02 X33.972 Y31.000 Z-1.600 I0.2362 J-0.4092
G02 X33.264 Y30.591 I-0.4725 J0.0000
G02 Y31.409 I0.2362 J0.4092
G02 X33.972 Y31.000 I0.2362 J-0.4092
G02 X33.961 Y30.809 I-0.4767 J-0.0665 F400
G02 X33.871 Y30.629 I-0.4905 J0.1311
G02 X33.711 Y30.491 I-0.4219 J0.3277
G02 X33.500 Y30.422 I-0.2745 J0.4888
G02 X33.269 Y30.442 I-0.0666 J0.5832
G02 X33.055 Y30.555 I0.1718 J0.5888
G02 X32.894 Y30.749 I0.4028 J0.4970
G02 X32.817 Y31.000 I0.5869 J0.3152
G02 X32.845 Y31.271 I0.6893 J0.0666
G02 X32.980 Y31.520 I0.6868 J-0.2124
G02 X33.209 Y31.703 I0.5720 J-0.4777
G02 X33.500 Y31.787 I0.3557 J-0.6847
G02 X33.811 Y31.752 I0.0666 J-0.7951
G02 X34.094 Y31.594 I-0.2529 J-0.7845
G02 X34.300 Y31.331 I-0.5525 J-0.6467
G02 X34.392 Y31.000 I-0.7823 J-0.3961
G02 X34.349 Y30.648 I-0.9008 J-0.0666
G02 X34.168 Y30.332 I-0.8820 J0.2933
G02 X33.872 Y30.103 I-0.7213 J0.6272
G02 X33.500 Y30.002 I-0.4365 J0.8798
G02 X33.108 Y30.054 I-0.0666 J1.0063
G02 X32.758 Y30.258 I0.3337 J0.9795
G02 X32.506 Y30.588 I0.7018 J0.7959
G02 X32.400 Y31.000 I0.9792 J0.4707
G02 X32.484 Y31.421 I1.1000 J0.0000
G02 X32.722 Y31.778 I1.0163 J-0.4210
G02 X33.079 Y32.016 I0.7778 J-0.7778
G02 X33.500 Y32.100 I0.4210 J-1.0163
G02 X33.921 Y32.016 I0.0000 J-1.1000
G02 X34.278 Y31.778 I-0.4210 J-1.0163
G02 X34.516 Y31.421 I-0.7778 J-0.7778
G02 X34.600 Y31.000 I-1.0163 J-0.4210
G02 X32.950 Y30.047 I-1.1000 J0.0000
G02 Y31.953 I0.5500 J0.9526
G02 X34.600 Y31.000 I0.5500 J-0.9526
G02 X33.027 I-0.7862 J0.0000
G02 X33.972 I0.4725 J0.0000
G02 X33.264 Y30.591 Z-1.733 I-0.4725 J0.0000 F120
G02 Y31.409 Z-1.867 I0.2362 J0.4092
G02 X33.972 Y31.000 Z-2.000 I0.2362 J-0.4092
G02 X33.264 Y30.591 I-0.4725 J0.0000
G02 Y31.409 I0.2362 J0.4092
G02 X33.972 Y31.000 I0.2362 J-0.4092
G02 X33.961 Y30.809 I-0.4767 J-0.0665 F400
G02 X33.871 Y30.629 I-0.4905 J0.1311
G02 X33.711 Y30.491 I-0.4219 J0.3277
G02 X33.500 Y30.422 I-0.2745 J0.4888
G02 X33.269 Y30.442 I-0.0666 J0.5832
G02 X33.055 Y30.555 I0.1718 J0.5888
G02 X32.894 Y30.749 I0.4028 J0.4970
G02 X32.817 Y31.000 I0.5869 J0.3152
G02 X32.845 Y31.271 I0.6893 J0.0666
G02 X32.980 Y31.520 I0.6868 J-0.2124
G02 X33.209 Y31.703 I0.5720 J-0.4777
G02 X33.500 Y31.787 I0.3557 J-0.6847
G02 X33.811 Y31.752 I0.0666 J-0.7951
G02 X34.094 Y31.594 I-0.2529 J-0.7845
G02 X34.300 Y31.331 I-0.5525 J-0.6467
G02 X34.392 Y31.000 I-0.7823 J-0.3961
G02 X34.349 Y30.648 I-0.9008 J-0.0666
G02 X34.168 Y30.332 I-0.8820 J0.2933
G02 X33.872 Y30.103 I-0.7213 J0.6272
G02 X33.500 Y30.002 I-0.4365 J0.8798
G02 X33.108 Y30.054 I-0.0666 J1.0063
G02 X32.758 Y30.258 I0.3337 J0.9795
G02 X32.506 Y30.588 I0.7018 J0.7959
G02 X32.400 Y31.000 I0.9792 J0.4707
G02 X32.484 Y31.421 I1.1000 J0.0000
G02 X32.722 Y31.778 I1.0163 J-0.4210
G02 X33.079 Y32.016 I0.7778 J-0.7778
G02 X33.500 Y32.100 I0.4210 J-1.0163
G02 X33.921 Y32.016 I0.0000 J-1.1000
G02 X34.278 Y31.778 I-0.4210 J-1.0163
G02 X34.516 Y31.421 I-0.7778 J-0.7778
G02 X34.600 Y31.000 I-1.0163 J-0.4210
G02 X32.950 Y30.047 I-1.1000 J0.0000
G02 Y31.953 I0.5500 J0.9526
G02 X34.600 Y31.000 I0.5500 J-0.9526
G02 X33.027 I-0.7862 J0.0000
G02 X33.972 I0.4725 J0.0000
G02 X33.264 Y30.591 Z-2.133 I-0.4725 J0.0000 F120
G02 Y31.409 Z-2.267 I0.2362 J0.4092
G02 X33.972 Y31.000 Z-2.400 I0.2362 J-0.4092
G02 X33.264 Y30.591 I-0.4725 J0.0000
G02 Y31.409 I0.2362 J0.4092
G02 X33.972 Y31.000 I0.2362 J-0.4092
G02 X33.961 Y30.809 I-0.4767 J-0.0665 F400
G02 X33.871 Y30.629 I-0.4905 J0.1311
G02 X33.711 Y30.491 I-0.4219 J0.3277
G02 X33.500 Y30.422 I-0.2745 J0.4888
G02 X33.269 Y30.442 I-0.0666 J0.5832
G02 X33.055 Y30.555 I0.1718 J0.5888
G02 X32.894 Y30.749 I0.4028 J0.4970
G02 X32.817 Y31.000 I0.5869 J0.3152
G02 X32.845 Y31.271 I0.6893 J0.0666
G02 X32.980 Y31.520 I0.6868 J-0.2124
G02 X33.209 Y31.703 I0.5720 J-0.4777
G02 X33.500 Y31.787 I0.3557 J-0.6847
G02 X33.811 Y31.752 I0.0666 J-0.7951
G02 X34.094 Y31.594 I-0.2529 J-0.7845
G02 X34.300 Y31.331 I-0.5525 J-0.6467
G02 X34.392 Y31.000 I-0.7823 J-0.3961
G02 X34.349 Y30.648 I-0.9008 J-0.0666
G02 X34.168 Y30.332 I-0.8820 J0.2933
G02 X33.872 Y30.103 I-0.7213 J0.6272
G02 X33.500 Y30.002 I-0.4365 J0.8798
G02 X33.108 Y30.054 I-0.0666 J1.0063
G02 X32.758 Y30.258 I0.3337 J0.9795
G02 X32.506 Y30.588 I0.7018 J0.7959
G02 X32.400 Y31.000 I0.9792 J0.4707
G02 X32.484 Y31.421 I1.1000 J0.0000
G02 X32.722 Y31.778 I1.0163 J-0.4210
G02 X33.079 Y32.016 I0.7778 J-0.7778
G02 X33.500 Y32.100 I0.4210 J-1.0163
G02 X33.921 Y32.016 I0.0000 J-1.1000
G02 X34.278 Y31.778 I-0.4210 J-1.0163
G02 X34.516 Y31.421 I-0.7778 J-0.7778
G02 X34.600 Y31.000 I-1.0163 J-0.4210
G02 X32.950 Y30.047 I-1.1000 J0.0000
G02 Y31.953 I0.5500 J0.9526
G02 X34.600 Y31.000 I0.5500 J-0.9526
G02 X33.027 I-0.7862 J0.0000
G02 X33.972 I0.4725 J0.0000
G02 X33.264 Y30.591 Z-2.533 I-0.4725 J0.0000 F120
G02 Y31.409 Z-2.667 I0.2362 J0.4092
G02 X33.972 Y31.000 Z-2.800 I0.2362 J-0.4092
G02 X33.264 Y30.591 I-0.4725 J0.0000
G02 Y31.409 I0.2362 J0.4092
G02 X33.972 Y31.000 I0.2362 J-0.4092
G02 X33.961 Y30.809 I-0.4767 J-0.0665 F400
G02 X33.871 Y30.629 I-0.4905 J0.1311
G02 X33.711 Y30.491 I-0.4219 J0.3277
G02 X33.500 Y30.422 I-0.2745 J0.4888
G02 X33.269 Y30.442 I-0.0666 J0.5832
G02 X33.055 Y30.555 I0.1718 J0.5888
G02 X32.894 Y30.749 I0.4028 J0.4970
G02 X32.817 Y31.000 I0.5869 J0.3152
G02 X32.845 Y31.271 I0.6893 J0.0666
G02 X32.980 Y31.520 I0.6868 J-0.2124
G02 X33.209 Y31.703 I0.5720 J-0.4777
G02 X33.500 Y31.787 I0.3557 J-0.6847
G02 X33.811 Y31.752 I0.0666 J-0.7951
G02 X34.094 Y31.594 I-0.2529 J-0.7845
G02 X34.300 Y31.331 I-0.5525 J-0.6467
G02 X34.392 Y31.000 I-0.7823 J-0.3961
G02 X34.349 Y30.648 I-0.9008 J-0.0666
G02 X34.168 Y30.332 I-0.8820 J0.2933
G02 X33.872 Y30.103 I-0.7213 J0.6272
G02 X33.500 Y30.002 I-0.4365 J0.8798
G02 X33.108 Y30.054 I-0.0666 J1.0063
G02 X32.758 Y30.258 I0.3337 J0.9795
G02 X32.506 Y30.588 I0.7018 J0.7959
G02 X32.400 Y31.000 I0.9792 J0.4707
G02 X32.484 Y31.421 I1.1000 J0.0000
G02 X32.722 Y31.778 I1.0163 J-0.4210
G02 X33.079 Y32.016 I0.7778 J-0.7778
G02 X33.500 Y32.100 I0.4210 J-1.0163
G02 X33.921 Y32.016 I0.0000 J-1.1000
G02 X34.278 Y31.778 I-0.4210 J-1.0163
G02 X34.516 Y31.421 I-0.7778 J-0.7778
G02 X34.600 Y31.000 I-1.0163 J-0.4210
G02 X32.950 Y30.047 I-1.1000 J0.0000
