(Project nrf51822-holder)
(Created by Estlcam version 11 build 11.118)
(Machining time about 00:30:59 hours)

(Required tools:)
(End 1.000mm)
G21
G90
G94
M03 S24000.0
G00 Z20.000


(No. 1 Parallel pocket: Hole 1)
G00 X12.457 Y22.619
G00 Z0.500
G01 Z-0.400 F120 S24000.0
G01 X12.396 Y22.698 F400
G02 X13.804 Y23.763 I2.8831 J-2.3491
G01 X13.918 Y23.728
G03 X12.484 Y22.619 I4.1371 J-6.8342
G01 X12.457
G01 X12.096 Y22.352
G01 X12.088 Y22.364
G01 X11.982 Y22.487
G01 X11.929 Y22.689
G01 X11.868 Y22.813
G02 X13.742 Y24.247 I4.2309 J-3.5868
G03 X15.696 Y23.983 I1.6527 J4.8694
G03 X12.440 Y21.924 I1.8398 J-6.5128
G01 X12.413
G01 X12.096 Y22.352
G00 Z20.000
G00 X18.591 Y24.124
G00 Z0.500
G01 Z-0.400 F120
G01 Y24.141 F400
G03 X20.096 Y24.581 I-0.2476 J3.6399
G02 X23.897 Y21.405 I-2.6071 J-6.9829
G01 X23.757 Y20.859
G01 Y19.970
G03 X18.591 Y24.124 I-6.2970 J-2.5423
G00 Z20.000
G00 X12.493 Y12.939
G00 Z0.500
G01 Z-0.400 F120
G03 X19.189 Y11.012 I4.9769 J4.6952 F400
G02 X12.422 Y12.825 I-1.9336 J6.3193
G01 X12.493 Y12.939
G01 X12.131 Y13.205
G01 X12.149 Y13.229
G01 X12.431 Y13.731
G03 X23.662 Y16.383 I5.0283 J3.8143
G03 X12.387 Y21.141 I-6.1712 J1.1149
G01 X12.361
G03 X11.586 Y22.258 I-5.1701 J-2.7553
G01 X11.551 Y22.355
G01 X11.507 Y22.522
G01 X11.331 Y22.892
G02 X13.733 Y24.740 I5.1657 J-4.2299
G03 X15.793 Y24.441 I1.6525 J4.1371
G02 X17.689 Y24.558 I1.2232 J-4.3791
G03 X20.052 Y25.074 I0.3186 J4.2067
G02 X24.390 Y21.457 I-2.6153 J-7.5474
G01 X24.205 Y20.780
G01 Y19.266
G02 X11.894 Y12.728 I-6.9154 J-1.8386
G01 X11.929 Y12.930
G01 X12.131 Y13.205
G01 X11.761 Y13.465
G03 X12.369 Y14.673 I-4.9348 J3.2450
G03 X23.308 Y17.104 I5.1039 J2.8589
G03 X12.325 Y20.181 I-5.8134 J0.3885
G03 X11.164 Y22.065 I-6.4187 J-2.6594
G01 X11.085 Y22.355
G01 X10.838 Y22.883
G01 X10.794 Y22.989
G02 X13.742 Y25.241 I6.0390 J-4.8474
G03 X15.687 Y24.881 I1.6671 J3.5640
G02 X17.676 Y25.005 I1.3045 J-4.8851
G03 X19.990 Y25.567 I0.2990 J3.8164
G02 X24.883 Y21.510 I-2.5357 J-8.0372
G01 X24.654 Y20.701
G01 Y19.345
G02 X11.410 Y12.596 I-7.3649 J-1.9170
G01 X11.498 Y13.097
G01 X11.761 Y13.465
G01 X11.375 Y13.710
G03 X12.308 Y16.019 I-5.6853 J3.6403
G03 X22.650 Y19.015 I5.1740 J1.4886
G03 X12.299 Y18.861 I-5.1543 J-1.5212
G03 X10.750 Y21.853 I-6.9792 J-1.7159
G03 X10.231 Y23.006 I-2.9651 J-0.6421
G02 X13.769 Y25.743 I6.6860 J-4.9876
G03 X16.078 Y25.413 I1.5723 J2.7604
G02 X17.660 Y25.453 I0.9130 J-4.8898
G03 X19.911 Y26.060 I0.2792 J3.4389
G02 X25.402 Y21.484 I-2.3958 J-8.4577
G01 X25.297 Y21.290
G01 X25.103 Y20.621
G01 Y19.425
G02 X11.261 Y12.112 I-7.7957 J-2.0011
G01 X10.900 Y12.455
G01 X11.005 Y12.851
G01 X11.049 Y13.238
G01 X11.274 Y13.551
G01 X11.375 Y13.710
G01 X10.998 Y13.949
G03 X10.337 Y21.642 I-5.3599 J3.4138
G03 X9.668 Y22.997 I-2.8499 J-0.5638
G02 X13.848 Y26.245 I7.1436 J-4.8817
G03 X16.150 Y25.879 I1.5435 J2.2867
G02 X17.654 Y25.897 I0.8039 J-4.2654
G03 X19.832 Y26.561 I0.2723 J3.0104
G02 X25.904 Y21.466 I-2.3569 J-8.9743
G01 X25.719 Y21.123
G01 X25.552 Y20.542
G01 Y19.504
G02 X11.120 Y11.549 I-8.2681 J-2.0689
G03 X10.363 Y12.288 I-2.1289 J-1.4225
G01 X10.548 Y12.886
G01 X10.601 Y13.212
G01 X10.609 Y13.397
G01 X10.876 Y13.757
G01 X10.998 Y13.949
G01 X10.626 Y14.197
G01 X10.664 Y14.255
G03 X9.914 Y21.440 I-5.0537 J3.1041
G03 X9.113 Y22.892 I-2.3864 J-0.3693
G01 X9.087 Y22.945
G02 X13.901 Y26.755 I7.8996 J-5.0337
G03 X16.161 Y26.333 I1.5341 J1.9502
G02 X17.656 Y26.344 I0.7725 J-3.4767
G03 X19.691 Y27.063 I0.2471 J2.5404
G02 X26.414 Y21.475 I-2.2417 J-9.5356
G01 X26.141 Y20.956
G01 X26.001 Y20.463
G01 Y19.583
G02 X10.794 Y11.232 I-8.7181 J-2.1455
G03 X9.747 Y12.112 I-2.0195 J-1.3401
G03 X10.161 Y13.555 I-2.2359 J1.4216
G01 X10.425 Y13.896
G01 X10.626 Y14.197
G01 X10.238 Y14.427
G03 X9.483 Y21.246 I-4.6483 J2.9368
G03 X8.480 Y22.821 I-2.1582 J-0.2674
G02 X13.980 Y27.274 I8.6023 J-5.0023
G03 X16.085 Y26.773 I1.4799 J1.5424
G02 X17.377 Y26.843 I1.0062 J-6.5725
G03 X19.550 Y27.565 I0.5039 J2.1166
G02 X26.925 Y21.431 I-2.1130 J-10.0403
G01 Y21.387
G03 X26.449 Y20.384 I1.7184 J-1.4281
G01 Y19.662
G02 X10.442 Y10.950 I-9.1642 J-2.2236
G03 X8.929 Y11.857 I-1.6795 J-1.0876
G03 X9.712 Y13.722 I-1.4997 J1.7268
G01 X9.974 Y14.043
G01 X10.211 Y14.383
G01 X10.238 Y14.427
G01 X9.854 Y14.668
G03 X9.043 Y21.053 I-4.3046 J2.6965
G03 X8.577 Y22.126 I-1.4820 J-0.0057
G01 X7.899 Y22.733
G02 X14.103 Y27.793 I9.2214 J-4.9729
G03 X16.011 Y27.213 I1.3747 J1.0941
G02 X17.421 Y27.292 I1.1595 J-8.1272
G03 X19.357 Y28.075 I0.4490 J1.6744
G02 X27.409 Y21.440 I-1.9440 J-10.5624
G01 X27.453 Y21.273
G03 X26.898 Y20.296 I1.1005 J-1.2703
G01 Y19.741
G02 X10.081 Y10.677 I-9.6116 J-2.2996
G03 X8.330 Y11.355 I-1.3270 J-0.8278
G01 X8.040 Y11.795
G01 X8.005 Y11.857
G03 X9.237 Y13.863 I-0.5418 J1.7141
G01 X9.499 Y14.164
G01 X9.738 Y14.484
G01 X9.854 Y14.668
G01 X9.468 Y14.891
G03 X8.585 Y20.859 I-3.9268 J2.4687
G03 X8.348 Y21.721 I-1.2048 J0.1320
G01 X7.538 Y22.452
G01 X7.318 Y22.628
G02 X14.288 Y28.321 I9.8981 J-5.0038
G03 X16.005 Y27.659 I1.2341 J0.6416
G02 X17.473 Y27.741 I1.2789 J-9.7026
G03 X19.101 Y28.577 I0.3889 J1.2458
G02 X28.007 Y21.114 I-1.6948 J-11.0677
G03 X27.347 Y20.208 I0.5745 J-1.1118
G01 Y19.821
G02 X9.413 Y10.748 I-10.0598 J-2.3767
G03 X8.145 Y10.818 I-0.6959 J-1.0854
G01 X7.732 Y11.425
G01 X7.353 Y12.103
G01 X8.181 Y12.446
G03 X8.726 Y13.986 I-0.6431 J1.0945
G03 X9.462 Y14.880 I-3.1857 J3.3726
G01 X9.468 Y14.891
G01 X9.088 Y15.139
G01 X9.139 Y15.218
G03 X8.084 Y20.692 I-3.6181 J2.1410
G03 X7.978 Y21.457 I-0.7615 J0.2851
G01 X7.081 Y22.249
G01 X6.861 Y22.381
G01 X6.702 Y22.434
G02 X14.649 Y28.876 I10.5464 J-4.8880
G01 X14.701 Y28.568
G03 X15.485 Y28.031 I0.7431 J0.2444
G02 X18.050 Y28.169 I1.9060 J-11.5347
G03 X18.697 Y29.087 I-0.1342 J0.7813
G02 X28.579 Y20.824 I-1.2856 J-11.5786
G03 X27.796 Y20.129 I0.0456 J-0.8402
G01 Y19.900
G02 X9.177 Y10.358 I-10.4938 J-2.4596
G03 X8.066 Y10.167 I-0.4573 J-0.6687
G02 X6.737 Y12.332 I7.7722 J6.2610
G01 X6.773 Y12.349
G01 X7.943 Y12.833
G03 X8.145 Y14.074 I-0.3984 J0.7019
G03 X9.088 Y15.139 I-2.5437 J3.2009
G00 Z20.000
G00 X12.308 Y16.019
G00 Z0.100
G01 Z-0.400 F120
G01 X12.731 Y16.247 F400
G03 X20.961 Y13.994 I4.7654 J1.2494
G03 X18.797 Y22.248 I-3.4647 J3.5022
G03 X12.731 Y16.247 I-1.3007 J-4.7517
G01 X13.172 Y16.364
G03 X21.875 Y18.454 I4.3309 J1.1310
G03 X13.027 Y17.703 I-4.3746 J-0.9581
G01 X13.026 Y17.312
G01 X13.059 Y16.923
G01 X13.126 Y16.538
G01 X13.172 Y16.364
G01 X13.606 Y16.491
G03 X20.328 Y14.625 I3.8995 J1.0074
G03 X18.583 Y21.379 I-2.8222 J2.8734
G03 X13.606 Y16.491 I-1.0773 J-3.8808
G01 X14.049 Y16.590
G01 X14.059 Y16.547
G03 X20.887 Y18.685 I3.4510 J0.9501
G03 X13.951 Y17.851 I-3.3752 J-1.1873
G01 X13.933 Y17.491
G01 X13.947 Y17.173
G01 X13.989 Y16.857
G01 X14.049 Y16.590
G01 X14.485 Y16.716
G03 X20.513 Y18.376 I3.0269 J0.7816
G03 X14.386 Y17.680 I-3.0030 J-0.8804
G01 X14.383 Y17.392
G03 X14.475 Y16.754 I3.1108 J0.1184
G01 X14.485 Y16.716
G01 X14.904 Y16.864
G03 X18.391 Y14.960 I2.6117 J0.6387
G03 X16.612 Y20.018 I-0.8906 J2.5284
G03 X14.825 Y17.559 I0.8892 J-2.5261
G01 Y17.427
G01 X14.904 Y16.864
G00 Z20.000
G00 X14.921 Y16.817
G00 Z0.100
G01 Z-0.400 F120
G01 X15.134 Y16.894 F400
G01 X15.056 Y17.492
G01 Y17.508
G01 X15.137 Y18.125
G01 X15.141 Y18.140
G01 X15.379 Y18.716
G01 X15.387 Y18.729
G01 X15.766 Y19.223
G01 X15.777 Y19.234
G01 X16.271 Y19.613
G01 X16.284 Y19.621
G01 X16.860 Y19.859
G01 X16.875 Y19.863
G01 X17.492 Y19.944
G01 X17.508
G01 X18.125 Y19.863
G01 X18.140 Y19.859
G01 X18.716 Y19.621
G01 X18.729 Y19.613
G01 X19.223 Y19.234
G01 X19.234 Y19.223
G01 X19.613 Y18.729
G01 X19.621 Y18.716
G01 X19.859 Y18.140
G01 X19.863 Y18.125
G01 X19.944 Y17.508
G01 Y17.492
G01 X19.863 Y16.875
G01 X19.859 Y16.860
G01 X19.621 Y16.284
G01 X19.613 Y16.271
G01 X19.234 Y15.777
G01 X19.223 Y15.766
G01 X18.729 Y15.387
G01 X18.716 Y15.379
G01 X18.140 Y15.141
G01 X18.125 Y15.137
G01 X17.508 Y15.056
G01 X17.492
G01 X16.875 Y15.137
G01 X16.860 Y15.141
G01 X16.284 Y15.379
G01 X16.271 Y15.387
G01 X15.766 Y15.777
G01 X15.387 Y16.271
G01 X15.379 Y16.284
G01 X15.141 Y16.860
G01 X15.137 Y16.875
G01 X15.134 Y16.894
G00 Z20.000
G00 X9.714 Y17.085
G00 Z0.100
G01 Z-0.400 F120
G01 X9.486 Y17.093 F400
G01 X9.496 Y17.385
G01 Y17.455
G01 X9.480 Y17.747
G01 X9.473 Y17.817
G01 X9.430 Y18.105
G01 X9.417 Y18.175
G01 X9.348 Y18.458
G01 X9.329 Y18.526
G01 X9.233 Y18.801
G01 X9.208 Y18.867
G01 X9.088 Y19.133
G01 X9.057 Y19.196
G01 X8.913 Y19.450
G01 X8.876 Y19.510
G01 X8.709 Y19.749
G01 X8.667 Y19.806
G01 X8.479 Y20.029
G01 X8.432 Y20.081
G01 X8.224 Y20.286
G01 X8.172 Y20.334
G01 X7.946 Y20.519
G01 X7.890 Y20.562
G01 X7.798 Y20.624
G01 X7.790 Y20.650
G03 X7.707 Y21.413 I-0.4518 J0.3369
G01 X6.957 Y22.053
G03 X6.380 Y22.320 I-0.8711 J-1.1260
G01 X6.410 Y22.391
G02 X14.834 Y29.161 I10.8883 J-4.9212
G01 X14.909 Y28.706
G03 X15.522 Y28.275 I0.5381 J0.1136
G02 X17.927 Y28.393 I1.7145 J-10.3741
G03 X18.460 Y28.920 I-0.0165 J0.5498
G01 X18.478 Y29.352
G01 X18.577 Y29.345
G02 X28.874 Y20.653 I-1.1847 J-11.8494
G01 X28.424 Y20.550
G03 X28.020 Y20.020 I0.1464 J-0.5302
G01 X28.023 Y19.966
G01 X28.031 Y19.911
G02 X9.074 Y10.149 I-10.7171 J-2.4751
G03 X8.366 Y10.127 I-0.3407 J-0.4317
G01 X8.053 Y9.846
G01 X8.039 Y9.836
G02 X6.417 Y12.458 I8.8278 J7.2713
G01 X7.753 Y13.004
G03 X8.051 Y13.774 I-0.1901 J0.5166
G01 X7.849 Y14.163
G01 X7.854 Y14.187
G01 X7.945 Y14.252
G01 X8.001 Y14.294
G01 X8.222 Y14.484
G01 X8.274 Y14.532
G01 X8.477 Y14.741
G01 X8.525 Y14.794
G01 X8.708 Y15.021
G01 X8.750 Y15.077
G01 X8.912 Y15.320
G01 X8.949 Y15.380
G01 X9.087 Y15.637
G01 X9.118 Y15.700
G01 X9.233 Y15.968
G01 X9.258 Y16.034
G01 X9.347 Y16.312
G01 X9.367 Y16.380
G01 X9.430 Y16.664
G01 X9.443 Y16.734
G01 X9.480 Y17.023
G01 X9.486 Y17.093
G00 Z20.000
G00 X12.457 Y22.619
G00 Z0.100
G01 Z-0.800 F120
G01 X12.396 Y22.698 F400
G02 X13.804 Y23.763 I2.8831 J-2.3491
G01 X13.918 Y23.728
G03 X12.484 Y22.619 I4.1371 J-6.8342
G01 X12.457
G01 X12.096 Y22.352
G01 X12.088 Y22.364
G01 X11.982 Y22.487
G01 X11.929 Y22.689
G01 X11.868 Y22.813
G02 X13.742 Y24.247 I4.2309 J-3.5868
G03 X15.696 Y23.983 I1.6527 J4.8694
G03 X12.440 Y21.924 I1.8398 J-6.5128
G01 X12.413
G01 X12.096 Y22.352
G00 Z20.000
G00 X18.591 Y24.124
G00 Z0.100
G01 Z-0.800 F120
G01 Y24.141 F400
G03 X20.096 Y24.581 I-0.2476 J3.6399
G02 X23.897 Y21.405 I-2.6071 J-6.9829
G01 X23.757 Y20.859
G01 Y19.970
G03 X18.591 Y24.124 I-6.2970 J-2.5423
G00 Z20.000
G00 X12.493 Y12.939
G00 Z0.100
G01 Z-0.800 F120
G03 X19.189 Y11.012 I4.9769 J4.6952 F400
G02 X12.422 Y12.825 I-1.9336 J6.3193
G01 X12.493 Y12.939
G01 X12.131 Y13.205
G01 X12.149 Y13.229
G01 X12.431 Y13.731
G03 X23.662 Y16.383 I5.0283 J3.8143
G03 X12.387 Y21.141 I-6.1712 J1.1149
G01 X12.361
G03 X11.586 Y22.258 I-5.1701 J-2.7553
G01 X11.551 Y22.355
G01 X11.507 Y22.522
G01 X11.331 Y22.892
G02 X13.733 Y24.740 I5.1657 J-4.2299
G03 X15.793 Y24.441 I1.6525 J4.1371
G02 X17.689 Y24.558 I1.2232 J-4.3791
G03 X20.052 Y25.074 I0.3186 J4.2067
G02 X24.390 Y21.457 I-2.6153 J-7.5474
G01 X24.205 Y20.780
G01 Y19.266
G02 X11.894 Y12.728 I-6.9154 J-1.8386
G01 X11.929 Y12.930
G01 X12.131 Y13.205
G01 X11.761 Y13.465
G03 X12.369 Y14.673 I-4.9348 J3.2450
G03 X23.308 Y17.104 I5.1039 J2.8589
G03 X12.325 Y20.181 I-5.8134 J0.3885
G03 X11.164 Y22.065 I-6.4187 J-2.6594
G01 X11.085 Y22.355
G01 X10.838 Y22.883
G01 X10.794 Y22.989
G02 X13.742 Y25.241 I6.0390 J-4.8474
G03 X15.687 Y24.881 I1.6671 J3.5640
G02 X17.676 Y25.005 I1.3045 J-4.8851
G03 X19.990 Y25.567 I0.2990 J3.8164
G02 X24.883 Y21.510 I-2.5357 J-8.0372
G01 X24.654 Y20.701
G01 Y19.345
G02 X11.410 Y12.596 I-7.3649 J-1.9170
G01 X11.498 Y13.097
G01 X11.761 Y13.465
G01 X11.375 Y13.710
G03 X12.308 Y16.019 I-5.6853 J3.6403
G03 X22.650 Y19.015 I5.1740 J1.4886
G03 X12.299 Y18.861 I-5.1543 J-1.5212
G03 X10.750 Y21.853 I-6.9792 J-1.7159
G03 X10.231 Y23.006 I-2.9651 J-0.6421
G02 X13.769 Y25.743 I6.6860 J-4.9876
G03 X16.078 Y25.413 I1.5723 J2.7604
G02 X17.660 Y25.453 I0.9130 J-4.8898
G03 X19.911 Y26.060 I0.2792 J3.4389
G02 X25.402 Y21.484 I-2.3958 J-8.4577
G01 X25.297 Y21.290
G01 X25.103 Y20.621
G01 Y19.425
G02 X11.261 Y12.112 I-7.7957 J-2.0011
G01 X10.900 Y12.455
G01 X11.005 Y12.851
G01 X11.049 Y13.238
G01 X11.274 Y13.551
G01 X11.375 Y13.710
G01 X10.998 Y13.949
G03 X10.337 Y21.642 I-5.3599 J3.4138
G03 X9.668 Y22.997 I-2.8499 J-0.5638
G02 X13.848 Y26.245 I7.1436 J-4.8817
G03 X16.150 Y25.879 I1.5435 J2.2867
G02 X17.654 Y25.897 I0.8039 J-4.2654
G03 X19.832 Y26.561 I0.2723 J3.0104
G02 X25.904 Y21.466 I-2.3569 J-8.9743
G01 X25.719 Y21.123
G01 X25.552 Y20.542
G01 Y19.504
G02 X11.120 Y11.549 I-8.2681 J-2.0689
G03 X10.363 Y12.288 I-2.1289 J-1.4225
G01 X10.548 Y12.886
G01 X10.601 Y13.212
G01 X10.609 Y13.397
G01 X10.876 Y13.757
G01 X10.998 Y13.949
G01 X10.626 Y14.197
G01 X10.664 Y14.255
G03 X9.914 Y21.440 I-5.0537 J3.1041
G03 X9.113 Y22.892 I-2.3864 J-0.3693
G01 X9.087 Y22.945
G02 X13.901 Y26.755 I7.8996 J-5.0337
G03 X16.161 Y26.333 I1.5341 J1.9502
G02 X17.656 Y26.344 I0.7725 J-3.4767
G03 X19.691 Y27.063 I0.2471 J2.5404
G02 X26.414 Y21.475 I-2.2417 J-9.5356
G01 X26.141 Y20.956
G01 X26.001 Y20.463
G01 Y19.583
G02 X10.794 Y11.232 I-8.7181 J-2.1455
G03 X9.747 Y12.112 I-2.0195 J-1.3401
G03 X10.161 Y13.555 I-2.2359 J1.4216
G01 X10.425 Y13.896
G01 X10.626 Y14.197
G01 X10.238 Y14.427
G03 X9.483 Y21.246 I-4.6483 J2.9368
G03 X8.480 Y22.821 I-2.1582 J-0.2674
G02 X13.980 Y27.274 I8.6023 J-5.0023
G03 X16.085 Y26.773 I1.4799 J1.5424
G02 X17.377 Y26.843 I1.0062 J-6.5725
G03 X19.550 Y27.565 I0.5039 J2.1166
G02 X26.925 Y21.431 I-2.1130 J-10.0403
G01 Y21.387
G03 X26.449 Y20.384 I1.7184 J-1.4281
G01 Y19.662
G02 X10.442 Y10.950 I-9.1642 J-2.2236
G03 X8.929 Y11.857 I-1.6795 J-1.0876
G03 X9.712 Y13.722 I-1.4997 J1.7268
G01 X9.974 Y14.043
G01 X10.211 Y14.383
G01 X10.238 Y14.427
G01 X9.854 Y14.668
G03 X9.043 Y21.053 I-4.3046 J2.6965
G03 X8.577 Y22.126 I-1.4820 J-0.0057
G01 X7.899 Y22.733
G02 X14.103 Y27.793 I9.2214 J-4.9729
G03 X16.011 Y27.213 I1.3747 J1.0941
G02 X17.421 Y27.292 I1.1595 J-8.1272
G03 X19.357 Y28.075 I0.4490 J1.6744
G02 X27.409 Y21.440 I-1.9440 J-10.5624
G01 X27.453 Y21.273
G03 X26.898 Y20.296 I1.1005 J-1.2703
G01 Y19.741
G02 X10.081 Y10.677 I-9.6116 J-2.2996
G03 X8.330 Y11.355 I-1.3270 J-0.8278
G01 X8.040 Y11.795
G01 X8.005 Y11.857
G03 X9.237 Y13.863 I-0.5418 J1.7141
G01 X9.499 Y14.164
G01 X9.738 Y14.484
G01 X9.854 Y14.668
G01 X9.468 Y14.891
G03 X8.585 Y20.859 I-3.9268 J2.4687
G03 X8.348 Y21.721 I-1.2048 J0.1320
G01 X7.538 Y22.452
G01 X7.318 Y22.628
G02 X14.288 Y28.321 I9.8981 J-5.0038
G03 X16.005 Y27.659 I1.2341 J0.6416
G02 X17.473 Y27.741 I1.2789 J-9.7026
G03 X19.101 Y28.577 I0.3889 J1.2458
G02 X28.007 Y21.114 I-1.6948 J-11.0677
G03 X27.347 Y20.208 I0.5745 J-1.1118
G01 Y19.821
G02 X9.413 Y10.748 I-10.0598 J-2.3767
G03 X8.145 Y10.818 I-0.6959 J-1.0854
G01 X7.732 Y11.425
G01 X7.353 Y12.103
G01 X8.181 Y12.446
G03 X8.726 Y13.986 I-0.6431 J1.0945
G03 X9.462 Y14.880 I-3.1857 J3.3726
G01 X9.468 Y14.891
G01 X9.088 Y15.139
G01 X9.139 Y15.218
G03 X8.084 Y20.692 I-3.6181 J2.1410
G03 X7.978 Y21.457 I-0.7615 J0.2851
G01 X7.081 Y22.249
G01 X6.861 Y22.381
G01 X6.702 Y22.434
G02 X14.649 Y28.876 I10.5464 J-4.8880
G01 X14.701 Y28.568
G03 X15.485 Y28.031 I0.7431 J0.2444
G02 X18.050 Y28.169 I1.9060 J-11.5347
G03 X18.697 Y29.087 I-0.1342 J0.7813
G02 X28.579 Y20.824 I-1.2856 J-11.5786
G03 X27.796 Y20.129 I0.0456 J-0.8402
G01 Y19.900
G02 X9.177 Y10.358 I-10.4938 J-2.4596
G03 X8.066 Y10.167 I-0.4573 J-0.6687
G02 X6.737 Y12.332 I7.7722 J6.2610
G01 X6.773 Y12.349
G01 X7.943 Y12.833
G03 X8.145 Y14.074 I-0.3984 J0.7019
G03 X9.088 Y15.139 I-2.5437 J3.2009
G00 Z20.000
G00 X12.308 Y16.019
G00 Z-0.300
G01 Z-0.800 F120
G01 X12.731 Y16.247 F400
G03 X20.961 Y13.994 I4.7654 J1.2494
G03 X18.797 Y22.248 I-3.4647 J3.5022
G03 X12.731 Y16.247 I-1.3007 J-4.7517
G01 X13.172 Y16.364
G03 X21.875 Y18.454 I4.3309 J1.1310
G03 X13.027 Y17.703 I-4.3746 J-0.9581
G01 X13.026 Y17.312
G01 X13.059 Y16.923
G01 X13.126 Y16.538
G01 X13.172 Y16.364
G01 X13.606 Y16.491
G03 X20.328 Y14.625 I3.8995 J1.0074
G03 X18.583 Y21.379 I-2.8222 J2.8734
G03 X13.606 Y16.491 I-1.0773 J-3.8808
G01 X14.049 Y16.590
G01 X14.059 Y16.547
G03 X20.887 Y18.685 I3.4510 J0.9501
G03 X13.951 Y17.851 I-3.3752 J-1.1873
G01 X13.933 Y17.491
G01 X13.947 Y17.173
G01 X13.989 Y16.857
G01 X14.049 Y16.590
G01 X14.485 Y16.716
G03 X20.513 Y18.376 I3.0269 J0.7816
G03 X14.386 Y17.680 I-3.0030 J-0.8804
G01 X14.383 Y17.392
G03 X14.475 Y16.754 I3.1108 J0.1184
G01 X14.485 Y16.716
G01 X14.904 Y16.864
G03 X18.391 Y14.960 I2.6117 J0.6387
G03 X16.612 Y20.018 I-0.8906 J2.5284
G03 X14.825 Y17.559 I0.8892 J-2.5261
G01 Y17.427
G01 X14.904 Y16.864
G00 Z20.000
G00 X14.921 Y16.817
G00 Z-0.300
G01 Z-0.800 F120
G01 X15.134 Y16.894 F400
G01 X15.056 Y17.492
G01 Y17.508
G01 X15.137 Y18.125
G01 X15.141 Y18.140
G01 X15.379 Y18.716
G01 X15.387 Y18.729
G01 X15.766 Y19.223
G01 X15.777 Y19.234
G01 X16.271 Y19.613
G01 X16.284 Y19.621
G01 X16.860 Y19.859
G01 X16.875 Y19.863
G01 X17.492 Y19.944
G01 X17.508
G01 X18.125 Y19.863
G01 X18.140 Y19.859
G01 X18.716 Y19.621
G01 X18.729 Y19.613
G01 X19.223 Y19.234
G01 X19.234 Y19.223
G01 X19.613 Y18.729
G01 X19.621 Y18.716
G01 X19.859 Y18.140
G01 X19.863 Y18.125
G01 X19.944 Y17.508
G01 Y17.492
G01 X19.863 Y16.875
G01 X19.859 Y16.860
G01 X19.621 Y16.284
G01 X19.613 Y16.271
G01 X19.234 Y15.777
G01 X19.223 Y15.766
G01 X18.729 Y15.387
G01 X18.716 Y15.379
G01 X18.140 Y15.141
G01 X18.125 Y15.137
G01 X17.508 Y15.056
G01 X17.492
G01 X16.875 Y15.137
G01 X16.860 Y15.141
G01 X16.284 Y15.379
G01 X16.271 Y15.387
G01 X15.766 Y15.777
G01 X15.387 Y16.271
G01 X15.379 Y16.284
G01 X15.141 Y16.860
G01 X15.137 Y16.875
G01 X15.134 Y16.894
G00 Z20.000
G00 X9.714 Y17.085
G00 Z-0.300
G01 Z-0.800 F120
G01 X9.486 Y17.093 F400
G01 X9.496 Y17.385
G01 Y17.455
G01 X9.480 Y17.747
G01 X9.473 Y17.817
G01 X9.430 Y18.105
G01 X9.417 Y18.175
G01 X9.348 Y18.458
G01 X9.329 Y18.526
G01 X9.233 Y18.801
G01 X9.208 Y18.867
G01 X9.088 Y19.133
G01 X9.057 Y19.196
G01 X8.913 Y19.450
G01 X8.876 Y19.510
G01 X8.709 Y19.749
G01 X8.667 Y19.806
G01 X8.479 Y20.029
G01 X8.432 Y20.081
G01 X8.224 Y20.286
G01 X8.172 Y20.334
G01 X7.946 Y20.519
G01 X7.890 Y20.562
G01 X7.798 Y20.624
G01 X7.790 Y20.650
G03 X7.707 Y21.413 I-0.4518 J0.3369
G01 X6.957 Y22.053
G03 X6.380 Y22.320 I-0.8711 J-1.1260
G01 X6.410 Y22.391
G02 X14.834 Y29.161 I10.8883 J-4.9212
G01 X14.909 Y28.706
G03 X15.522 Y28.275 I0.5381 J0.1136
G02 X17.927 Y28.393 I1.7145 J-10.3741
G03 X18.460 Y28.920 I-0.0165 J0.5498
G01 X18.478 Y29.352
G01 X18.577 Y29.345
G02 X28.874 Y20.653 I-1.1847 J-11.8494
G01 X28.424 Y20.550
G03 X28.020 Y20.020 I0.1464 J-0.5302
G01 X28.023 Y19.966
G01 X28.031 Y19.911
G02 X9.074 Y10.149 I-10.7171 J-2.4751
G03 X8.366 Y10.127 I-0.3407 J-0.4317
G01 X8.053 Y9.846
G01 X8.039 Y9.836
G02 X6.417 Y12.458 I8.8278 J7.2713
G01 X7.753 Y13.004
G03 X8.051 Y13.774 I-0.1901 J0.5166
G01 X7.849 Y14.163
G01 X7.854 Y14.187
G01 X7.945 Y14.252
G01 X8.001 Y14.294
G01 X8.222 Y14.484
G01 X8.274 Y14.532
G01 X8.477 Y14.741
G01 X8.525 Y14.794
G01 X8.708 Y15.021
G01 X8.750 Y15.077
G01 X8.912 Y15.320
G01 X8.949 Y15.380
G01 X9.087 Y15.637
G01 X9.118 Y15.700
G01 X9.233 Y15.968
G01 X9.258 Y16.034
G01 X9.347 Y16.312
G01 X9.367 Y16.380
G01 X9.430 Y16.664
G01 X9.443 Y16.734
G01 X9.480 Y17.023
G01 X9.486 Y17.093
G00 Z20.000
G00 X12.457 Y22.619
G00 Z-0.300
G01 Z-1.200 F120
G01 X12.396 Y22.698 F400
G02 X13.804 Y23.763 I2.8831 J-2.3491
G01 X13.918 Y23.728
G03 X12.484 Y22.619 I4.1371 J-6.8342
G01 X12.457
G01 X12.096 Y22.352
G01 X12.088 Y22.364
G01 X11.982 Y22.487
G01 X11.929 Y22.689
G01 X11.868 Y22.813
G02 X13.742 Y24.247 I4.2309 J-3.5868
G03 X15.696 Y23.983 I1.6527 J4.8694
G03 X12.440 Y21.924 I1.8398 J-6.5128
G01 X12.413
G01 X12.096 Y22.352
G00 Z20.000
G00 X18.591 Y24.124
G00 Z-0.300
G01 Z-1.200 F120
G01 Y24.141 F400
G03 X20.096 Y24.581 I-0.2476 J3.6399
G02 X23.897 Y21.405 I-2.6071 J-6.9829
G01 X23.757 Y20.859
G01 Y19.970
G03 X18.591 Y24.124 I-6.2970 J-2.5423
G00 Z20.000
G00 X12.493 Y12.939
G00 Z-0.300
G01 Z-1.200 F120
G03 X19.189 Y11.012 I4.9769 J4.6952 F400
G02 X12.422 Y12.825 I-1.9336 J6.3193
G01 X12.493 Y12.939
G01 X12.131 Y13.205
G01 X12.149 Y13.229
G01 X12.431 Y13.731
G03 X23.662 Y16.383 I5.0283 J3.8143
G03 X12.387 Y21.141 I-6.1712 J1.1149
G01 X12.361
G03 X11.586 Y22.258 I-5.1701 J-2.7553
G01 X11.551 Y22.355
G01 X11.507 Y22.522
G01 X11.331 Y22.892
G02 X13.733 Y24.740 I5.1657 J-4.2299
G03 X15.793 Y24.441 I1.6525 J4.1371
G02 X17.689 Y24.558 I1.2232 J-4.3791
G03 X20.052 Y25.074 I0.3186 J4.2067
G02 X24.390 Y21.457 I-2.6153 J-7.5474
G01 X24.205 Y20.780
G01 Y19.266
G02 X11.894 Y12.728 I-6.9154 J-1.8386
G01 X11.929 Y12.930
G01 X12.131 Y13.205
G01 X11.761 Y13.465
G03 X12.369 Y14.673 I-4.9348 J3.2450
G03 X23.308 Y17.104 I5.1039 J2.8589
G03 X12.325 Y20.181 I-5.8134 J0.3885
G03 X11.164 Y22.065 I-6.4187 J-2.6594
G01 X11.085 Y22.355
G01 X10.838 Y22.883
G01 X10.794 Y22.989
G02 X13.742 Y25.241 I6.0390 J-4.8474
G03 X15.687 Y24.881 I1.6671 J3.5640
G02 X17.676 Y25.005 I1.3045 J-4.8851
G03 X19.990 Y25.567 I0.2990 J3.8164
G02 X24.883 Y21.510 I-2.5357 J-8.0372
G01 X24.654 Y20.701
G01 Y19.345
G02 X11.410 Y12.596 I-7.3649 J-1.9170
G01 X11.498 Y13.097
G01 X11.761 Y13.465
G01 X11.375 Y13.710
G03 X12.308 Y16.019 I-5.6853 J3.6403
G03 X22.650 Y19.015 I5.1740 J1.4886
G03 X12.299 Y18.861 I-5.1543 J-1.5212
G03 X10.750 Y21.853 I-6.9792 J-1.7159
G03 X10.231 Y23.006 I-2.9651 J-0.6421
G02 X13.769 Y25.743 I6.6860 J-4.9876
G03 X16.078 Y25.413 I1.5723 J2.7604
G02 X17.660 Y25.453 I0.9130 J-4.8898
G03 X19.911 Y26.060 I0.2792 J3.4389
G02 X25.402 Y21.484 I-2.3958 J-8.4577
G01 X25.297 Y21.290
G01 X25.103 Y20.621
G01 Y19.425
G02 X11.261 Y12.112 I-7.7957 J-2.0011
G01 X10.900 Y12.455
G01 X11.005 Y12.851
G01 X11.049 Y13.238
G01 X11.274 Y13.551
G01 X11.375 Y13.710
G01 X10.998 Y13.949
G03 X10.337 Y21.642 I-5.3599 J3.4138
G03 X9.668 Y22.997 I-2.8499 J-0.5638
G02 X13.848 Y26.245 I7.1436 J-4.8817
G03 X16.150 Y25.879 I1.5435 J2.2867
G02 X17.654 Y25.897 I0.8039 J-4.2654
G03 X19.832 Y26.561 I0.2723 J3.0104
G02 X25.904 Y21.466 I-2.3569 J-8.9743
G01 X25.719 Y21.123
G01 X25.552 Y20.542
G01 Y19.504
G02 X11.120 Y11.549 I-8.2681 J-2.0689
G03 X10.363 Y12.288 I-2.1289 J-1.4225
G01 X10.548 Y12.886
G01 X10.601 Y13.212
G01 X10.609 Y13.397
G01 X10.876 Y13.757
G01 X10.998 Y13.949
G01 X10.626 Y14.197
G01 X10.664 Y14.255
G03 X9.914 Y21.440 I-5.0537 J3.1041
G03 X9.113 Y22.892 I-2.3864 J-0.3693
G01 X9.087 Y22.945
G02 X13.901 Y26.755 I7.8996 J-5.0337
G03 X16.161 Y26.333 I1.5341 J1.9502
G02 X17.656 Y26.344 I0.7725 J-3.4767
G03 X19.691 Y27.063 I0.2471 J2.5404
G02 X26.414 Y21.475 I-2.2417 J-9.5356
G01 X26.141 Y20.956
G01 X26.001 Y20.463
G01 Y19.583
G02 X10.794 Y11.232 I-8.7181 J-2.1455
G03 X9.747 Y12.112 I-2.0195 J-1.3401
G03 X10.161 Y13.555 I-2.2359 J1.4216
G01 X10.425 Y13.896
G01 X10.626 Y14.197
G01 X10.238 Y14.427
G03 X9.483 Y21.246 I-4.6483 J2.9368
G03 X8.480 Y22.821 I-2.1582 J-0.2674
G02 X13.980 Y27.274 I8.6023 J-5.0023
G03 X16.085 Y26.773 I1.4799 J1.5424
G02 X17.377 Y26.843 I1.0062 J-6.5725
G03 X19.550 Y27.565 I0.5039 J2.1166
G02 X26.925 Y21.431 I-2.1130 J-10.0403
G01 Y21.387
G03 X26.449 Y20.384 I1.7184 J-1.4281
G01 Y19.662
G02 X10.442 Y10.950 I-9.1642 J-2.2236
G03 X8.929 Y11.857 I-1.6795 J-1.0876
G03 X9.712 Y13.722 I-1.4997 J1.7268
G01 X9.974 Y14.043
G01 X10.211 Y14.383
G01 X10.238 Y14.427
G01 X9.854 Y14.668
G03 X9.043 Y21.053 I-4.3046 J2.6965
G03 X8.577 Y22.126 I-1.4820 J-0.0057
G01 X7.899 Y22.733
G02 X14.103 Y27.793 I9.2214 J-4.9729
G03 X16.011 Y27.213 I1.3747 J1.0941
G02 X17.421 Y27.292 I1.1595 J-8.1272
G03 X19.357 Y28.075 I0.4490 J1.6744
G02 X27.409 Y21.440 I-1.9440 J-10.5624
G01 X27.453 Y21.273
G03 X26.898 Y20.296 I1.1005 J-1.2703
G01 Y19.741
G02 X10.081 Y10.677 I-9.6116 J-2.2996
G03 X8.330 Y11.355 I-1.3270 J-0.8278
G01 X8.040 Y11.795
G01 X8.005 Y11.857
G03 X9.237 Y13.863 I-0.5418 J1.7141
G01 X9.499 Y14.164
G01 X9.738 Y14.484
G01 X9.854 Y14.668
G01 X9.468 Y14.891
G03 X8.585 Y20.859 I-3.9268 J2.4687
G03 X8.348 Y21.721 I-1.2048 J0.1320
G01 X7.538 Y22.452
G01 X7.318 Y22.628
G02 X14.288 Y28.321 I9.8981 J-5.0038
G03 X16.005 Y27.659 I1.2341 J0.6416
G02 X17.473 Y27.741 I1.2789 J-9.7026
G03 X19.101 Y28.577 I0.3889 J1.2458
G02 X28.007 Y21.114 I-1.6948 J-11.0677
G03 X27.347 Y20.208 I0.5745 J-1.1118
G01 Y19.821
G02 X9.413 Y10.748 I-10.0598 J-2.3767
G03 X8.145 Y10.818 I-0.6959 J-1.0854
G01 X7.732 Y11.425
G01 X7.353 Y12.103
G01 X8.181 Y12.446
G03 X8.726 Y13.986 I-0.6431 J1.0945
G03 X9.462 Y14.880 I-3.1857 J3.3726
G01 X9.468 Y14.891
G01 X9.088 Y15.139
G01 X9.139 Y15.218
G03 X8.084 Y20.692 I-3.6181 J2.1410
G03 X7.978 Y21.457 I-0.7615 J0.2851
G01 X7.081 Y22.249
G01 X6.861 Y22.381
G01 X6.702 Y22.434
G02 X14.649 Y28.876 I10.5464 J-4.8880
G01 X14.701 Y28.568
G03 X15.485 Y28.031 I0.7431 J0.2444
G02 X18.050 Y28.169 I1.9060 J-11.5347
G03 X18.697 Y29.087 I-0.1342 J0.7813
G02 X28.579 Y20.824 I-1.2856 J-11.5786
G03 X27.796 Y20.129 I0.0456 J-0.8402
G01 Y19.900
G02 X9.177 Y10.358 I-10.4938 J-2.4596
G03 X8.066 Y10.167 I-0.4573 J-0.6687
G02 X6.737 Y12.332 I7.7722 J6.2610
G01 X6.773 Y12.349
G01 X7.943 Y12.833
G03 X8.145 Y14.074 I-0.3984 J0.7019
G03 X9.088 Y15.139 I-2.5437 J3.2009
G00 Z20.000
G00 X12.308 Y16.019
G00 Z-0.700
G01 Z-1.200 F120
G01 X12.731 Y16.247 F400
G03 X20.961 Y13.994 I4.7654 J1.2494
G03 X18.797 Y22.248 I-3.4647 J3.5022
G03 X12.731 Y16.247 I-1.3007 J-4.7517
G01 X13.172 Y16.364
G03 X21.875 Y18.454 I4.3309 J1.1310
G03 X13.027 Y17.703 I-4.3746 J-0.9581
G01 X13.026 Y17.312
G01 X13.059 Y16.923
G01 X13.126 Y16.538
G01 X13.172 Y16.364
G01 X13.606 Y16.491
G03 X20.328 Y14.625 I3.8995 J1.0074
G03 X18.583 Y21.379 I-2.8222 J2.8734
G03 X13.606 Y16.491 I-1.0773 J-3.8808
G01 X14.049 Y16.590
G01 X14.059 Y16.547
G03 X20.887 Y18.685 I3.4510 J0.9501
G03 X13.951 Y17.851 I-3.3752 J-1.1873
G01 X13.933 Y17.491
G01 X13.947 Y17.173
G01 X13.989 Y16.857
G01 X14.049 Y16.590
G01 X14.485 Y16.716
G03 X20.513 Y18.376 I3.0269 J0.7816
G03 X14.386 Y17.680 I-3.0030 J-0.8804
G01 X14.383 Y17.392
G03 X14.475 Y16.754 I3.1108 J0.1184
G01 X14.485 Y16.716
G01 X14.904 Y16.864
G03 X18.391 Y14.960 I2.6117 J0.6387
G03 X16.612 Y20.018 I-0.8906 J2.5284
G03 X14.825 Y17.559 I0.8892 J-2.5261
G01 Y17.427
G01 X14.904 Y16.864
G00 Z20.000
G00 X14.921 Y16.817
G00 Z-0.700
G01 Z-1.200 F120
G01 X15.134 Y16.894 F400
G01 X15.056 Y17.492
G01 Y17.508
G01 X15.137 Y18.125
G01 X15.141 Y18.140
G01 X15.379 Y18.716
G01 X15.387 Y18.729
G01 X15.766 Y19.223
G01 X15.777 Y19.234
G01 X16.271 Y19.613
G01 X16.284 Y19.621
G01 X16.860 Y19.859
G01 X16.875 Y19.863
G01 X17.492 Y19.944
G01 X17.508
G01 X18.125 Y19.863
G01 X18.140 Y19.859
G01 X18.716 Y19.621
G01 X18.729 Y19.613
G01 X19.223 Y19.234
G01 X19.234 Y19.223
G01 X19.613 Y18.729
G01 X19.621 Y18.716
G01 X19.859 Y18.140
G01 X19.863 Y18.125
G01 X19.944 Y17.508
G01 Y17.492
G01 X19.863 Y16.875
G01 X19.859 Y16.860
G01 X19.621 Y16.284
G01 X19.613 Y16.271
G01 X19.234 Y15.777
G01 X19.223 Y15.766
G01 X18.729 Y15.387
G01 X18.716 Y15.379
G01 X18.140 Y15.141
G01 X18.125 Y15.137
G01 X17.508 Y15.056
G01 X17.492
G01 X16.875 Y15.137
G01 X16.860 Y15.141
G01 X16.284 Y15.379
G01 X16.271 Y15.387
G01 X15.766 Y15.777
G01 X15.387 Y16.271
G01 X15.379 Y16.284
G01 X15.141 Y16.860
G01 X15.137 Y16.875
G01 X15.134 Y16.894
G00 Z20.000
G00 X9.714 Y17.085
G00 Z-0.700
G01 Z-1.200 F120
G01 X9.486 Y17.093 F400
G01 X9.496 Y17.385
G01 Y17.455
G01 X9.480 Y17.747
G01 X9.473 Y17.817
G01 X9.430 Y18.105
G01 X9.417 Y18.175
G01 X9.348 Y18.458
G01 X9.329 Y18.526
G01 X9.233 Y18.801
G01 X9.208 Y18.867
G01 X9.088 Y19.133
G01 X9.057 Y19.196
G01 X8.913 Y19.450
G01 X8.876 Y19.510
G01 X8.709 Y19.749
G01 X8.667 Y19.806
G01 X8.479 Y20.029
G01 X8.432 Y20.081
G01 X8.224 Y20.286
G01 X8.172 Y20.334
G01 X7.946 Y20.519
G01 X7.890 Y20.562
G01 X7.798 Y20.624
G01 X7.790 Y20.650
G03 X7.707 Y21.413 I-0.4518 J0.3369
G01 X6.957 Y22.053
G03 X6.380 Y22.320 I-0.8711 J-1.1260
G01 X6.410 Y22.391
G02 X14.834 Y29.161 I10.8883 J-4.9212
G01 X14.909 Y28.706
G03 X15.522 Y28.275 I0.5381 J0.1136
G02 X17.927 Y28.393 I1.7145 J-10.3741
G03 X18.460 Y28.920 I-0.0165 J0.5498
G01 X18.478 Y29.352
G01 X18.577 Y29.345
G02 X28.874 Y20.653 I-1.1847 J-11.8494
G01 X28.424 Y20.550
G03 X28.020 Y20.020 I0.1464 J-0.5302
G01 X28.023 Y19.966
G01 X28.031 Y19.911
G02 X9.074 Y10.149 I-10.7171 J-2.4751
G03 X8.366 Y10.127 I-0.3407 J-0.4317
G01 X8.053 Y9.846
G01 X8.039 Y9.836
G02 X6.417 Y12.458 I8.8278 J7.2713
G01 X7.753 Y13.004
G03 X8.051 Y13.774 I-0.1901 J0.5166
G01 X7.849 Y14.163
G01 X7.854 Y14.187
G01 X7.945 Y14.252
G01 X8.001 Y14.294
G01 X8.222 Y14.484
G01 X8.274 Y14.532
G01 X8.477 Y14.741
G01 X8.525 Y14.794
G01 X8.708 Y15.021
G01 X8.750 Y15.077
G01 X8.912 Y15.320
G01 X8.949 Y15.380
G01 X9.087 Y15.637
G01 X9.118 Y15.700
G01 X9.233 Y15.968
G01 X9.258 Y16.034
G01 X9.347 Y16.312
G01 X9.367 Y16.380
G01 X9.430 Y16.664
G01 X9.443 Y16.734
G01 X9.480 Y17.023
G01 X9.486 Y17.093
G00 Z20.000
G00 X12.457 Y22.619
G00 Z-0.700
G01 Z-1.600 F120
G01 X12.396 Y22.698 F400
G02 X13.804 Y23.763 I2.8831 J-2.3491
G01 X13.918 Y23.728
G03 X12.484 Y22.619 I4.1371 J-6.8342
G01 X12.457
G01 X12.096 Y22.352
G01 X12.088 Y22.364
G01 X11.982 Y22.487
G01 X11.929 Y22.689
G01 X11.868 Y22.813
G02 X13.742 Y24.247 I4.2309 J-3.5868
G03 X15.696 Y23.983 I1.6527 J4.8694
G03 X12.440 Y21.924 I1.8398 J-6.5128
G01 X12.413
G01 X12.096 Y22.352
G00 Z20.000
G00 X18.591 Y24.124
G00 Z-0.700
G01 Z-1.600 F120
G01 Y24.141 F400
G03 X20.096 Y24.581 I-0.2476 J3.6399
G02 X23.897 Y21.405 I-2.6071 J-6.9829
G01 X23.757 Y20.859
G01 Y19.970
G03 X18.591 Y24.124 I-6.2970 J-2.5423
G00 Z20.000
G00 X12.493 Y12.939
G00 Z-0.700
G01 Z-1.600 F120
G03 X19.189 Y11.012 I4.9769 J4.6952 F400
G02 X12.422 Y12.825 I-1.9336 J6.3193
G01 X12.493 Y12.939
G01 X12.131 Y13.205
G01 X12.149 Y13.229
G01 X12.431 Y13.731
G03 X23.662 Y16.383 I5.0283 J3.8143
G03 X12.387 Y21.141 I-6.1712 J1.1149
G01 X12.361
G03 X11.586 Y22.258 I-5.1701 J-2.7553
G01 X11.551 Y22.355
G01 X11.507 Y22.522
G01 X11.331 Y22.892
G02 X13.733 Y24.740 I5.1657 J-4.2299
G03 X15.793 Y24.441 I1.6525 J4.1371
G02 X17.689 Y24.558 I1.2232 J-4.3791
G03 X20.052 Y25.074 I0.3186 J4.2067
G02 X24.390 Y21.457 I-2.6153 J-7.5474
G01 X24.205 Y20.780
G01 Y19.266
G02 X11.894 Y12.728 I-6.9154 J-1.8386
G01 X11.929 Y12.930
G01 X12.131 Y13.205
G01 X11.761 Y13.465
G03 X12.369 Y14.673 I-4.9348 J3.2450
G03 X23.308 Y17.104 I5.1039 J2.8589
G03 X12.325 Y20.181 I-5.8134 J0.3885
G03 X11.164 Y22.065 I-6.4187 J-2.6594
G01 X11.085 Y22.355
G01 X10.838 Y22.883
G01 X10.794 Y22.989
G02 X13.742 Y25.241 I6.0390 J-4.8474
G03 X15.687 Y24.881 I1.6671 J3.5640
G02 X17.676 Y25.005 I1.3045 J-4.8851
G03 X19.990 Y25.567 I0.2990 J3.8164
G02 X24.883 Y21.510 I-2.5357 J-8.0372
G01 X24.654 Y20.701
G01 Y19.345
G02 X11.410 Y12.596 I-7.3649 J-1.9170
G01 X11.498 Y13.097
G01 X11.761 Y13.465
G01 X11.375 Y13.710
G03 X12.308 Y16.019 I-5.6853 J3.6403
G03 X22.650 Y19.015 I5.1740 J1.4886
G03 X12.299 Y18.861 I-5.1543 J-1.5212
G03 X10.750 Y21.853 I-6.9792 J-1.7159
G03 X10.231 Y23.006 I-2.9651 J-0.6421
G02 X13.769 Y25.743 I6.6860 J-4.9876
G03 X16.078 Y25.413 I1.5723 J2.7604
G02 X17.660 Y25.453 I0.9130 J-4.8898
G03 X19.911 Y26.060 I0.2792 J3.4389
G02 X25.402 Y21.484 I-2.3958 J-8.4577
G01 X25.297 Y21.290
G01 X25.103 Y20.621
G01 Y19.425
G02 X11.261 Y12.112 I-7.7957 J-2.0011
G01 X10.900 Y12.455
G01 X11.005 Y12.851
G01 X11.049 Y13.238
G01 X11.274 Y13.551
G01 X11.375 Y13.710
G01 X10.998 Y13.949
G03 X10.337 Y21.642 I-5.3599 J3.4138
G03 X9.668 Y22.997 I-2.8499 J-0.5638
G02 X13.848 Y26.245 I7.1436 J-4.8817
G03 X16.150 Y25.879 I1.5435 J2.2867
G02 X17.654 Y25.897 I0.8039 J-4.2654
G03 X19.832 Y26.561 I0.2723 J3.0104
G02 X25.904 Y21.466 I-2.3569 J-8.9743
G01 X25.719 Y21.123
G01 X25.552 Y20.542
G01 Y19.504
G02 X11.120 Y11.549 I-8.2681 J-2.0689
G03 X10.363 Y12.288 I-2.1289 J-1.4225
G01 X10.548 Y12.886
G01 X10.601 Y13.212
G01 X10.609 Y13.397
G01 X10.876 Y13.757
G01 X10.998 Y13.949
G01 X10.626 Y14.197
G01 X10.664 Y14.255
G03 X9.914 Y21.440 I-5.0537 J3.1041
G03 X9.113 Y22.892 I-2.3864 J-0.3693
G01 X9.087 Y22.945
G02 X13.901 Y26.755 I7.8996 J-5.0337
G03 X16.161 Y26.333 I1.5341 J1.9502
G02 X17.656 Y26.344 I0.7725 J-3.4767
G03 X19.691 Y27.063 I0.2471 J2.5404
G02 X26.414 Y21.475 I-2.2417 J-9.5356
G01 X26.141 Y20.956
G01 X26.001 Y20.463
G01 Y19.583
G02 X10.794 Y11.232 I-8.7181 J-2.1455
G03 X9.747 Y12.112 I-2.0195 J-1.3401
G03 X10.161 Y13.555 I-2.2359 J1.4216
G01 X10.425 Y13.896
G01 X10.626 Y14.197
G01 X10.238 Y14.427
G03 X9.483 Y21.246 I-4.6483 J2.9368
G03 X8.480 Y22.821 I-2.1582 J-0.2674
G02 X13.980 Y27.274 I8.6023 J-5.0023
G03 X16.085 Y26.773 I1.4799 J1.5424
G02 X17.377 Y26.843 I1.0062 J-6.5725
G03 X19.550 Y27.565 I0.5039 J2.1166
G02 X26.925 Y21.431 I-2.1130 J-10.0403
G01 Y21.387
G03 X26.449 Y20.384 I1.7184 J-1.4281
G01 Y19.662
G02 X10.442 Y10.950 I-9.1642 J-2.2236
G03 X8.929 Y11.857 I-1.6795 J-1.0876
G03 X9.712 Y13.722 I-1.4997 J1.7268
G01 X9.974 Y14.043
G01 X10.211 Y14.383
G01 X10.238 Y14.427
G01 X9.854 Y14.668
G03 X9.043 Y21.053 I-4.3046 J2.6965
G03 X8.577 Y22.126 I-1.4820 J-0.0057
G01 X7.899 Y22.733
G02 X14.103 Y27.793 I9.2214 J-4.9729
G03 X16.011 Y27.213 I1.3747 J1.0941
G02 X17.421 Y27.292 I1.1595 J-8.1272
G03 X19.357 Y28.075 I0.4490 J1.6744
G02 X27.409 Y21.440 I-1.9440 J-10.5624
G01 X27.453 Y21.273
G03 X26.898 Y20.296 I1.1005 J-1.2703
G01 Y19.741
G02 X10.081 Y10.677 I-9.6116 J-2.2996
G03 X8.330 Y11.355 I-1.3270 J-0.8278
G01 X8.040 Y11.795
G01 X8.005 Y11.857
G03 X9.237 Y13.863 I-0.5418 J1.7141
G01 X9.499 Y14.164
G01 X9.738 Y14.484
G01 X9.854 Y14.668
G01 X9.468 Y14.891
G03 X8.585 Y20.859 I-3.9268 J2.4687
G03 X8.348 Y21.721 I-1.2048 J0.1320
G01 X7.538 Y22.452
G01 X7.318 Y22.628
G02 X14.288 Y28.321 I9.8981 J-5.0038
G03 X16.005 Y27.659 I1.2341 J0.6416
G02 X17.473 Y27.741 I1.2789 J-9.7026
G03 X19.101 Y28.577 I0.3889 J1.2458
G02 X28.007 Y21.114 I-1.6948 J-11.0677
G03 X27.347 Y20.208 I0.5745 J-1.1118
G01 Y19.821
G02 X9.413 Y10.748 I-10.0598 J-2.3767
G03 X8.145 Y10.818 I-0.6959 J-1.0854
G01 X7.732 Y11.425
G01 X7.353 Y12.103
G01 X8.181 Y12.446
G03 X8.726 Y13.986 I-0.6431 J1.0945
G03 X9.462 Y14.880 I-3.1857 J3.3726
G01 X9.468 Y14.891
G01 X9.088 Y15.139
G01 X9.139 Y15.218
G03 X8.084 Y20.692 I-3.6181 J2.1410
G03 X7.978 Y21.457 I-0.7615 J0.2851
G01 X7.081 Y22.249
G01 X6.861 Y22.381
G01 X6.702 Y22.434
G02 X14.649 Y28.876 I10.5464 J-4.8880
G01 X14.701 Y28.568
G03 X15.485 Y28.031 I0.7431 J0.2444
G02 X18.050 Y28.169 I1.9060 J-11.5347
G03 X18.697 Y29.087 I-0.1342 J0.7813
G02 X28.579 Y20.824 I-1.2856 J-11.5786
G03 X27.796 Y20.129 I0.0456 J-0.8402
G01 Y19.900
G02 X9.177 Y10.358 I-10.4938 J-2.4596
G03 X8.066 Y10.167 I-0.4573 J-0.6687
G02 X6.737 Y12.332 I7.7722 J6.2610
G01 X6.773 Y12.349
G01 X7.943 Y12.833
G03 X8.145 Y14.074 I-0.3984 J0.7019
G03 X9.088 Y15.139 I-2.5437 J3.2009
G00 Z20.000
G00 X12.308 Y16.019
G00 Z-1.100
G01 Z-1.600 F120
G01 X12.731 Y16.247 F400
G03 X20.961 Y13.994 I4.7654 J1.2494
G03 X18.797 Y22.248 I-3.4647 J3.5022
G03 X12.731 Y16.247 I-1.3007 J-4.7517
G01 X13.172 Y16.364
G03 X21.875 Y18.454 I4.3309 J1.1310
G03 X13.027 Y17.703 I-4.3746 J-0.9581
G01 X13.026 Y17.312
G01 X13.059 Y16.923
G01 X13.126 Y16.538
G01 X13.172 Y16.364
G01 X13.606 Y16.491
G03 X20.328 Y14.625 I3.8995 J1.0074
G03 X18.583 Y21.379 I-2.8222 J2.8734
G03 X13.606 Y16.491 I-1.0773 J-3.8808
G01 X14.049 Y16.590
G01 X14.059 Y16.547
G03 X20.887 Y18.685 I3.4510 J0.9501
G03 X13.951 Y17.851 I-3.3752 J-1.1873
G01 X13.933 Y17.491
G01 X13.947 Y17.173
G01 X13.989 Y16.857
G01 X14.049 Y16.590
G01 X14.485 Y16.716
G03 X20.513 Y18.376 I3.0269 J0.7816
G03 X14.386 Y17.680 I-3.0030 J-0.8804
G01 X14.383 Y17.392
G03 X14.475 Y16.754 I3.1108 J0.1184
G01 X14.485 Y16.716
G01 X14.904 Y16.864
G03 X18.391 Y14.960 I2.6117 J0.6387
G03 X16.612 Y20.018 I-0.8906 J2.5284
G03 X14.825 Y17.559 I0.8892 J-2.5261
G01 Y17.427
G01 X14.904 Y16.864
G00 Z20.000
G00 X14.921 Y16.817
G00 Z-1.100
G01 Z-1.600 F120
G01 X15.134 Y16.894 F400
G01 X15.056 Y17.492
G01 Y17.508
G01 X15.137 Y18.125
G01 X15.141 Y18.140
G01 X15.379 Y18.716
G01 X15.387 Y18.729
G01 X15.766 Y19.223
G01 X15.777 Y19.234
G01 X16.271 Y19.613
G01 X16.284 Y19.621
G01 X16.860 Y19.859
G01 X16.875 Y19.863
G01 X17.492 Y19.944
G01 X17.508
G01 X18.125 Y19.863
G01 X18.140 Y19.859
G01 X18.716 Y19.621
G01 X18.729 Y19.613
G01 X19.223 Y19.234
G01 X19.234 Y19.223
G01 X19.613 Y18.729
G01 X19.621 Y18.716
G01 X19.859 Y18.140
G01 X19.863 Y18.125
G01 X19.944 Y17.508
G01 Y17.492
G01 X19.863 Y16.875
G01 X19.859 Y16.860
G01 X19.621 Y16.284
G01 X19.613 Y16.271
G01 X19.234 Y15.777
G01 X19.223 Y15.766
G01 X18.729 Y15.387
G01 X18.716 Y15.379
G01 X18.140 Y15.141
G01 X18.125 Y15.137
G01 X17.508 Y15.056
G01 X17.492
G01 X16.875 Y15.137
G01 X16.860 Y15.141
G01 X16.284 Y15.379
G01 X16.271 Y15.387
G01 X15.766 Y15.777
G01 X15.387 Y16.271
G01 X15.379 Y16.284
G01 X15.141 Y16.860
G01 X15.137 Y16.875
G01 X15.134 Y16.894
G00 Z20.000
G00 X9.714 Y17.085
G00 Z-1.100
G01 Z-1.600 F120
G01 X9.486 Y17.093 F400
G01 X9.496 Y17.385
G01 Y17.455
G01 X9.480 Y17.747
G01 X9.473 Y17.817
G01 X9.430 Y18.105
G01 X9.417 Y18.175
G01 X9.348 Y18.458
G01 X9.329 Y18.526
G01 X9.233 Y18.801
G01 X9.208 Y18.867
G01 X9.088 Y19.133
G01 X9.057 Y19.196
G01 X8.913 Y19.450
G01 X8.876 Y19.510
G01 X8.709 Y19.749
G01 X8.667 Y19.806
G01 X8.479 Y20.029
G01 X8.432 Y20.081
G01 X8.224 Y20.286
G01 X8.172 Y20.334
G01 X7.946 Y20.519
G01 X7.890 Y20.562
G01 X7.798 Y20.624
G01 X7.790 Y20.650
G03 X7.707 Y21.413 I-0.4518 J0.3369
G01 X6.957 Y22.053
G03 X6.380 Y22.320 I-0.8711 J-1.1260
G01 X6.410 Y22.391
G02 X14.834 Y29.161 I10.8883 J-4.9212
G01 X14.909 Y28.706
G03 X15.522 Y28.275 I0.5381 J0.1136
G02 X17.927 Y28.393 I1.7145 J-10.3741
G03 X18.460 Y28.920 I-0.0165 J0.5498
G01 X18.478 Y29.352
G01 X18.577 Y29.345
G02 X28.874 Y20.653 I-1.1847 J-11.8494
G01 X28.424 Y20.550
G03 X28.020 Y20.020 I0.1464 J-0.5302
G01 X28.023 Y19.966
G01 X28.031 Y19.911
G02 X9.074 Y10.149 I-10.7171 J-2.4751
G03 X8.366 Y10.127 I-0.3407 J-0.4317
G01 X8.053 Y9.846
G01 X8.039 Y9.836
G02 X6.417 Y12.458 I8.8278 J7.2713
G01 X7.753 Y13.004
G03 X8.051 Y13.774 I-0.1901 J0.5166
G01 X7.849 Y14.163
G01 X7.854 Y14.187
G01 X7.945 Y14.252
G01 X8.001 Y14.294
G01 X8.222 Y14.484
G01 X8.274 Y14.532
G01 X8.477 Y14.741
G01 X8.525 Y14.794
G01 X8.708 Y15.021
G01 X8.750 Y15.077
G01 X8.912 Y15.320
G01 X8.949 Y15.380
G01 X9.087 Y15.637
G01 X9.118 Y15.700
G01 X9.233 Y15.968
G01 X9.258 Y16.034
G01 X9.347 Y16.312
G01 X9.367 Y16.380
G01 X9.430 Y16.664
G01 X9.443 Y16.734
G01 X9.480 Y17.023
G01 X9.486 Y17.093
G00 Z20.000
G00 X12.457 Y22.619
G00 Z-1.100
G01 Z-2.000 F120
G01 X12.396 Y22.698 F400
G02 X13.804 Y23.763 I2.8831 J-2.3491
G01 X13.918 Y23.728
G03 X12.484 Y22.619 I4.1371 J-6.8342
G01 X12.457
G01 X12.096 Y22.352
G01 X12.088 Y22.364
G01 X11.982 Y22.487
G01 X11.929 Y22.689
G01 X11.868 Y22.813
G02 X13.742 Y24.247 I4.2309 J-3.5868
G03 X15.696 Y23.983 I1.6527 J4.8694
G03 X12.440 Y21.924 I1.8398 J-6.5128
G01 X12.413
G01 X12.096 Y22.352
G00 Z20.000
G00 X18.591 Y24.124
G00 Z-1.100
G01 Z-2.000 F120
G01 Y24.141 F400
G03 X20.096 Y24.581 I-0.2476 J3.6399
G02 X23.897 Y21.405 I-2.6071 J-6.9829
G01 X23.757 Y20.859
G01 Y19.970
G03 X18.591 Y24.124 I-6.2970 J-2.5423
G00 Z20.000
G00 X12.493 Y12.939
G00 Z-1.100
G01 Z-2.000 F120
G03 X19.189 Y11.012 I4.9769 J4.6952 F400
G02 X12.422 Y12.825 I-1.9336 J6.3193
G01 X12.493 Y12.939
G01 X12.131 Y13.205
G01 X12.149 Y13.229
G01 X12.431 Y13.731
G03 X23.662 Y16.383 I5.0283 J3.8143
G03 X12.387 Y21.141 I-6.1712 J1.1149
G01 X12.361
G03 X11.586 Y22.258 I-5.1701 J-2.7553
G01 X11.551 Y22.355
G01 X11.507 Y22.522
G01 X11.331 Y22.892
G02 X13.733 Y24.740 I5.1657 J-4.2299
G03 X15.793 Y24.441 I1.6525 J4.1371
G02 X17.689 Y24.558 I1.2232 J-4.3791
G03 X20.052 Y25.074 I0.3186 J4.2067
G02 X24.390 Y21.457 I-2.6153 J-7.5474
G01 X24.205 Y20.780
G01 Y19.266
G02 X11.894 Y12.728 I-6.9154 J-1.8386
G01 X11.929 Y12.930
G01 X12.131 Y13.205
G01 X11.761 Y13.465
G03 X12.369 Y14.673 I-4.9348 J3.2450
G03 X23.308 Y17.104 I5.1039 J2.8589
G03 X12.325 Y20.181 I-5.8134 J0.3885
G03 X11.164 Y22.065 I-6.4187 J-2.6594
G01 X11.085 Y22.355
G01 X10.838 Y22.883
G01 X10.794 Y22.989
G02 X13.742 Y25.241 I6.0390 J-4.8474
G03 X15.687 Y24.881 I1.6671 J3.5640
G02 X17.676 Y25.005 I1.3045 J-4.8851
G03 X19.990 Y25.567 I0.2990 J3.8164
G02 X24.883 Y21.510 I-2.5357 J-8.0372
G01 X24.654 Y20.701
G01 Y19.345
G02 X11.410 Y12.596 I-7.3649 J-1.9170
G01 X11.498 Y13.097
G01 X11.761 Y13.465
G01 X11.375 Y13.710
G03 X12.308 Y16.019 I-5.6853 J3.6403
G03 X22.650 Y19.015 I5.1740 J1.4886
G03 X12.299 Y18.861 I-5.1543 J-1.5212
G03 X10.750 Y21.853 I-6.9792 J-1.7159
G03 X10.231 Y23.006 I-2.9651 J-0.6421
G02 X13.769 Y25.743 I6.6860 J-4.9876
G03 X16.078 Y25.413 I1.5723 J2.7604
G02 X17.660 Y25.453 I0.9130 J-4.8898
G03 X19.911 Y26.060 I0.2792 J3.4389
G02 X25.402 Y21.484 I-2.3958 J-8.4577
G01 X25.297 Y21.290
G01 X25.103 Y20.621
G01 Y19.425
G02 X11.261 Y12.112 I-7.7957 J-2.0011
G01 X10.900 Y12.455
G01 X11.005 Y12.851
G01 X11.049 Y13.238
G01 X11.274 Y13.551
G01 X11.375 Y13.710
G01 X10.998 Y13.949
G03 X10.337 Y21.642 I-5.3599 J3.4138
G03 X9.668 Y22.997 I-2.8499 J-0.5638
G02 X13.848 Y26.245 I7.1436 J-4.8817
G03 X16.150 Y25.879 I1.5435 J2.2867
G02 X17.654 Y25.897 I0.8039 J-4.2654
G03 X19.832 Y26.561 I0.2723 J3.0104
G02 X25.904 Y21.466 I-2.3569 J-8.9743
G01 X25.719 Y21.123
G01 X25.552 Y20.542
G01 Y19.504
G02 X11.120 Y11.549 I-8.2681 J-2.0689
G03 X10.363 Y12.288 I-2.1289 J-1.4225
G01 X10.548 Y12.886
G01 X10.601 Y13.212
G01 X10.609 Y13.397
G01 X10.876 Y13.757
G01 X10.998 Y13.949
G01 X10.626 Y14.197
G01 X10.664 Y14.255
G03 X9.914 Y21.440 I-5.0537 J3.1041
G03 X9.113 Y22.892 I-2.3864 J-0.3693
G01 X9.087 Y22.945
G02 X13.901 Y26.755 I7.8996 J-5.0337
G03 X16.161 Y26.333 I1.5341 J1.9502
G02 X17.656 Y26.344 I0.7725 J-3.4767
G03 X19.691 Y27.063 I0.2471 J2.5404
G02 X26.414 Y21.475 I-2.2417 J-9.5356
G01 X26.141 Y20.956
G01 X26.001 Y20.463
G01 Y19.583
G02 X10.794 Y11.232 I-8.7181 J-2.1455
G03 X9.747 Y12.112 I-2.0195 J-1.3401
G03 X10.161 Y13.555 I-2.2359 J1.4216
G01 X10.425 Y13.896
G01 X10.626 Y14.197
G01 X10.238 Y14.427
G03 X9.483 Y21.246 I-4.6483 J2.9368
G03 X8.480 Y22.821 I-2.1582 J-0.2674
G02 X13.980 Y27.274 I8.6023 J-5.0023
G03 X16.085 Y26.773 I1.4799 J1.5424
G02 X17.377 Y26.843 I1.0062 J-6.5725
G03 X19.550 Y27.565 I0.5039 J2.1166
G02 X26.925 Y21.431 I-2.1130 J-10.0403
G01 Y21.387
G03 X26.449 Y20.384 I1.7184 J-1.4281
G01 Y19.662
G02 X10.442 Y10.950 I-9.1642 J-2.2236
G03 X8.929 Y11.857 I-1.6795 J-1.0876
G03 X9.712 Y13.722 I-1.4997 J1.7268
G01 X9.974 Y14.043
G01 X10.211 Y14.383
G01 X10.238 Y14.427
G01 X9.854 Y14.668
G03 X9.043 Y21.053 I-4.3046 J2.6965
G03 X8.577 Y22.126 I-1.4820 J-0.0057
G01 X7.899 Y22.733
G02 X14.103 Y27.793 I9.2214 J-4.9729
G03 X16.011 Y27.213 I1.3747 J1.0941
G02 X17.421 Y27.292 I1.1595 J-8.1272
G03 X19.357 Y28.075 I0.4490 J1.6744
G02 X27.409 Y21.440 I-1.9440 J-10.5624
G01 X27.453 Y21.273
G03 X26.898 Y20.296 I1.1005 J-1.2703
G01 Y19.741
G02 X10.081 Y10.677 I-9.6116 J-2.2996
G03 X8.330 Y11.355 I-1.3270 J-0.8278
G01 X8.040 Y11.795
G01 X8.005 Y11.857
G03 X9.237 Y13.863 I-0.5418 J1.7141
G01 X9.499 Y14.164
G01 X9.738 Y14.484
G01 X9.854 Y14.668
G01 X9.468 Y14.891
G03 X8.585 Y20.859 I-3.9268 J2.4687
G03 X8.348 Y21.721 I-1.2048 J0.1320
G01 X7.538 Y22.452
G01 X7.318 Y22.628
G02 X14.288 Y28.321 I9.8981 J-5.0038
G03 X16.005 Y27.659 I1.2341 J0.6416
G02 X17.473 Y27.741 I1.2789 J-9.7026
G03 X19.101 Y28.577 I0.3889 J1.2458
G02 X28.007 Y21.114 I-1.6948 J-11.0677
G03 X27.347 Y20.208 I0.5745 J-1.1118
G01 Y19.821
G02 X9.413 Y10.748 I-10.0598 J-2.3767
G03 X8.145 Y10.818 I-0.6959 J-1.0854
G01 X7.732 Y11.425
G01 X7.353 Y12.103
G01 X8.181 Y12.446
G03 X8.726 Y13.986 I-0.6431 J1.0945
G03 X9.462 Y14.880 I-3.1857 J3.3726
G01 X9.468 Y14.891
G01 X9.088 Y15.139
G01 X9.139 Y15.218
G03 X8.084 Y20.692 I-3.6181 J2.1410
G03 X7.978 Y21.457 I-0.7615 J0.2851
G01 X7.081 Y22.249
G01 X6.861 Y22.381
G01 X6.702 Y22.434
G02 X14.649 Y28.876 I10.5464 J-4.8880
G01 X14.701 Y28.568
G03 X15.485 Y28.031 I0.7431 J0.2444
G02 X18.050 Y28.169 I1.9060 J-11.5347
G03 X18.697 Y29.087 I-0.1342 J0.7813
G02 X28.579 Y20.824 I-1.2856 J-11.5786
G03 X27.796 Y20.129 I0.0456 J-0.8402
G01 Y19.900
G02 X9.177 Y10.358 I-10.4938 J-2.4596
G03 X8.066 Y10.167 I-0.4573 J-0.6687
G02 X6.737 Y12.332 I7.7722 J6.2610
G01 X6.773 Y12.349
G01 X7.943 Y12.833
G03 X8.145 Y14.074 I-0.3984 J0.7019
G03 X9.088 Y15.139 I-2.5437 J3.2009
G00 Z20.000
G00 X12.308 Y16.019
G00 Z-1.500
G01 Z-2.000 F120
G01 X12.731 Y16.247 F400
G03 X20.961 Y13.994 I4.7654 J1.2494
G03 X18.797 Y22.248 I-3.4647 J3.5022
G03 X12.731 Y16.247 I-1.3007 J-4.7517
G01 X13.172 Y16.364
G03 X21.875 Y18.454 I4.3309 J1.1310
G03 X13.027 Y17.703 I-4.3746 J-0.9581
G01 X13.026 Y17.312
G01 X13.059 Y16.923
G01 X13.126 Y16.538
G01 X13.172 Y16.364
G01 X13.606 Y16.491
G03 X20.328 Y14.625 I3.8995 J1.0074
G03 X18.583 Y21.379 I-2.8222 J2.8734
G03 X13.606 Y16.491 I-1.0773 J-3.8808
G01 X14.049 Y16.590
G01 X14.059 Y16.547
G03 X20.887 Y18.685 I3.4510 J0.9501
G03 X13.951 Y17.851 I-3.3752 J-1.1873
G01 X13.933 Y17.491
G01 X13.947 Y17.173
G01 X13.989 Y16.857
G01 X14.049 Y16.590
G01 X14.485 Y16.716
G03 X20.513 Y18.376 I3.0269 J0.7816
G03 X14.386 Y17.680 I-3.0030 J-0.8804
G01 X14.383 Y17.392
G03 X14.475 Y16.754 I3.1108 J0.1184
G01 X14.485 Y16.716
G01 X14.904 Y16.864
G03 X18.391 Y14.960 I2.6117 J0.6387
G03 X16.612 Y20.018 I-0.8906 J2.5284
G03 X14.825 Y17.559 I0.8892 J-2.5261
G01 Y17.427
G01 X14.904 Y16.864
G00 Z20.000
G00 X14.921 Y16.817
G00 Z-1.500
G01 Z-2.000 F120
G01 X15.134 Y16.894 F400
G01 X15.056 Y17.492
G01 Y17.508
G01 X15.137 Y18.125
G01 X15.141 Y18.140
G01 X15.379 Y18.716
G01 X15.387 Y18.729
G01 X15.766 Y19.223
G01 X15.777 Y19.234
G01 X16.271 Y19.613
G01 X16.284 Y19.621
G01 X16.860 Y19.859
G01 X16.875 Y19.863
G01 X17.492 Y19.944
G01 X17.508
G01 X18.125 Y19.863
G01 X18.140 Y19.859
G01 X18.716 Y19.621
G01 X18.729 Y19.613
G01 X19.223 Y19.234
G01 X19.234 Y19.223
G01 X19.613 Y18.729
G01 X19.621 Y18.716
G01 X19.859 Y18.140
G01 X19.863 Y18.125
G01 X19.944 Y17.508
G01 Y17.492
G01 X19.863 Y16.875
G01 X19.859 Y16.860
G01 X19.621 Y16.284
G01 X19.613 Y16.271
G01 X19.234 Y15.777
G01 X19.223 Y15.766
G01 X18.729 Y15.387
G01 X18.716 Y15.379
G01 X18.140 Y15.141
G01 X18.125 Y15.137
G01 X17.508 Y15.056
G01 X17.492
G01 X16.875 Y15.137
G01 X16.860 Y15.141
G01 X16.284 Y15.379
G01 X16.271 Y15.387
G01 X15.766 Y15.777
G01 X15.387 Y16.271
G01 X15.379 Y16.284
G01 X15.141 Y16.860
G01 X15.137 Y16.875
G01 X15.134 Y16.894
G00 Z20.000
G00 X9.714 Y17.085
G00 Z-1.500
G01 Z-2.000 F120
G01 X9.486 Y17.093 F400
G01 X9.496 Y17.385
G01 Y17.455
G01 X9.480 Y17.747
G01 X9.473 Y17.817
G01 X9.430 Y18.105
G01 X9.417 Y18.175
G01 X9.348 Y18.458
G01 X9.329 Y18.526
G01 X9.233 Y18.801
G01 X9.208 Y18.867
G01 X9.088 Y19.133
G01 X9.057 Y19.196
G01 X8.913 Y19.450
G01 X8.876 Y19.510
G01 X8.709 Y19.749
G01 X8.667 Y19.806
G01 X8.479 Y20.029
G01 X8.432 Y20.081
G01 X8.224 Y20.286
G01 X8.172 Y20.334
G01 X7.946 Y20.519
G01 X7.890 Y20.562
G01 X7.798 Y20.624
G01 X7.790 Y20.650
G03 X7.707 Y21.413 I-0.4518 J0.3369
G01 X6.957 Y22.053
G03 X6.380 Y22.320 I-0.8711 J-1.1260
G01 X6.410 Y22.391
G02 X14.834 Y29.161 I10.8883 J-4.9212
G01 X14.909 Y28.706
G03 X15.522 Y28.275 I0.5381 J0.1136
G02 X17.927 Y28.393 I1.7145 J-10.3741
G03 X18.460 Y28.920 I-0.0165 J0.5498
G01 X18.478 Y29.352
G01 X18.577 Y29.345
G02 X28.874 Y20.653 I-1.1847 J-11.8494
G01 X28.424 Y20.550
G03 X28.020 Y20.020 I0.1464 J-0.5302
G01 X28.023 Y19.966
G01 X28.031 Y19.911
G02 X9.074 Y10.149 I-10.7171 J-2.4751
G03 X8.366 Y10.127 I-0.3407 J-0.4317
G01 X8.053 Y9.846
G01 X8.039 Y9.836
G02 X6.417 Y12.458 I8.8278 J7.2713
G01 X7.753 Y13.004
G03 X8.051 Y13.774 I-0.1901 J0.5166
G01 X7.849 Y14.163
G01 X7.854 Y14.187
G01 X7.945 Y14.252
G01 X8.001 Y14.294
G01 X8.222 Y14.484
G01 X8.274 Y14.532
G01 X8.477 Y14.741
G01 X8.525 Y14.794
G01 X8.708 Y15.021
G01 X8.750 Y15.077
G01 X8.912 Y15.320
G01 X8.949 Y15.380
G01 X9.087 Y15.637
G01 X9.118 Y15.700
G01 X9.233 Y15.968
G01 X9.258 Y16.034
G01 X9.347 Y16.312
G01 X9.367 Y16.380
G01 X9.430 Y16.664
G01 X9.443 Y16.734
G01 X9.480 Y17.023
G01 X9.486 Y17.093
G00 Z20.000


(No. 2 Hole: Hole 3)
G00 X9.226 Y8.603 Z20.000
G00 Z0.500
G01 Z-0.400 F120
G02 X6.022 Y13.464 I8.0807 J8.8125 F400
G01 X5.954 Y13.555
G01 X5.731 Y13.702
G01 X5.954 Y13.555
G01 X6.022 Y13.464
G01 X6.069 Y13.477
G01 X6.418 Y13.539
G01 X6.471 Y13.551
G01 X6.811 Y13.648
G01 X6.863 Y13.666
G01 X7.191 Y13.798
G01 X7.241 Y13.821
G01 X7.553 Y13.987
G01 X7.600 Y14.015
G01 X7.894 Y14.211
G01 X7.938 Y14.244
G01 X8.210 Y14.470
G01 X8.250 Y14.508
G01 X8.497 Y14.761
G01 X8.534 Y14.802
G01 X8.753 Y15.079
G01 X8.785 Y15.124
G01 X8.974 Y15.422
G01 X9.001 Y15.470
G01 X9.159 Y15.787
G01 X9.181 Y15.837
G01 X9.305 Y16.168
G01 X9.322 Y16.220
G01 X9.411 Y16.563
G01 X9.422 Y16.616
G01 X9.475 Y16.966
G01 X9.480 Y17.021
G01 X9.497 Y17.374
G01 Y17.429
G01 X9.477 Y17.782
G01 X9.471 Y17.836
G01 X9.415 Y18.185
G01 X9.403 Y18.239
G01 X9.311 Y18.580
G01 X9.294 Y18.632
G01 X9.167 Y18.962
G01 X9.144 Y19.013
G01 X8.984 Y19.328
G01 X8.956 Y19.375
G01 X8.764 Y19.672
G01 X8.732 Y19.716
G01 X8.510 Y19.991
G01 X8.473 Y20.032
G01 X8.224 Y20.283
G01 X8.183 Y20.320
G01 X7.909 Y20.544
G01 X7.865 Y20.576
G01 X7.570 Y20.770
G01 X7.522 Y20.798
G01 X7.208 Y20.960
G01 X7.158 Y20.983
G01 X6.829 Y21.112
G01 X6.777 Y21.129
G01 X6.436 Y21.223
G01 X6.382 Y21.235
G01 X6.034 Y21.294
G01 X5.988 Y21.306
G01 X5.686 Y21.084
G01 X5.988 Y21.306
G02 X28.678 Y13.583 I11.3413 J-3.8715
G02 X9.226 Y8.603 I-11.3491 J3.8507
G01 Z-0.800 F120
G02 X6.022 Y13.464 I8.0807 J8.8125 F400
G01 X5.954 Y13.555
G01 X5.731 Y13.702
G01 X5.954 Y13.555
G01 X6.022 Y13.464
G01 X6.069 Y13.477
G01 X6.418 Y13.539
G01 X6.471 Y13.551
G01 X6.811 Y13.648
G01 X6.863 Y13.666
G01 X7.191 Y13.798
G01 X7.241 Y13.821
G01 X7.553 Y13.987
G01 X7.600 Y14.015
G01 X7.894 Y14.211
G01 X7.938 Y14.244
G01 X8.210 Y14.470
G01 X8.250 Y14.508
G01 X8.497 Y14.761
G01 X8.534 Y14.802
G01 X8.753 Y15.079
G01 X8.785 Y15.124
G01 X8.974 Y15.422
G01 X9.001 Y15.470
G01 X9.159 Y15.787
G01 X9.181 Y15.837
G01 X9.305 Y16.168
G01 X9.322 Y16.220
G01 X9.411 Y16.563
G01 X9.422 Y16.616
G01 X9.475 Y16.966
G01 X9.480 Y17.021
G01 X9.497 Y17.374
G01 Y17.429
G01 X9.477 Y17.782
G01 X9.471 Y17.836
G01 X9.415 Y18.185
G01 X9.403 Y18.239
G01 X9.311 Y18.580
G01 X9.294 Y18.632
G01 X9.167 Y18.962
G01 X9.144 Y19.013
G01 X8.984 Y19.328
G01 X8.956 Y19.375
G01 X8.764 Y19.672
G01 X8.732 Y19.716
G01 X8.510 Y19.991
G01 X8.473 Y20.032
G01 X8.224 Y20.283
G01 X8.183 Y20.320
G01 X7.909 Y20.544
G01 X7.865 Y20.576
G01 X7.570 Y20.770
G01 X7.522 Y20.798
G01 X7.208 Y20.960
G01 X7.158 Y20.983
G01 X6.829 Y21.112
G01 X6.777 Y21.129
G01 X6.436 Y21.223
G01 X6.382 Y21.235
G01 X6.034 Y21.294
G01 X5.988 Y21.306
G01 X5.686 Y21.084
G01 X5.988 Y21.306
G02 X28.678 Y13.583 I11.3413 J-3.8715
G02 X9.226 Y8.603 I-11.3491 J3.8507
G01 Z-1.000 F120
G02 X6.022 Y13.464 I8.0807 J8.8125 F400
G01 X5.954 Y13.555
G01 X5.731 Y13.702
G01 X5.954 Y13.555
G01 X6.022 Y13.464
G01 X6.069 Y13.477
G01 X6.418 Y13.539
G01 X6.471 Y13.551
G01 X6.811 Y13.648
G01 X6.863 Y13.666
G01 X7.191 Y13.798
G01 X7.241 Y13.821
G01 X7.553 Y13.987
G01 X7.600 Y14.015
G01 X7.894 Y14.211
G01 X7.938 Y14.244
G01 X8.210 Y14.470
G01 X8.250 Y14.508
G01 X8.497 Y14.761
G01 X8.534 Y14.802
G01 X8.753 Y15.079
G01 X8.785 Y15.124
G01 X8.974 Y15.422
G01 X9.001 Y15.470
G01 X9.159 Y15.787
G01 X9.181 Y15.837
G01 X9.305 Y16.168
G01 X9.322 Y16.220
G01 X9.411 Y16.563
G01 X9.422 Y16.616
G01 X9.475 Y16.966
G01 X9.480 Y17.021
G01 X9.497 Y17.374
G01 Y17.429
G01 X9.477 Y17.782
G01 X9.471 Y17.836
G01 X9.415 Y18.185
G01 X9.403 Y18.239
G01 X9.311 Y18.580
G01 X9.294 Y18.632
G01 X9.167 Y18.962
G01 X9.144 Y19.013
G01 X8.984 Y19.328
G01 X8.956 Y19.375
G01 X8.764 Y19.672
G01 X8.732 Y19.716
G01 X8.510 Y19.991
G01 X8.473 Y20.032
G01 X8.224 Y20.283
G01 X8.183 Y20.320
G01 X7.909 Y20.544
G01 X7.865 Y20.576
G01 X7.570 Y20.770
G01 X7.522 Y20.798
G01 X7.208 Y20.960
G01 X7.158 Y20.983
G01 X6.829 Y21.112
G01 X6.777 Y21.129
G01 X6.436 Y21.223
G01 X6.382 Y21.235
G01 X6.034 Y21.294
G01 X5.988 Y21.306
G01 X5.686 Y21.084
G01 X5.988 Y21.306
G02 X28.678 Y13.583 I11.3413 J-3.8715
G02 X9.226 Y8.603 I-11.3491 J3.8507
G00 Z20.000


(No. 3 Drill: Drill 1)
G00 X8.034 Y11.606 Z20.000
G00 Z0.500
G01 Z-0.400 F120
G00 Z0.500
G00 Z0.100
G01 Z-0.800
G00 Z0.500
G00 Z-0.300
G01 Z-1.200
G00 Z0.500
G00 Z-0.700
G01 Z-1.600
G00 Z0.500
G00 Z-1.100
G01 Z-2.000
G00 Z0.500
G00 Z-1.500
G01 Z-2.400
G00 Z0.500
G00 Z-1.900
G01 Z-2.800
G00 Z0.500
G00 Z-2.300
G01 Z-3.200
G00 Z0.500
G00 Z-2.700
G01 Z-3.500
G00 Z20.000


(No. 4 Drill: Drill 2)
G00 X9.779 Y18.921 Z20.000
G00 Z0.500
G01 Z-0.400 F120
G00 Z0.500
G00 Z0.100
G01 Z-0.800
G00 Z0.500
G00 Z-0.300
G01 Z-1.200
G00 Z0.500
G00 Z-0.700
G01 Z-1.600
G00 Z0.500
G00 Z-1.100
G01 Z-2.000
G00 Z0.500
G00 Z-1.500
G01 Z-2.400
G00 Z0.500
G00 Z-1.900
G01 Z-2.800
G00 Z0.500
G00 Z-2.300
G01 Z-3.200
G00 Z0.500
G00 Z-2.700
G01 Z-3.500
G00 Z20.000


(No. 5 Drill: Drill 3)
G00 X19.119 Y28.871 Z20.000
G00 Z0.500
G01 Z-0.400 F120
G00 Z0.500
G00 Z0.100
G01 Z-0.800
G00 Z0.500
G00 Z-0.300
G01 Z-1.200
G00 Z0.500
G00 Z-0.700
G01 Z-1.600
G00 Z0.500
G00 Z-1.100
G01 Z-2.000
G00 Z0.500
G00 Z-1.500
G01 Z-2.400
G00 Z0.500
G00 Z-1.900
G01 Z-2.800
G00 Z0.500
G00 Z-2.300
G01 Z-3.200
G00 Z0.500
G00 Z-2.700
G01 Z-3.500
G00 Z20.000


(No. 6 Drill: Drill 4)
G00 X23.138 Y27.541 Z20.000
G00 Z0.500
G01 Z-0.400 F120
G00 Z0.500
G00 Z0.100
G01 Z-0.800
G00 Z0.500
G00 Z-0.300
G01 Z-1.200
G00 Z0.500
G00 Z-0.700
G01 Z-1.600
G00 Z0.500
G00 Z-1.100
G01 Z-2.000
G00 Z0.500
G00 Z-1.500
G01 Z-2.400
G00 Z0.500
G00 Z-1.900
G01 Z-2.800
G00 Z0.500
G00 Z-2.300
G01 Z-3.200
G00 Z0.500
G00 Z-2.700
G01 Z-3.500
G00 Z20.000


(No. 7 Helical drill: Helical drill 2)
G00 X4.495 Y4.000 Z20.000
G00 Z0.500
G02 X3.753 Y3.571 Z0.367 I-0.4950 J0.0000 F120
G02 Y4.429 Z0.233 I0.2475 J0.4287
G02 X4.495 Y4.000 Z0.100 I0.2475 J-0.4287
G02 X3.753 Y3.571 Z0.067 I-0.4950 J0.0000
G02 Y4.429 Z0.033 I0.2475 J0.4287
G02 X4.495 Y4.000 Z0.000 I0.2475 J-0.4287
G02 X3.753 Y3.571 I-0.4950 J0.0000
G02 Y4.429 I0.2475 J0.4287
G02 X4.495 Y4.000 I0.2475 J-0.4287
G02 X3.753 Y3.571 Z-0.133 I-0.4950 J0.0000
G02 Y4.429 Z-0.267 I0.2475 J0.4287
G02 X4.495 Y4.000 Z-0.400 I0.2475 J-0.4287
G02 X3.753 Y3.571 I-0.4950 J0.0000
G02 Y4.429 I0.2475 J0.4287
G02 X4.495 Y4.000 I0.2475 J-0.4287
G02 X4.483 Y3.800 I-0.4994 J-0.0697 F400
G02 X4.389 Y3.611 I-0.5139 J0.1374
G02 X4.221 Y3.466 I-0.4419 J0.3433
G02 X4.000 Y3.395 I-0.2876 J0.5120
G02 X3.758 Y3.416 I-0.0698 J0.6110
G02 X3.533 Y3.533 I0.1800 J0.6169
G02 X3.365 Y3.737 I0.4220 J0.5207
G02 X3.285 Y4.000 I0.6148 J0.3302
G02 X3.314 Y4.284 I0.7221 J0.0698
G02 X3.456 Y4.544 I0.7195 J-0.2225
G02 X3.695 Y4.737 I0.5992 J-0.5005
G02 X4.000 Y4.825 I0.3727 J-0.7173
G02 X4.326 Y4.788 I0.0698 J-0.8330
G02 X4.622 Y4.622 I-0.2649 J-0.8219
G02 X4.838 Y4.347 I-0.5788 J-0.6775
G02 X4.935 Y4.000 I-0.8196 J-0.4150
G02 X4.889 Y3.632 I-0.9436 J-0.0698
G02 X4.700 Y3.300 I-0.9240 J0.3073
G02 X4.389 Y3.060 I-0.7557 J0.6570
G02 X4.000 Y2.955 I-0.4573 J0.9217
G02 X3.590 Y3.009 I-0.0697 J1.0542
G02 X3.240 Y3.240 I0.4051 J0.9944
G02 X3.007 Y3.589 I0.7601 J0.7601
G02 X2.925 Y4.000 I0.9932 J0.4114
G02 X3.007 Y4.411 I1.0750 J0.0000
G02 X3.240 Y4.760 I0.9932 J-0.4114
G02 X3.589 Y4.993 I0.7601 J-0.7601
G02 X4.000 Y5.075 I0.4114 J-0.9932
G02 X4.411 Y4.993 I0.0000 J-1.0750
G02 X4.760 Y4.760 I-0.4114 J-0.9932
G02 X4.993 Y4.411 I-0.7601 J-0.7601
G02 X5.075 Y4.000 I-0.9932 J-0.4114
G02 X3.463 Y3.069 I-1.0750 J0.0000
G02 Y4.931 I0.5375 J0.9310
G02 X5.075 Y4.000 I0.5375 J-0.9310
G02 X3.505 I-0.7850 J0.0000
G02 X4.495 I0.4950 J0.0000
G02 X3.753 Y3.571 Z-0.533 I-0.4950 J0.0000 F120
G02 Y4.429 Z-0.667 I0.2475 J0.4287
G02 X4.495 Y4.000 Z-0.800 I0.2475 J-0.4287
G02 X3.753 Y3.571 I-0.4950 J0.0000
G02 Y4.429 I0.2475 J0.4287
G02 X4.495 Y4.000 I0.2475 J-0.4287
G02 X4.483 Y3.800 I-0.4994 J-0.0697 F400
G02 X4.389 Y3.611 I-0.5139 J0.1374
G02 X4.221 Y3.466 I-0.4419 J0.3433
G02 X4.000 Y3.395 I-0.2876 J0.5120
G02 X3.758 Y3.416 I-0.0698 J0.6110
G02 X3.533 Y3.533 I0.1800 J0.6169
G02 X3.365 Y3.737 I0.4220 J0.5207
G02 X3.285 Y4.000 I0.6148 J0.3302
G02 X3.314 Y4.284 I0.7221 J0.0698
G02 X3.456 Y4.544 I0.7195 J-0.2225
G02 X3.695 Y4.737 I0.5992 J-0.5005
G02 X4.000 Y4.825 I0.3727 J-0.7173
G02 X4.326 Y4.788 I0.0698 J-0.8330
G02 X4.622 Y4.622 I-0.2649 J-0.8219
G02 X4.838 Y4.347 I-0.5788 J-0.6775
G02 X4.935 Y4.000 I-0.8196 J-0.4150
G02 X4.889 Y3.632 I-0.9436 J-0.0698
G02 X4.700 Y3.300 I-0.9240 J0.3073
G02 X4.389 Y3.060 I-0.7557 J0.6570
G02 X4.000 Y2.955 I-0.4573 J0.9217
G02 X3.590 Y3.009 I-0.0697 J1.0542
G02 X3.240 Y3.240 I0.4051 J0.9944
G02 X3.007 Y3.589 I0.7601 J0.7601
G02 X2.925 Y4.000 I0.9932 J0.4114
G02 X3.007 Y4.411 I1.0750 J0.0000
G02 X3.240 Y4.760 I0.9932 J-0.4114
G02 X3.589 Y4.993 I0.7601 J-0.7601
G02 X4.000 Y5.075 I0.4114 J-0.9932
G02 X4.411 Y4.993 I0.0000 J-1.0750
G02 X4.760 Y4.760 I-0.4114 J-0.9932
G02 X4.993 Y4.411 I-0.7601 J-0.7601
G02 X5.075 Y4.000 I-0.9932 J-0.4114
G02 X3.463 Y3.069 I-1.0750 J0.0000
G02 Y4.931 I0.5375 J0.9310
G02 X5.075 Y4.000 I0.5375 J-0.9310
G02 X3.505 I-0.7850 J0.0000
G02 X4.495 I0.4950 J0.0000
G02 X3.753 Y3.571 Z-0.933 I-0.4950 J0.0000 F120
G02 Y4.429 Z-1.067 I0.2475 J0.4287
G02 X4.495 Y4.000 Z-1.200 I0.2475 J-0.4287
G02 X3.753 Y3.571 I-0.4950 J0.0000
G02 Y4.429 I0.2475 J0.4287
G02 X4.495 Y4.000 I0.2475 J-0.4287
G02 X4.483 Y3.800 I-0.4994 J-0.0697 F400
G02 X4.389 Y3.611 I-0.5139 J0.1374
G02 X4.221 Y3.466 I-0.4419 J0.3433
G02 X4.000 Y3.395 I-0.2876 J0.5120
G02 X3.758 Y3.416 I-0.0698 J0.6110
G02 X3.533 Y3.533 I0.1800 J0.6169
G02 X3.365 Y3.737 I0.4220 J0.5207
G02 X3.285 Y4.000 I0.6148 J0.3302
G02 X3.314 Y4.284 I0.7221 J0.0698
G02 X3.456 Y4.544 I0.7195 J-0.2225
G02 X3.695 Y4.737 I0.5992 J-0.5005
G02 X4.000 Y4.825 I0.3727 J-0.7173
G02 X4.326 Y4.788 I0.0698 J-0.8330
G02 X4.622 Y4.622 I-0.2649 J-0.8219
G02 X4.838 Y4.347 I-0.5788 J-0.6775
G02 X4.935 Y4.000 I-0.8196 J-0.4150
G02 X4.889 Y3.632 I-0.9436 J-0.0698
G02 X4.700 Y3.300 I-0.9240 J0.3073
G02 X4.389 Y3.060 I-0.7557 J0.6570
G02 X4.000 Y2.955 I-0.4573 J0.9217
G02 X3.590 Y3.009 I-0.0697 J1.0542
G02 X3.240 Y3.240 I0.4051 J0.9944
G02 X3.007 Y3.589 I0.7601 J0.7601
G02 X2.925 Y4.000 I0.9932 J0.4114
G02 X3.007 Y4.411 I1.0750 J0.0000
G02 X3.240 Y4.760 I0.9932 J-0.4114
G02 X3.589 Y4.993 I0.7601 J-0.7601
G02 X4.000 Y5.075 I0.4114 J-0.9932
G02 X4.411 Y4.993 I0.0000 J-1.0750
G02 X4.760 Y4.760 I-0.4114 J-0.9932
G02 X4.993 Y4.411 I-0.7601 J-0.7601
G02 X5.075 Y4.000 I-0.9932 J-0.4114
G02 X3.463 Y3.069 I-1.0750 J0.0000
G02 Y4.931 I0.5375 J0.9310
G02 X5.075 Y4.000 I0.5375 J-0.9310
G02 X3.505 I-0.7850 J0.0000
G02 X4.495 I0.4950 J0.0000
G02 X3.753 Y3.571 Z-1.333 I-0.4950 J0.0000 F120
G02 Y4.429 Z-1.467 I0.2475 J0.4287
G02 X4.495 Y4.000 Z-1.600 I0.2475 J-0.4287
G02 X3.753 Y3.571 I-0.4950 J0.0000
G02 Y4.429 I0.2475 J0.4287
G02 X4.495 Y4.000 I0.2475 J-0.4287
G02 X4.483 Y3.800 I-0.4994 J-0.0697 F400
G02 X4.389 Y3.611 I-0.5139 J0.1374
G02 X4.221 Y3.466 I-0.4419 J0.3433
G02 X4.000 Y3.395 I-0.2876 J0.5120
G02 X3.758 Y3.416 I-0.0698 J0.6110
G02 X3.533 Y3.533 I0.1800 J0.6169
G02 X3.365 Y3.737 I0.4220 J0.5207
G02 X3.285 Y4.000 I0.6148 J0.3302
G02 X3.314 Y4.284 I0.7221 J0.0698
G02 X3.456 Y4.544 I0.7195 J-0.2225
G02 X3.695 Y4.737 I0.5992 J-0.5005
G02 X4.000 Y4.825 I0.3727 J-0.7173
G02 X4.326 Y4.788 I0.0698 J-0.8330
G02 X4.622 Y4.622 I-0.2649 J-0.8219
G02 X4.838 Y4.347 I-0.5788 J-0.6775
G02 X4.935 Y4.000 I-0.8196 J-0.4150
G02 X4.889 Y3.632 I-0.9436 J-0.0698
G02 X4.700 Y3.300 I-0.9240 J0.3073
G02 X4.389 Y3.060 I-0.7557 J0.6570
G02 X4.000 Y2.955 I-0.4573 J0.9217
G02 X3.590 Y3.009 I-0.0697 J1.0542
G02 X3.240 Y3.240 I0.4051 J0.9944
G02 X3.007 Y3.589 I0.7601 J0.7601
G02 X2.925 Y4.000 I0.9932 J0.4114
G02 X3.007 Y4.411 I1.0750 J0.0000
G02 X3.240 Y4.760 I0.9932 J-0.4114
G02 X3.589 Y4.993 I0.7601 J-0.7601
G02 X4.000 Y5.075 I0.4114 J-0.9932
G02 X4.411 Y4.993 I0.0000 J-1.0750
G02 X4.760 Y4.760 I-0.4114 J-0.9932
G02 X4.993 Y4.411 I-0.7601 J-0.7601
G02 X5.075 Y4.000 I-0.9932 J-0.4114
G02 X3.463 Y3.069 I-1.0750 J0.0000
G02 Y4.931 I0.5375 J0.9310
G02 X5.075 Y4.000 I0.5375 J-0.9310
G02 X3.505 I-0.7850 J0.0000
G02 X4.495 I0.4950 J0.0000
G02 X3.753 Y3.571 Z-1.733 I-0.4950 J0.0000 F120
G02 Y4.429 Z-1.867 I0.2475 J0.4287
G02 X4.495 Y4.000 Z-2.000 I0.2475 J-0.4287
G02 X3.753 Y3.571 I-0.4950 J0.0000
G02 Y4.429 I0.2475 J0.4287
G02 X4.495 Y4.000 I0.2475 J-0.4287
G02 X4.483 Y3.800 I-0.4994 J-0.0697 F400
G02 X4.389 Y3.611 I-0.5139 J0.1374
G02 X4.221 Y3.466 I-0.4419 J0.3433
G02 X4.000 Y3.395 I-0.2876 J0.5120
G02 X3.758 Y3.416 I-0.0698 J0.6110
G02 X3.533 Y3.533 I0.1800 J0.6169
G02 X3.365 Y3.737 I0.4220 J0.5207
G02 X3.285 Y4.000 I0.6148 J0.3302
G02 X3.314 Y4.284 I0.7221 J0.0698
G02 X3.456 Y4.544 I0.7195 J-0.2225
G02 X3.695 Y4.737 I0.5992 J-0.5005
G02 X4.000 Y4.825 I0.3727 J-0.7173
G02 X4.326 Y4.788 I0.0698 J-0.8330
G02 X4.622 Y4.622 I-0.2649 J-0.8219
G02 X4.838 Y4.347 I-0.5788 J-0.6775
G02 X4.935 Y4.000 I-0.8196 J-0.4150
G02 X4.889 Y3.632 I-0.9436 J-0.0698
G02 X4.700 Y3.300 I-0.9240 J0.3073
G02 X4.389 Y3.060 I-0.7557 J0.6570
G02 X4.000 Y2.955 I-0.4573 J0.9217
G02 X3.590 Y3.009 I-0.0697 J1.0542
G02 X3.240 Y3.240 I0.4051 J0.9944
G02 X3.007 Y3.589 I0.7601 J0.7601
G02 X2.925 Y4.000 I0.9932 J0.4114
G02 X3.007 Y4.411 I1.0750 J0.0000
G02 X3.240 Y4.760 I0.9932 J-0.4114
G02 X3.589 Y4.993 I0.7601 J-0.7601
G02 X4.000 Y5.075 I0.4114 J-0.9932
G02 X4.411 Y4.993 I0.0000 J-1.0750
G02 X4.760 Y4.760 I-0.4114 J-0.9932
G02 X4.993 Y4.411 I-0.7601 J-0.7601
G02 X5.075 Y4.000 I-0.9932 J-0.4114
G02 X3.463 Y3.069 I-1.0750 J0.0000
G02 Y4.931 I0.5375 J0.9310
G02 X5.075 Y4.000 I0.5375 J-0.9310
G02 X3.505 I-0.7850 J0.0000
G02 X4.495 I0.4950 J0.0000
G02 X3.753 Y3.571 Z-2.133 I-0.4950 J0.0000 F120
G02 Y4.429 Z-2.267 I0.2475 J0.4287
G02 X4.495 Y4.000 Z-2.400 I0.2475 J-0.4287
G02 X3.753 Y3.571 I-0.4950 J0.0000
G02 Y4.429 I0.2475 J0.4287
G02 X4.495 Y4.000 I0.2475 J-0.4287
G02 X4.483 Y3.800 I-0.4994 J-0.0697 F400
G02 X4.389 Y3.611 I-0.5139 J0.1374
G02 X4.221 Y3.466 I-0.4419 J0.3433
G02 X4.000 Y3.395 I-0.2876 J0.5120
G02 X3.758 Y3.416 I-0.0698 J0.6110
G02 X3.533 Y3.533 I0.1800 J0.6169
G02 X3.365 Y3.737 I0.4220 J0.5207
G02 X3.285 Y4.000 I0.6148 J0.3302
G02 X3.314 Y4.284 I0.7221 J0.0698
G02 X3.456 Y4.544 I0.7195 J-0.2225
G02 X3.695 Y4.737 I0.5992 J-0.5005
G02 X4.000 Y4.825 I0.3727 J-0.7173
G02 X4.326 Y4.788 I0.0698 J-0.8330
G02 X4.622 Y4.622 I-0.2649 J-0.8219
G02 X4.838 Y4.347 I-0.5788 J-0.6775
G02 X4.935 Y4.000 I-0.8196 J-0.4150
G02 X4.889 Y3.632 I-0.9436 J-0.0698
G02 X4.700 Y3.300 I-0.9240 J0.3073
G02 X4.389 Y3.060 I-0.7557 J0.6570
G02 X4.000 Y2.955 I-0.4573 J0.9217
G02 X3.590 Y3.009 I-0.0697 J1.0542
G02 X3.240 Y3.240 I0.4051 J0.9944
G02 X3.007 Y3.589 I0.7601 J0.7601
G02 X2.925 Y4.000 I0.9932 J0.4114
G02 X3.007 Y4.411 I1.0750 J0.0000
G02 X3.240 Y4.760 I0.9932 J-0.4114
G02 X3.589 Y4.993 I0.7601 J-0.7601
G02 X4.000 Y5.075 I0.4114 J-0.9932
G02 X4.411 Y4.993 I0.0000 J-1.0750
G02 X4.760 Y4.760 I-0.4114 J-0.9932
G02 X4.993 Y4.411 I-0.7601 J-0.7601
G02 X5.075 Y4.000 I-0.9932 J-0.4114
G02 X3.463 Y3.069 I-1.0750 J0.0000
G02 Y4.931 I0.5375 J0.9310
G02 X5.075 Y4.000 I0.5375 J-0.9310
G02 X3.505 I-0.7850 J0.0000
G02 X4.495 I0.4950 J0.0000
G02 X3.753 Y3.571 Z-2.533 I-0.4950 J0.0000 F120
G02 Y4.429 Z-2.667 I0.2475 J0.4287
G02 X4.495 Y4.000 Z-2.800 I0.2475 J-0.4287
G02 X3.753 Y3.571 I-0.4950 J0.0000
G02 Y4.429 I0.2475 J0.4287
G02 X4.495 Y4.000 I0.2475 J-0.4287
G02 X4.483 Y3.800 I-0.4994 J-0.0697 F400
G02 X4.389 Y3.611 I-0.5139 J0.1374
G02 X4.221 Y3.466 I-0.4419 J0.3433
G02 X4.000 Y3.395 I-0.2876 J0.5120
G02 X3.758 Y3.416 I-0.0698 J0.6110
G02 X3.533 Y3.533 I0.1800 J0.6169
G02 X3.365 Y3.737 I0.4220 J0.5207
G02 X3.285 Y4.000 I0.6148 J0.3302
G02 X3.314 Y4.284 I0.7221 J0.0698
G02 X3.456 Y4.544 I0.7195 J-0.2225
G02 X3.695 Y4.737 I0.5992 J-0.5005
G02 X4.000 Y4.825 I0.3727 J-0.7173
G02 X4.326 Y4.788 I0.0698 J-0.8330
G02 X4.622 Y4.622 I-0.2649 J-0.8219
G02 X4.838 Y4.347 I-0.5788 J-0.6775
G02 X4.935 Y4.000 I-0.8196 J-0.4150
G02 X4.889 Y3.632 I-0.9436 J-0.0698
G02 X4.700 Y3.300 I-0.9240 J0.3073
G02 X4.389 Y3.060 I-0.7557 J0.6570
G02 X4.000 Y2.955 I-0.4573 J0.9217
G02 X3.590 Y3.009 I-0.0697 J1.0542
G02 X3.240 Y3.240 I0.4051 J0.9944
G02 X3.007 Y3.589 I0.7601 J0.7601
G02 X2.925 Y4.000 I0.9932 J0.4114
G02 X3.007 Y4.411 I1.0750 J0.0000
G02 X3.240 Y4.760 I0.9932 J-0.4114
G02 X3.589 Y4.993 I0.7601 J-0.7601
G02 X4.000 Y5.075 I0.4114 J-0.9932
G02 X4.411 Y4.993 I0.0000 J-1.0750
G02 X4.760 Y4.760 I-0.4114 J-0.9932
G02 X4.993 Y4.411 I-0.7601 J-0.7601
G02 X5.075 Y4.000 I-0.9932 J-0.4114
G02 X3.463 Y3.069 I-1.0750 J0.0000
G02 Y4.931 I0.5375 J0.9310
G02 X5.075 Y4.000 I0.5375 J-0.9310
G02 X3.505 I-0.7850 J0.0000
G02 X4.495 I0.4950 J0.0000
G02 X3.753 Y3.571 Z-2.933 I-0.4950 J0.0000 F120
G02 Y4.429 Z-3.067 I0.2475 J0.4287
G02 X4.495 Y4.000 Z-3.200 I0.2475 J-0.4287
G02 X3.753 Y3.571 I-0.4950 J0.0000
G02 Y4.429 I0.2475 J0.4287
G02 X4.495 Y4.000 I0.2475 J-0.4287
G02 X4.483 Y3.800 I-0.4994 J-0.0697 F400
G02 X4.389 Y3.611 I-0.5139 J0.1374
G02 X4.221 Y3.466 I-0.4419 J0.3433
G02 X4.000 Y3.395 I-0.2876 J0.5120
G02 X3.758 Y3.416 I-0.0698 J0.6110
G02 X3.533 Y3.533 I0.1800 J0.6169
G02 X3.365 Y3.737 I0.4220 J0.5207
G02 X3.285 Y4.000 I0.6148 J0.3302
G02 X3.314 Y4.284 I0.7221 J0.0698
G02 X3.456 Y4.544 I0.7195 J-0.2225
G02 X3.695 Y4.737 I0.5992 J-0.5005
G02 X4.000 Y4.825 I0.3727 J-0.7173
G02 X4.326 Y4.788 I0.0698 J-0.8330
G02 X4.622 Y4.622 I-0.2649 J-0.8219
G02 X4.838 Y4.347 I-0.5788 J-0.6775
G02 X4.935 Y4.000 I-0.8196 J-0.4150
G02 X4.889 Y3.632 I-0.9436 J-0.0698
G02 X4.700 Y3.300 I-0.9240 J0.3073
G02 X4.389 Y3.060 I-0.7557 J0.6570
G02 X4.000 Y2.955 I-0.4573 J0.9217
G02 X3.590 Y3.009 I-0.0697 J1.0542
G02 X3.240 Y3.240 I0.4051 J0.9944
G02 X3.007 Y3.589 I0.7601 J0.7601
G02 X2.925 Y4.000 I0.9932 J0.4114
G02 X3.007 Y4.411 I1.0750 J0.0000
G02 X3.240 Y4.760 I0.9932 J-0.4114
G02 X3.589 Y4.993 I0.7601 J-0.7601
G02 X4.000 Y5.075 I0.4114 J-0.9932
G02 X4.411 Y4.993 I0.0000 J-1.0750
G02 X4.760 Y4.760 I-0.4114 J-0.9932
G02 X4.993 Y4.411 I-0.7601 J-0.7601
G02 X5.075 Y4.000 I-0.9932 J-0.4114
G02 X3.463 Y3.069 I-1.0750 J0.0000
G02 Y4.931 I0.5375 J0.9310
G02 X5.075 Y4.000 I0.5375 J-0.9310
G02 X3.505 I-0.7850 J0.0000
G02 X4.495 I0.4950 J0.0000
G02 X3.753 Y3.571 Z-3.300 I-0.4950 J0.0000 F120
G02 Y4.429 Z-3.400 I0.2475 J0.4287
G02 X4.495 Y4.000 Z-3.500 I0.2475 J-0.4287
G02 X3.753 Y3.571 I-0.4950 J0.0000
G02 Y4.429 I0.2475 J0.4287
G02 X4.495 Y4.000 I0.2475 J-0.4287
G02 X4.483 Y3.800 I-0.4994 J-0.0697 F400
G02 X4.389 Y3.611 I-0.5139 J0.1374
G02 X4.221 Y3.466 I-0.4419 J0.3433
G02 X4.000 Y3.395 I-0.2876 J0.5120
G02 X3.758 Y3.416 I-0.0698 J0.6110
G02 X3.533 Y3.533 I0.1800 J0.6169
G02 X3.365 Y3.737 I0.4220 J0.5207
G02 X3.285 Y4.000 I0.6148 J0.3302
G02 X3.314 Y4.284 I0.7221 J0.0698
G02 X3.456 Y4.544 I0.7195 J-0.2225
G02 X3.695 Y4.737 I0.5992 J-0.5005
G02 X4.000 Y4.825 I0.3727 J-0.7173
G02 X4.326 Y4.788 I0.0698 J-0.8330
G02 X4.622 Y4.622 I-0.2649 J-0.8219
G02 X4.838 Y4.347 I-0.5788 J-0.6775
G02 X4.935 Y4.000 I-0.8196 J-0.4150
G02 X4.889 Y3.632 I-0.9436 J-0.0698
G02 X4.700 Y3.300 I-0.9240 J0.3073
G02 X4.389 Y3.060 I-0.7557 J0.6570
G02 X4.000 Y2.955 I-0.4573 J0.9217
G02 X3.590 Y3.009 I-0.0697 J1.0542
G02 X3.240 Y3.240 I0.4051 J0.9944
G02 X3.007 Y3.589 I0.7601 J0.7601
G02 X2.925 Y4.000 I0.9932 J0.4114
G02 X3.007 Y4.411 I1.0750 J0.0000
G02 X3.240 Y4.760 I0.9932 J-0.4114
G02 X3.589 Y4.993 I0.7601 J-0.7601
G02 X4.000 Y5.075 I0.4114 J-0.9932
G02 X4.411 Y4.993 I0.0000 J-1.0750
G02 X4.760 Y4.760 I-0.4114 J-0.9932
G02 X4.993 Y4.411 I-0.7601 J-0.7601
G02 X5.075 Y4.000 I-0.9932 J-0.4114
G02 X3.463 Y3.069 I-1.0750 J0.0000
G02 Y4.931 I0.5375 J0.9310
G02 X5.075 Y4.000 I0.5375 J-0.9310
G02 X4.525 Y3.450 Z-3.000 I-0.5500 J0.0000 F120
G00 Z20.000


(No. 8 Helical drill: Helical drill 3)
G00 X4.495 Y31.000 Z20.000
G00 Z0.500
G02 X3.753 Y30.571 Z0.367 I-0.4950 J0.0000 F120
G02 Y31.429 Z0.233 I0.2475 J0.4287
G02 X4.495 Y31.000 Z0.100 I0.2475 J-0.4287
G02 X3.753 Y30.571 Z0.067 I-0.4950 J0.0000
G02 Y31.429 Z0.033 I0.2475 J0.4287
G02 X4.495 Y31.000 Z0.000 I0.2475 J-0.4287
G02 X3.753 Y30.571 I-0.4950 J0.0000
G02 Y31.429 I0.2475 J0.4287
G02 X4.495 Y31.000 I0.2475 J-0.4287
G02 X3.753 Y30.571 Z-0.133 I-0.4950 J0.0000
G02 Y31.429 Z-0.267 I0.2475 J0.4287
G02 X4.495 Y31.000 Z-0.400 I0.2475 J-0.4287
G02 X3.753 Y30.571 I-0.4950 J0.0000
G02 Y31.429 I0.2475 J0.4287
G02 X4.495 Y31.000 I0.2475 J-0.4287
G02 X4.483 Y30.800 I-0.4994 J-0.0697 F400
G02 X4.389 Y30.611 I-0.5139 J0.1374
G02 X4.221 Y30.466 I-0.4419 J0.3433
G02 X4.000 Y30.395 I-0.2876 J0.5120
G02 X3.758 Y30.416 I-0.0698 J0.6110
G02 X3.533 Y30.533 I0.1800 J0.6169
G02 X3.365 Y30.737 I0.4220 J0.5207
G02 X3.285 Y31.000 I0.6148 J0.3302
G02 X3.314 Y31.284 I0.7221 J0.0698
G02 X3.456 Y31.544 I0.7195 J-0.2225
G02 X3.695 Y31.737 I0.5992 J-0.5005
G02 X4.000 Y31.825 I0.3727 J-0.7173
G02 X4.326 Y31.788 I0.0698 J-0.8330
G02 X4.622 Y31.622 I-0.2649 J-0.8219
G02 X4.838 Y31.347 I-0.5788 J-0.6775
G02 X4.935 Y31.000 I-0.8196 J-0.4150
G02 X4.889 Y30.632 I-0.9436 J-0.0698
G02 X4.700 Y30.300 I-0.9240 J0.3073
G02 X4.389 Y30.060 I-0.7557 J0.6570
G02 X4.000 Y29.955 I-0.4573 J0.9217
G02 X3.590 Y30.009 I-0.0697 J1.0542
G02 X3.240 Y30.240 I0.4051 J0.9944
G02 X3.007 Y30.589 I0.7601 J0.7601
G02 X2.925 Y31.000 I0.9932 J0.4114
G02 X3.007 Y31.411 I1.0750 J0.0000
G02 X3.240 Y31.760 I0.9932 J-0.4114
G02 X3.589 Y31.993 I0.7601 J-0.7601
G02 X4.000 Y32.075 I0.4114 J-0.9932
G02 X4.411 Y31.993 I0.0000 J-1.0750
G02 X4.760 Y31.760 I-0.4114 J-0.9932
G02 X4.993 Y31.411 I-0.7601 J-0.7601
G02 X5.075 Y31.000 I-0.9932 J-0.4114
G02 X3.463 Y30.069 I-1.0750 J0.0000
G02 Y31.931 I0.5375 J0.9310
G02 X5.075 Y31.000 I0.5375 J-0.9310
G02 X3.505 I-0.7850 J0.0000
G02 X4.495 I0.4950 J0.0000
G02 X3.753 Y30.571 Z-0.533 I-0.4950 J0.0000 F120
G02 Y31.429 Z-0.667 I0.2475 J0.4287
G02 X4.495 Y31.000 Z-0.800 I0.2475 J-0.4287
G02 X3.753 Y30.571 I-0.4950 J0.0000
G02 Y31.429 I0.2475 J0.4287
G02 X4.495 Y31.000 I0.2475 J-0.4287
G02 X4.483 Y30.800 I-0.4994 J-0.0697 F400
G02 X4.389 Y30.611 I-0.5139 J0.1374
G02 X4.221 Y30.466 I-0.4419 J0.3433
G02 X4.000 Y30.395 I-0.2876 J0.5120
G02 X3.758 Y30.416 I-0.0698 J0.6110
G02 X3.533 Y30.533 I0.1800 J0.6169
G02 X3.365 Y30.737 I0.4220 J0.5207
G02 X3.285 Y31.000 I0.6148 J0.3302
G02 X3.314 Y31.284 I0.7221 J0.0698
G02 X3.456 Y31.544 I0.7195 J-0.2225
G02 X3.695 Y31.737 I0.5992 J-0.5005
G02 X4.000 Y31.825 I0.3727 J-0.7173
G02 X4.326 Y31.788 I0.0698 J-0.8330
G02 X4.622 Y31.622 I-0.2649 J-0.8219
G02 X4.838 Y31.347 I-0.5788 J-0.6775
G02 X4.935 Y31.000 I-0.8196 J-0.4150
G02 X4.889 Y30.632 I-0.9436 J-0.0698
G02 X4.700 Y30.300 I-0.9240 J0.3073
G02 X4.389 Y30.060 I-0.7557 J0.6570
G02 X4.000 Y29.955 I-0.4573 J0.9217
G02 X3.590 Y30.009 I-0.0697 J1.0542
G02 X3.240 Y30.240 I0.4051 J0.9944
G02 X3.007 Y30.589 I0.7601 J0.7601
G02 X2.925 Y31.000 I0.9932 J0.4114
G02 X3.007 Y31.411 I1.0750 J0.0000
G02 X3.240 Y31.760 I0.9932 J-0.4114
G02 X3.589 Y31.993 I0.7601 J-0.7601
G02 X4.000 Y32.075 I0.4114 J-0.9932
G02 X4.411 Y31.993 I0.0000 J-1.0750
G02 X4.760 Y31.760 I-0.4114 J-0.9932
G02 X4.993 Y31.411 I-0.7601 J-0.7601
G02 X5.075 Y31.000 I-0.9932 J-0.4114
G02 X3.463 Y30.069 I-1.0750 J0.0000
G02 Y31.931 I0.5375 J0.9310
G02 X5.075 Y31.000 I0.5375 J-0.9310
G02 X3.505 I-0.7850 J0.0000
G02 X4.495 I0.4950 J0.0000
G02 X3.753 Y30.571 Z-0.933 I-0.4950 J0.0000 F120
G02 Y31.429 Z-1.067 I0.2475 J0.4287
G02 X4.495 Y31.000 Z-1.200 I0.2475 J-0.4287
G02 X3.753 Y30.571 I-0.4950 J0.0000
G02 Y31.429 I0.2475 J0.4287
G02 X4.495 Y31.000 I0.2475 J-0.4287
G02 X4.483 Y30.800 I-0.4994 J-0.0697 F400
G02 X4.389 Y30.611 I-0.5139 J0.1374
G02 X4.221 Y30.466 I-0.4419 J0.3433
G02 X4.000 Y30.395 I-0.2876 J0.5120
G02 X3.758 Y30.416 I-0.0698 J0.6110
G02 X3.533 Y30.533 I0.1800 J0.6169
G02 X3.365 Y30.737 I0.4220 J0.5207
G02 X3.285 Y31.000 I0.6148 J0.3302
G02 X3.314 Y31.284 I0.7221 J0.0698
G02 X3.456 Y31.544 I0.7195 J-0.2225
G02 X3.695 Y31.737 I0.5992 J-0.5005
G02 X4.000 Y31.825 I0.3727 J-0.7173
G02 X4.326 Y31.788 I0.0698 J-0.8330
G02 X4.622 Y31.622 I-0.2649 J-0.8219
G02 X4.838 Y31.347 I-0.5788 J-0.6775
G02 X4.935 Y31.000 I-0.8196 J-0.4150
G02 X4.889 Y30.632 I-0.9436 J-0.0698
G02 X4.700 Y30.300 I-0.9240 J0.3073
G02 X4.389 Y30.060 I-0.7557 J0.6570
G02 X4.000 Y29.955 I-0.4573 J0.9217
G02 X3.590 Y30.009 I-0.0697 J1.0542
G02 X3.240 Y30.240 I0.4051 J0.9944
G02 X3.007 Y30.589 I0.7601 J0.7601
G02 X2.925 Y31.000 I0.9932 J0.4114
G02 X3.007 Y31.411 I1.0750 J0.0000
G02 X3.240 Y31.760 I0.9932 J-0.4114
G02 X3.589 Y31.993 I0.7601 J-0.7601
G02 X4.000 Y32.075 I0.4114 J-0.9932
G02 X4.411 Y31.993 I0.0000 J-1.0750
G02 X4.760 Y31.760 I-0.4114 J-0.9932
G02 X4.993 Y31.411 I-0.7601 J-0.7601
G02 X5.075 Y31.000 I-0.9932 J-0.4114
G02 X3.463 Y30.069 I-1.0750 J0.0000
G02 Y31.931 I0.5375 J0.9310
G02 X5.075 Y31.000 I0.5375 J-0.9310
G02 X3.505 I-0.7850 J0.0000
G02 X4.495 I0.4950 J0.0000
G02 X3.753 Y30.571 Z-1.333 I-0.4950 J0.0000 F120
G02 Y31.429 Z-1.467 I0.2475 J0.4287
G02 X4.495 Y31.000 Z-1.600 I0.2475 J-0.4287
G02 X3.753 Y30.571 I-0.4950 J0.0000
G02 Y31.429 I0.2475 J0.4287
G02 X4.495 Y31.000 I0.2475 J-0.4287
G02 X4.483 Y30.800 I-0.4994 J-0.0697 F400
G02 X4.389 Y30.611 I-0.5139 J0.1374
G02 X4.221 Y30.466 I-0.4419 J0.3433
G02 X4.000 Y30.395 I-0.2876 J0.5120
G02 X3.758 Y30.416 I-0.0698 J0.6110
G02 X3.533 Y30.533 I0.1800 J0.6169
G02 X3.365 Y30.737 I0.4220 J0.5207
G02 X3.285 Y31.000 I0.6148 J0.3302
G02 X3.314 Y31.284 I0.7221 J0.0698
G02 X3.456 Y31.544 I0.7195 J-0.2225
G02 X3.695 Y31.737 I0.5992 J-0.5005
G02 X4.000 Y31.825 I0.3727 J-0.7173
G02 X4.326 Y31.788 I0.0698 J-0.8330
G02 X4.622 Y31.622 I-0.2649 J-0.8219
G02 X4.838 Y31.347 I-0.5788 J-0.6775
G02 X4.935 Y31.000 I-0.8196 J-0.4150
G02 X4.889 Y30.632 I-0.9436 J-0.0698
G02 X4.700 Y30.300 I-0.9240 J0.3073
G02 X4.389 Y30.060 I-0.7557 J0.6570
G02 X4.000 Y29.955 I-0.4573 J0.9217
G02 X3.590 Y30.009 I-0.0697 J1.0542
G02 X3.240 Y30.240 I0.4051 J0.9944
G02 X3.007 Y30.589 I0.7601 J0.7601
G02 X2.925 Y31.000 I0.9932 J0.4114
G02 X3.007 Y31.411 I1.0750 J0.0000
G02 X3.240 Y31.760 I0.9932 J-0.4114
G02 X3.589 Y31.993 I0.7601 J-0.7601
G02 X4.000 Y32.075 I0.4114 J-0.9932
G02 X4.411 Y31.993 I0.0000 J-1.0750
G02 X4.760 Y31.760 I-0.4114 J-0.9932
G02 X4.993 Y31.411 I-0.7601 J-0.7601
G02 X5.075 Y31.000 I-0.9932 J-0.4114
G02 X3.463 Y30.069 I-1.0750 J0.0000
G02 Y31.931 I0.5375 J0.9310
G02 X5.075 Y31.000 I0.5375 J-0.9310
G02 X3.505 I-0.7850 J0.0000
G02 X4.495 I0.4950 J0.0000
G02 X3.753 Y30.571 Z-1.733 I-0.4950 J0.0000 F120
G02 Y31.429 Z-1.867 I0.2475 J0.4287
G02 X4.495 Y31.000 Z-2.000 I0.2475 J-0.4287
G02 X3.753 Y30.571 I-0.4950 J0.0000
G02 Y31.429 I0.2475 J0.4287
G02 X4.495 Y31.000 I0.2475 J-0.4287
G02 X4.483 Y30.800 I-0.4994 J-0.0697 F400
G02 X4.389 Y30.611 I-0.5139 J0.1374
G02 X4.221 Y30.466 I-0.4419 J0.3433
G02 X4.000 Y30.395 I-0.2876 J0.5120
G02 X3.758 Y30.416 I-0.0698 J0.6110
G02 X3.533 Y30.533 I0.1800 J0.6169
G02 X3.365 Y30.737 I0.4220 J0.5207
G02 X3.285 Y31.000 I0.6148 J0.3302
G02 X3.314 Y31.284 I0.7221 J0.0698
G02 X3.456 Y31.544 I0.7195 J-0.2225
G02 X3.695 Y31.737 I0.5992 J-0.5005
G02 X4.000 Y31.825 I0.3727 J-0.7173
G02 X4.326 Y31.788 I0.0698 J-0.8330
G02 X4.622 Y31.622 I-0.2649 J-0.8219
G02 X4.838 Y31.347 I-0.5788 J-0.6775
G02 X4.935 Y31.000 I-0.8196 J-0.4150
G02 X4.889 Y30.632 I-0.9436 J-0.0698
G02 X4.700 Y30.300 I-0.9240 J0.3073
G02 X4.389 Y30.060 I-0.7557 J0.6570
G02 X4.000 Y29.955 I-0.4573 J0.9217
G02 X3.590 Y30.009 I-0.0697 J1.0542
G02 X3.240 Y30.240 I0.4051 J0.9944
G02 X3.007 Y30.589 I0.7601 J0.7601
G02 X2.925 Y31.000 I0.9932 J0.4114
G02 X3.007 Y31.411 I1.0750 J0.0000
G02 X3.240 Y31.760 I0.9932 J-0.4114
G02 X3.589 Y31.993 I0.7601 J-0.7601
G02 X4.000 Y32.075 I0.4114 J-0.9932
G02 X4.411 Y31.993 I0.0000 J-1.0750
G02 X4.760 Y31.760 I-0.4114 J-0.9932
G02 X4.993 Y31.411 I-0.7601 J-0.7601
G02 X5.075 Y31.000 I-0.9932 J-0.4114
G02 X3.463 Y30.069 I-1.0750 J0.0000
G02 Y31.931 I0.5375 J0.9310
G02 X5.075 Y31.000 I0.5375 J-0.9310
G02 X3.505 I-0.7850 J0.0000
G02 X4.495 I0.4950 J0.0000
G02 X3.753 Y30.571 Z-2.133 I-0.4950 J0.0000 F120
G02 Y31.429 Z-2.267 I0.2475 J0.4287
G02 X4.495 Y31.000 Z-2.400 I0.2475 J-0.4287
G02 X3.753 Y30.571 I-0.4950 J0.0000
G02 Y31.429 I0.2475 J0.4287
G02 X4.495 Y31.000 I0.2475 J-0.4287
G02 X4.483 Y30.800 I-0.4994 J-0.0697 F400
G02 X4.389 Y30.611 I-0.5139 J0.1374
G02 X4.221 Y30.466 I-0.4419 J0.3433
G02 X4.000 Y30.395 I-0.2876 J0.5120
G02 X3.758 Y30.416 I-0.0698 J0.6110
G02 X3.533 Y30.533 I0.1800 J0.6169
G02 X3.365 Y30.737 I0.4220 J0.5207
G02 X3.285 Y31.000 I0.6148 J0.3302
G02 X3.314 Y31.284 I0.7221 J0.0698
G02 X3.456 Y31.544 I0.7195 J-0.2225
G02 X3.695 Y31.737 I0.5992 J-0.5005
G02 X4.000 Y31.825 I0.3727 J-0.7173
G02 X4.326 Y31.788 I0.0698 J-0.8330
G02 X4.622 Y31.622 I-0.2649 J-0.8219
G02 X4.838 Y31.347 I-0.5788 J-0.6775
G02 X4.935 Y31.000 I-0.8196 J-0.4150
G02 X4.889 Y30.632 I-0.9436 J-0.0698
G02 X4.700 Y30.300 I-0.9240 J0.3073
G02 X4.389 Y30.060 I-0.7557 J0.6570
G02 X4.000 Y29.955 I-0.4573 J0.9217
G02 X3.590 Y30.009 I-0.0697 J1.0542
G02 X3.240 Y30.240 I0.4051 J0.9944
G02 X3.007 Y30.589 I0.7601 J0.7601
G02 X2.925 Y31.000 I0.9932 J0.4114
G02 X3.007 Y31.411 I1.0750 J0.0000
G02 X3.240 Y31.760 I0.9932 J-0.4114
G02 X3.589 Y31.993 I0.7601 J-0.7601
G02 X4.000 Y32.075 I0.4114 J-0.9932
G02 X4.411 Y31.993 I0.0000 J-1.0750
G02 X4.760 Y31.760 I-0.4114 J-0.9932
G02 X4.993 Y31.411 I-0.7601 J-0.7601
G02 X5.075 Y31.000 I-0.9932 J-0.4114
G02 X3.463 Y30.069 I-1.0750 J0.0000
G02 Y31.931 I0.5375 J0.9310
G02 X5.075 Y31.000 I0.5375 J-0.9310
G02 X3.505 I-0.7850 J0.0000
G02 X4.495 I0.4950 J0.0000
G02 X3.753 Y30.571 Z-2.533 I-0.4950 J0.0000 F120
G02 Y31.429 Z-2.667 I0.2475 J0.4287
G02 X4.495 Y31.000 Z-2.800 I0.2475 J-0.4287
G02 X3.753 Y30.571 I-0.4950 J0.0000
G02 Y31.429 I0.2475 J0.4287
G02 X4.495 Y31.000 I0.2475 J-0.4287
G02 X4.483 Y30.800 I-0.4994 J-0.0697 F400
G02 X4.389 Y30.611 I-0.5139 J0.1374
G02 X4.221 Y30.466 I-0.4419 J0.3433
G02 X4.000 Y30.395 I-0.2876 J0.5120
G02 X3.758 Y30.416 I-0.0698 J0.6110
G02 X3.533 Y30.533 I0.1800 J0.6169
G02 X3.365 Y30.737 I0.4220 J0.5207
G02 X3.285 Y31.000 I0.6148 J0.3302
G02 X3.314 Y31.284 I0.7221 J0.0698
G02 X3.456 Y31.544 I0.7195 J-0.2225
G02 X3.695 Y31.737 I0.5992 J-0.5005
G02 X4.000 Y31.825 I0.3727 J-0.7173
G02 X4.326 Y31.788 I0.0698 J-0.8330
G02 X4.622 Y31.622 I-0.2649 J-0.8219
G02 X4.838 Y31.347 I-0.5788 J-0.6775
G02 X4.935 Y31.000 I-0.8196 J-0.4150
G02 X4.889 Y30.632 I-0.9436 J-0.0698
G02 X4.700 Y30.300 I-0.9240 J0.3073
G02 X4.389 Y30.060 I-0.7557 J0.6570
G02 X4.000 Y29.955 I-0.4573 J0.9217
G02 X3.590 Y30.009 I-0.0697 J1.0542
G02 X3.240 Y30.240 I0.4051 J0.9944
G02 X3.007 Y30.589 I0.7601 J0.7601
G02 X2.925 Y31.000 I0.9932 J0.4114
G02 X3.007 Y31.411 I1.0750 J0.0000
G02 X3.240 Y31.760 I0.9932 J-0.4114
G02 X3.589 Y31.993 I0.7601 J-0.7601
G02 X4.000 Y32.075 I0.4114 J-0.9932
G02 X4.411 Y31.993 I0.0000 J-1.0750
G02 X4.760 Y31.760 I-0.4114 J-0.9932
G02 X4.993 Y31.411 I-0.7601 J-0.7601
G02 X5.075 Y31.000 I-0.9932 J-0.4114
G02 X3.463 Y30.069 I-1.0750 J0.0000
G02 Y31.931 I0.5375 J0.9310
G02 X5.075 Y31.000 I0.5375 J-0.9310
G02 X3.505 I-0.7850 J0.0000
G02 X4.495 I0.4950 J0.0000
G02 X3.753 Y30.571 Z-2.933 I-0.4950 J0.0000 F120
G02 Y31.429 Z-3.067 I0.2475 J0.4287
G02 X4.495 Y31.000 Z-3.200 I0.2475 J-0.4287
G02 X3.753 Y30.571 I-0.4950 J0.0000
G02 Y31.429 I0.2475 J0.4287
G02 X4.495 Y31.000 I0.2475 J-0.4287
G02 X4.483 Y30.800 I-0.4994 J-0.0697 F400
G02 X4.389 Y30.611 I-0.5139 J0.1374
G02 X4.221 Y30.466 I-0.4419 J0.3433
G02 X4.000 Y30.395 I-0.2876 J0.5120
G02 X3.758 Y30.416 I-0.0698 J0.6110
G02 X3.533 Y30.533 I0.1800 J0.6169
G02 X3.365 Y30.737 I0.4220 J0.5207
G02 X3.285 Y31.000 I0.6148 J0.3302
G02 X3.314 Y31.284 I0.7221 J0.0698
G02 X3.456 Y31.544 I0.7195 J-0.2225
G02 X3.695 Y31.737 I0.5992 J-0.5005
G02 X4.000 Y31.825 I0.3727 J-0.7173
G02 X4.326 Y31.788 I0.0698 J-0.8330
G02 X4.622 Y31.622 I-0.2649 J-0.8219
G02 X4.838 Y31.347 I-0.5788 J-0.6775
G02 X4.935 Y31.000 I-0.8196 J-0.4150
G02 X4.889 Y30.632 I-0.9436 J-0.0698
G02 X4.700 Y30.300 I-0.9240 J0.3073
G02 X4.389 Y30.060 I-0.7557 J0.6570
G02 X4.000 Y29.955 I-0.4573 J0.9217
G02 X3.590 Y30.009 I-0.0697 J1.0542
G02 X3.240 Y30.240 I0.4051 J0.9944
G02 X3.007 Y30.589 I0.7601 J0.7601
G02 X2.925 Y31.000 I0.9932 J0.4114
G02 X3.007 Y31.411 I1.0750 J0.0000
G02 X3.240 Y31.760 I0.9932 J-0.4114
G02 X3.589 Y31.993 I0.7601 J-0.7601
G02 X4.000 Y32.075 I0.4114 J-0.9932
G02 X4.411 Y31.993 I0.0000 J-1.0750
G02 X4.760 Y31.760 I-0.4114 J-0.9932
G02 X4.993 Y31.411 I-0.7601 J-0.7601
G02 X5.075 Y31.000 I-0.9932 J-0.4114
G02 X3.463 Y30.069 I-1.0750 J0.0000
G02 Y31.931 I0.5375 J0.9310
G02 X5.075 Y31.000 I0.5375 J-0.9310
G02 X3.505 I-0.7850 J0.0000
G02 X4.495 I0.4950 J0.0000
G02 X3.753 Y30.571 Z-3.300 I-0.4950 J0.0000 F120
G02 Y31.429 Z-3.400 I0.2475 J0.4287
G02 X4.495 Y31.000 Z-3.500 I0.2475 J-0.4287
G02 X3.753 Y30.571 I-0.4950 J0.0000
G02 Y31.429 I0.2475 J0.4287
G02 X4.495 Y31.000 I0.2475 J-0.4287
G02 X4.483 Y30.800 I-0.4994 J-0.0697 F400
G02 X4.389 Y30.611 I-0.5139 J0.1374
G02 X4.221 Y30.466 I-0.4419 J0.3433
G02 X4.000 Y30.395 I-0.2876 J0.5120
G02 X3.758 Y30.416 I-0.0698 J0.6110
G02 X3.533 Y30.533 I0.1800 J0.6169
G02 X3.365 Y30.737 I0.4220 J0.5207
G02 X3.285 Y31.000 I0.6148 J0.3302
G02 X3.314 Y31.284 I0.7221 J0.0698
G02 X3.456 Y31.544 I0.7195 J-0.2225
G02 X3.695 Y31.737 I0.5992 J-0.5005
G02 X4.000 Y31.825 I0.3727 J-0.7173
G02 X4.326 Y31.788 I0.0698 J-0.8330
G02 X4.622 Y31.622 I-0.2649 J-0.8219
G02 X4.838 Y31.347 I-0.5788 J-0.6775
G02 X4.935 Y31.000 I-0.8196 J-0.4150
G02 X4.889 Y30.632 I-0.9436 J-0.0698
G02 X4.700 Y30.300 I-0.9240 J0.3073
G02 X4.389 Y30.060 I-0.7557 J0.6570
G02 X4.000 Y29.955 I-0.4573 J0.9217
G02 X3.590 Y30.009 I-0.0697 J1.0542
G02 X3.240 Y30.240 I0.4051 J0.9944
G02 X3.007 Y30.589 I0.7601 J0.7601
G02 X2.925 Y31.000 I0.9932 J0.4114
G02 X3.007 Y31.411 I1.0750 J0.0000
G02 X3.240 Y31.760 I0.9932 J-0.4114
G02 X3.589 Y31.993 I0.7601 J-0.7601
G02 X4.000 Y32.075 I0.4114 J-0.9932
G02 X4.411 Y31.993 I0.0000 J-1.0750
G02 X4.760 Y31.760 I-0.4114 J-0.9932
G02 X4.993 Y31.411 I-0.7601 J-0.7601
G02 X5.075 Y31.000 I-0.9932 J-0.4114
G02 X3.463 Y30.069 I-1.0750 J0.0000
G02 Y31.931 I0.5375 J0.9310
G02 X5.075 Y31.000 I0.5375 J-0.9310
G02 X4.525 Y30.450 Z-3.000 I-0.5500 J0.0000 F120
G00 Z20.000


(No. 9 Helical drill: Helical drill 4)
G00 X33.995 Y31.000 Z20.000
G00 Z0.500
G02 X33.252 Y30.571 Z0.367 I-0.4950 J0.0000 F120
G02 Y31.429 Z0.233 I0.2475 J0.4287
G02 X33.995 Y31.000 Z0.100 I0.2475 J-0.4287
G02 X33.252 Y30.571 Z0.067 I-0.4950 J0.0000
G02 Y31.429 Z0.033 I0.2475 J0.4287
G02 X33.995 Y31.000 Z0.000 I0.2475 J-0.4287
G02 X33.252 Y30.571 I-0.4950 J0.0000
G02 Y31.429 I0.2475 J0.4287
G02 X33.995 Y31.000 I0.2475 J-0.4287
G02 X33.252 Y30.571 Z-0.133 I-0.4950 J0.0000
G02 Y31.429 Z-0.267 I0.2475 J0.4287
G02 X33.995 Y31.000 Z-0.400 I0.2475 J-0.4287
G02 X33.252 Y30.571 I-0.4950 J0.0000
G02 Y31.429 I0.2475 J0.4287
G02 X33.995 Y31.000 I0.2475 J-0.4287
G02 X33.983 Y30.800 I-0.4994 J-0.0697 F400
G02 X33.889 Y30.611 I-0.5139 J0.1374
G02 X33.721 Y30.466 I-0.4419 J0.3433
G02 X33.500 Y30.395 I-0.2876 J0.5120
G02 X33.258 Y30.416 I-0.0698 J0.6110
G02 X33.033 Y30.533 I0.1800 J0.6169
G02 X32.865 Y30.737 I0.4220 J0.5207
G02 X32.785 Y31.000 I0.6148 J0.3302
G02 X32.814 Y31.284 I0.7221 J0.0698
G02 X32.956 Y31.544 I0.7195 J-0.2225
G02 X33.195 Y31.737 I0.5992 J-0.5005
G02 X33.500 Y31.825 I0.3727 J-0.7173
G02 X33.826 Y31.788 I0.0698 J-0.8330
G02 X34.122 Y31.622 I-0.2649 J-0.8219
G02 X34.338 Y31.347 I-0.5788 J-0.6775
G02 X34.435 Y31.000 I-0.8196 J-0.4150
G02 X34.389 Y30.632 I-0.9436 J-0.0698
G02 X34.200 Y30.300 I-0.9240 J0.3073
G02 X33.889 Y30.060 I-0.7557 J0.6570
G02 X33.500 Y29.955 I-0.4573 J0.9217
G02 X33.090 Y30.009 I-0.0697 J1.0542
G02 X32.740 Y30.240 I0.4051 J0.9944
G02 X32.507 Y30.589 I0.7601 J0.7601
G02 X32.425 Y31.000 I0.9932 J0.4114
G02 X32.507 Y31.411 I1.0750 J0.0000
G02 X32.740 Y31.760 I0.9932 J-0.4114
G02 X33.089 Y31.993 I0.7601 J-0.7601
G02 X33.500 Y32.075 I0.4114 J-0.9932
G02 X33.911 Y31.993 I0.0000 J-1.0750
G02 X34.260 Y31.760 I-0.4114 J-0.9932
G02 X34.493 Y31.411 I-0.7601 J-0.7601
G02 X34.575 Y31.000 I-0.9932 J-0.4114
G02 X32.962 Y30.069 I-1.0750 J0.0000
G02 Y31.931 I0.5375 J0.9310
G02 X34.575 Y31.000 I0.5375 J-0.9310
G02 X33.005 I-0.7850 J0.0000
G02 X33.995 I0.4950 J0.0000
G02 X33.252 Y30.571 Z-0.533 I-0.4950 J0.0000 F120
G02 Y31.429 Z-0.667 I0.2475 J0.4287
G02 X33.995 Y31.000 Z-0.800 I0.2475 J-0.4287
G02 X33.252 Y30.571 I-0.4950 J0.0000
G02 Y31.429 I0.2475 J0.4287
G02 X33.995 Y31.000 I0.2475 J-0.4287
G02 X33.983 Y30.800 I-0.4994 J-0.0697 F400
G02 X33.889 Y30.611 I-0.5139 J0.1374
G02 X33.721 Y30.466 I-0.4419 J0.3433
G02 X33.500 Y30.395 I-0.2876 J0.5120
G02 X33.258 Y30.416 I-0.0698 J0.6110
G02 X33.033 Y30.533 I0.1800 J0.6169
G02 X32.865 Y30.737 I0.4220 J0.5207
G02 X32.785 Y31.000 I0.6148 J0.3302
G02 X32.814 Y31.284 I0.7221 J0.0698
G02 X32.956 Y31.544 I0.7195 J-0.2225
G02 X33.195 Y31.737 I0.5992 J-0.5005
G02 X33.500 Y31.825 I0.3727 J-0.7173
G02 X33.826 Y31.788 I0.0698 J-0.8330
G02 X34.122 Y31.622 I-0.2649 J-0.8219
G02 X34.338 Y31.347 I-0.5788 J-0.6775
G02 X34.435 Y31.000 I-0.8196 J-0.4150
G02 X34.389 Y30.632 I-0.9436 J-0.0698
G02 X34.200 Y30.300 I-0.9240 J0.3073
G02 X33.889 Y30.060 I-0.7557 J0.6570
G02 X33.500 Y29.955 I-0.4573 J0.9217
G02 X33.090 Y30.009 I-0.0697 J1.0542
G02 X32.740 Y30.240 I0.4051 J0.9944
G02 X32.507 Y30.589 I0.7601 J0.7601
G02 X32.425 Y31.000 I0.9932 J0.4114
G02 X32.507 Y31.411 I1.0750 J0.0000
G02 X32.740 Y31.760 I0.9932 J-0.4114
G02 X33.089 Y31.993 I0.7601 J-0.7601
G02 X33.500 Y32.075 I0.4114 J-0.9932
G02 X33.911 Y31.993 I0.0000 J-1.0750
G02 X34.260 Y31.760 I-0.4114 J-0.9932
G02 X34.493 Y31.411 I-0.7601 J-0.7601
G02 X34.575 Y31.000 I-0.9932 J-0.4114
G02 X32.962 Y30.069 I-1.0750 J0.0000
G02 Y31.931 I0.5375 J0.9310
G02 X34.575 Y31.000 I0.5375 J-0.9310
G02 X33.005 I-0.7850 J0.0000
G02 X33.995 I0.4950 J0.0000
G02 X33.252 Y30.571 Z-0.933 I-0.4950 J0.0000 F120
G02 Y31.429 Z-1.067 I0.2475 J0.4287
G02 X33.995 Y31.000 Z-1.200 I0.2475 J-0.4287
G02 X33.252 Y30.571 I-0.4950 J0.0000
G02 Y31.429 I0.2475 J0.4287
G02 X33.995 Y31.000 I0.2475 J-0.4287
G02 X33.983 Y30.800 I-0.4994 J-0.0697 F400
G02 X33.889 Y30.611 I-0.5139 J0.1374
G02 X33.721 Y30.466 I-0.4419 J0.3433
G02 X33.500 Y30.395 I-0.2876 J0.5120
G02 X33.258 Y30.416 I-0.0698 J0.6110
G02 X33.033 Y30.533 I0.1800 J0.6169
G02 X32.865 Y30.737 I0.4220 J0.5207
G02 X32.785 Y31.000 I0.6148 J0.3302
G02 X32.814 Y31.284 I0.7221 J0.0698
G02 X32.956 Y31.544 I0.7195 J-0.2225
G02 X33.195 Y31.737 I0.5992 J-0.5005
G02 X33.500 Y31.825 I0.3727 J-0.7173
G02 X33.826 Y31.788 I0.0698 J-0.8330
G02 X34.122 Y31.622 I-0.2649 J-0.8219
G02 X34.338 Y31.347 I-0.5788 J-0.6775
G02 X34.435 Y31.000 I-0.8196 J-0.4150
G02 X34.389 Y30.632 I-0.9436 J-0.0698
G02 X34.200 Y30.300 I-0.9240 J0.3073
G02 X33.889 Y30.060 I-0.7557 J0.6570
G02 X33.500 Y29.955 I-0.4573 J0.9217
G02 X33.090 Y30.009 I-0.0697 J1.0542
G02 X32.740 Y30.240 I0.4051 J0.9944
G02 X32.507 Y30.589 I0.7601 J0.7601
G02 X32.425 Y31.000 I0.9932 J0.4114
G02 X32.507 Y31.411 I1.0750 J0.0000
G02 X32.740 Y31.760 I0.9932 J-0.4114
G02 X33.089 Y31.993 I0.7601 J-0.7601
G02 X33.500 Y32.075 I0.4114 J-0.9932
G02 X33.911 Y31.993 I0.0000 J-1.0750
G02 X34.260 Y31.760 I-0.4114 J-0.9932
G02 X34.493 Y31.411 I-0.7601 J-0.7601
G02 X34.575 Y31.000 I-0.9932 J-0.4114
G02 X32.962 Y30.069 I-1.0750 J0.0000
G02 Y31.931 I0.5375 J0.9310
G02 X34.575 Y31.000 I0.5375 J-0.9310
G02 X33.005 I-0.7850 J0.0000
G02 X33.995 I0.4950 J0.0000
G02 X33.252 Y30.571 Z-1.333 I-0.4950 J0.0000 F120
G02 Y31.429 Z-1.467 I0.2475 J0.4287
G02 X33.995 Y31.000 Z-1.600 I0.2475 J-0.4287
G02 X33.252 Y30.571 I-0.4950 J0.0000
G02 Y31.429 I0.2475 J0.4287
G02 X33.995 Y31.000 I0.2475 J-0.4287
G02 X33.983 Y30.800 I-0.4994 J-0.0697 F400
G02 X33.889 Y30.611 I-0.5139 J0.1374
G02 X33.721 Y30.466 I-0.4419 J0.3433
G02 X33.500 Y30.395 I-0.2876 J0.5120
G02 X33.258 Y30.416 I-0.0698 J0.6110
G02 X33.033 Y30.533 I0.1800 J0.6169
G02 X32.865 Y30.737 I0.4220 J0.5207
G02 X32.785 Y31.000 I0.6148 J0.3302
G02 X32.814 Y31.284 I0.7221 J0.0698
G02 X32.956 Y31.544 I0.7195 J-0.2225
G02 X33.195 Y31.737 I0.5992 J-0.5005
G02 X33.500 Y31.825 I0.3727 J-0.7173
G02 X33.826 Y31.788 I0.0698 J-0.8330
G02 X34.122 Y31.622 I-0.2649 J-0.8219
G02 X34.338 Y31.347 I-0.5788 J-0.6775
G02 X34.435 Y31.000 I-0.8196 J-0.4150
G02 X34.389 Y30.632 I-0.9436 J-0.0698
G02 X34.200 Y30.300 I-0.9240 J0.3073
G02 X33.889 Y30.060 I-0.7557 J0.6570
G02 X33.500 Y29.955 I-0.4573 J0.9217
G02 X33.090 Y30.009 I-0.0697 J1.0542
G02 X32.740 Y30.240 I0.4051 J0.9944
G02 X32.507 Y30.589 I0.7601 J0.7601
G02 X32.425 Y31.000 I0.9932 J0.4114
G02 X32.507 Y31.411 I1.0750 J0.0000
G02 X32.740 Y31.760 I0.9932 J-0.4114
G02 X33.089 Y31.993 I0.7601 J-0.7601
G02 X33.500 Y32.075 I0.4114 J-0.9932
G02 X33.911 Y31.993 I0.0000 J-1.0750
G02 X34.260 Y31.760 I-0.4114 J-0.9932
G02 X34.493 Y31.411 I-0.7601 J-0.7601
G02 X34.575 Y31.000 I-0.9932 J-0.4114
G02 X32.962 Y30.069 I-1.0750 J0.0000
G02 Y31.931 I0.5375 J0.9310
G02 X34.575 Y31.000 I0.5375 J-0.9310
G02 X33.005 I-0.7850 J0.0000
G02 X33.995 I0.4950 J0.0000
G02 X33.252 Y30.571 Z-1.733 I-0.4950 J0.0000 F120
G02 Y31.429 Z-1.867 I0.2475 J0.4287
G02 X33.995 Y31.000 Z-2.000 I0.2475 J-0.4287
G02 X33.252 Y30.571 I-0.4950 J0.0000
G02 Y31.429 I0.2475 J0.4287
G02 X33.995 Y31.000 I0.2475 J-0.4287
G02 X33.983 Y30.800 I-0.4994 J-0.0697 F400
G02 X33.889 Y30.611 I-0.5139 J0.1374
G02 X33.721 Y30.466 I-0.4419 J0.3433
G02 X33.500 Y30.395 I-0.2876 J0.5120
G02 X33.258 Y30.416 I-0.0698 J0.6110
G02 X33.033 Y30.533 I0.1800 J0.6169
G02 X32.865 Y30.737 I0.4220 J0.5207
G02 X32.785 Y31.000 I0.6148 J0.3302
G02 X32.814 Y31.284 I0.7221 J0.0698
G02 X32.956 Y31.544 I0.7195 J-0.2225
G02 X33.195 Y31.737 I0.5992 J-0.5005
G02 X33.500 Y31.825 I0.3727 J-0.7173
G02 X33.826 Y31.788 I0.0698 J-0.8330
G02 X34.122 Y31.622 I-0.2649 J-0.8219
G02 X34.338 Y31.347 I-0.5788 J-0.6775
G02 X34.435 Y31.000 I-0.8196 J-0.4150
G02 X34.389 Y30.632 I-0.9436 J-0.0698
G02 X34.200 Y30.300 I-0.9240 J0.3073
G02 X33.889 Y30.060 I-0.7557 J0.6570
G02 X33.500 Y29.955 I-0.4573 J0.9217
G02 X33.090 Y30.009 I-0.0697 J1.0542
G02 X32.740 Y30.240 I0.4051 J0.9944
G02 X32.507 Y30.589 I0.7601 J0.7601
G02 X32.425 Y31.000 I0.9932 J0.4114
G02 X32.507 Y31.411 I1.0750 J0.0000
G02 X32.740 Y31.760 I0.9932 J-0.4114
G02 X33.089 Y31.993 I0.7601 J-0.7601
G02 X33.500 Y32.075 I0.4114 J-0.9932
G02 X33.911 Y31.993 I0.0000 J-1.0750
G02 X34.260 Y31.760 I-0.4114 J-0.9932
G02 X34.493 Y31.411 I-0.7601 J-0.7601
G02 X34.575 Y31.000 I-0.9932 J-0.4114
G02 X32.962 Y30.069 I-1.0750 J0.0000
G02 Y31.931 I0.5375 J0.9310
G02 X34.575 Y31.000 I0.5375 J-0.9310
G02 X33.005 I-0.7850 J0.0000
G02 X33.995 I0.4950 J0.0000
G02 X33.252 Y30.571 Z-2.133 I-0.4950 J0.0000 F120
G02 Y31.429 Z-2.267 I0.2475 J0.4287
G02 X33.995 Y31.000 Z-2.400 I0.2475 J-0.4287
G02 X33.252 Y30.571 I-0.4950 J0.0000
G02 Y31.429 I0.2475 J0.4287
G02 X33.995 Y31.000 I0.2475 J-0.4287
G02 X33.983 Y30.800 I-0.4994 J-0.0697 F400
G02 X33.889 Y30.611 I-0.5139 J0.1374
G02 X33.721 Y30.466 I-0.4419 J0.3433
G02 X33.500 Y30.395 I-0.2876 J0.5120
G02 X33.258 Y30.416 I-0.0698 J0.6110
G02 X33.033 Y30.533 I0.1800 J0.6169
G02 X32.865 Y30.737 I0.4220 J0.5207
G02 X32.785 Y31.000 I0.6148 J0.3302
G02 X32.814 Y31.284 I0.7221 J0.0698
G02 X32.956 Y31.544 I0.7195 J-0.2225
G02 X33.195 Y31.737 I0.5992 J-0.5005
G02 X33.500 Y31.825 I0.3727 J-0.7173
G02 X33.826 Y31.788 I0.0698 J-0.8330
G02 X34.122 Y31.622 I-0.2649 J-0.8219
G02 X34.338 Y31.347 I-0.5788 J-0.6775
G02 X34.435 Y31.000 I-0.8196 J-0.4150
G02 X34.389 Y30.632 I-0.9436 J-0.0698
G02 X34.200 Y30.300 I-0.9240 J0.3073
G02 X33.889 Y30.060 I-0.7557 J0.6570
G02 X33.500 Y29.955 I-0.4573 J0.9217
G02 X33.090 Y30.009 I-0.0697 J1.0542
G02 X32.740 Y30.240 I0.4051 J0.9944
G02 X32.507 Y30.589 I0.7601 J0.7601
G02 X32.425 Y31.000 I0.9932 J0.4114
G02 X32.507 Y31.411 I1.0750 J0.0000
G02 X32.740 Y31.760 I0.9932 J-0.4114
G02 X33.089 Y31.993 I0.7601 J-0.7601
G02 X33.500 Y32.075 I0.4114 J-0.9932
G02 X33.911 Y31.993 I0.0000 J-1.0750
G02 X34.260 Y31.760 I-0.4114 J-0.9932
G02 X34.493 Y31.411 I-0.7601 J-0.7601
G02 X34.575 Y31.000 I-0.9932 J-0.4114
G02 X32.962 Y30.069 I-1.0750 J0.0000
G02 Y31.931 I0.5375 J0.9310
G02 X34.575 Y31.000 I0.5375 J-0.9310
G02 X33.005 I-0.7850 J0.0000
G02 X33.995 I0.4950 J0.0000
G02 X33.252 Y30.571 Z-2.533 I-0.4950 J0.0000 F120
G02 Y31.429 Z-2.667 I0.2475 J0.4287
G02 X33.995 Y31.000 Z-2.800 I0.2475 J-0.4287
G02 X33.252 Y30.571 I-0.4950 J0.0000
G02 Y31.429 I0.2475 J0.4287
G02 X33.995 Y31.000 I0.2475 J-0.4287
G02 X33.983 Y30.800 I-0.4994 J-0.0697 F400
G02 X33.889 Y30.611 I-0.5139 J0.1374
G02 X33.721 Y30.466 I-0.4419 J0.3433
G02 X33.500 Y30.395 I-0.2876 J0.5120
G02 X33.258 Y30.416 I-0.0698 J0.6110
G02 X33.033 Y30.533 I0.1800 J0.6169
G02 X32.865 Y30.737 I0.4220 J0.5207
G02 X32.785 Y31.000 I0.6148 J0.3302
G02 X32.814 Y31.284 I0.7221 J0.0698
G02 X32.956 Y31.544 I0.7195 J-0.2225
G02 X33.195 Y31.737 I0.5992 J-0.5005
G02 X33.500 Y31.825 I0.3727 J-0.7173
G02 X33.826 Y31.788 I0.0698 J-0.8330
G02 X34.122 Y31.622 I-0.2649 J-0.8219
G02 X34.338 Y31.347 I-0.5788 J-0.6775
G02 X34.435 Y31.000 I-0.8196 J-0.4150
G02 X34.389 Y30.632 I-0.9436 J-0.0698
G02 X34.200 Y30.300 I-0.9240 J0.3073
G02 X33.889 Y30.060 I-0.7557 J0.6570
G02 X33.500 Y29.955 I-0.4573 J0.9217
G02 X33.090 Y30.009 I-0.0697 J1.0542
G02 X32.740 Y30.240 I0.4051 J0.9944
G02 X32.507 Y30.589 I0.7601 J0.7601
G02 X32.425 Y31.000 I0.9932 J0.4114
G02 X32.507 Y31.411 I1.0750 J0.0000
G02 X32.740 Y31.760 I0.9932 J-0.4114
G02 X33.089 Y31.993 I0.7601 J-0.7601
G02 X33.500 Y32.075 I0.4114 J-0.9932
G02 X33.911 Y31.993 I0.0000 J-1.0750
G02 X34.260 Y31.760 I-0.4114 J-0.9932
G02 X34.493 Y31.411 I-0.7601 J-0.7601
G02 X34.575 Y31.000 I-0.9932 J-0.4114
G02 X32.962 Y30.069 I-1.0750 J0.0000
G02 Y31.931 I0.5375 J0.9310
G02 X34.575 Y31.000 I0.5375 J-0.9310
G02 X33.005 I-0.7850 J0.0000
G02 X33.995 I0.4950 J0.0000
G02 X33.252 Y30.571 Z-2.933 I-0.4950 J0.0000 F120
G02 Y31.429 Z-3.067 I0.2475 J0.4287
G02 X33.995 Y31.000 Z-3.200 I0.2475 J-0.4287
G02 X33.252 Y30.571 I-0.4950 J0.0000
G02 Y31.429 I0.2475 J0.4287
G02 X33.995 Y31.000 I0.2475 J-0.4287
G02 X33.983 Y30.800 I-0.4994 J-0.0697 F400
G02 X33.889 Y30.611 I-0.5139 J0.1374
G02 X33.721 Y30.466 I-0.4419 J0.3433
G02 X33.500 Y30.395 I-0.2876 J0.5120
G02 X33.258 Y30.416 I-0.0698 J0.6110
G02 X33.033 Y30.533 I0.1800 J0.6169
G02 X32.865 Y30.737 I0.4220 J0.5207
G02 X32.785 Y31.000 I0.6148 J0.3302
G02 X32.814 Y31.284 I0.7221 J0.0698
G02 X32.956 Y31.544 I0.7195 J-0.2225
G02 X33.195 Y31.737 I0.5992 J-0.5005
G02 X33.500 Y31.825 I0.3727 J-0.7173
G02 X33.826 Y31.788 I0.0698 J-0.8330
G02 X34.122 Y31.622 I-0.2649 J-0.8219
G02 X34.338 Y31.347 I-0.5788 J-0.6775
G02 X34.435 Y31.000 I-0.8196 J-0.4150
G02 X34.389 Y30.632 I-0.9436 J-0.0698
G02 X34.200 Y30.300 I-0.9240 J0.3073
G02 X33.889 Y30.060 I-0.7557 J0.6570
G02 X33.500 Y29.955 I-0.4573 J0.9217
G02 X33.090 Y30.009 I-0.0697 J1.0542
G02 X32.740 Y30.240 I0.4051 J0.9944
G02 X32.507 Y30.589 I0.7601 J0.7601
G02 X32.425 Y31.000 I0.9932 J0.4114
G02 X32.507 Y31.411 I1.0750 J0.0000
G02 X32.740 Y31.760 I0.9932 J-0.4114
G02 X33.089 Y31.993 I0.7601 J-0.7601
G02 X33.500 Y32.075 I0.4114 J-0.9932
G02 X33.911 Y31.993 I0.0000 J-1.0750
G02 X34.260 Y31.760 I-0.4114 J-0.9932
G02 X34.493 Y31.411 I-0.7601 J-0.7601
G02 X34.575 Y31.000 I-0.9932 J-0.4114
G02 X32.962 Y30.069 I-1.0750 J0.0000
G02 Y31.931 I0.5375 J0.9310
G02 X34.575 Y31.000 I0.5375 J-0.9310
G02 X33.005 I-0.7850 J0.0000
G02 X33.995 I0.4950 J0.0000
G02 X33.252 Y30.571 Z-3.300 I-0.4950 J0.0000 F120
G02 Y31.429 Z-3.400 I0.2475 J0.4287
G02 X33.995 Y31.000 Z-3.500 I0.2475 J-0.4287
G02 X33.252 Y30.571 I-0.4950 J0.0000
G02 Y31.429 I0.2475 J0.4287
G02 X33.995 Y31.000 I0.2475 J-0.4287
G02 X33.983 Y30.800 I-0.4994 J-0.0697 F400
G02 X33.889 Y30.611 I-0.5139 J0.1374
G02 X33.721 Y30.466 I-0.4419 J0.3433
G02 X33.500 Y30.395 I-0.2876 J0.5120
G02 X33.258 Y30.416 I-0.0698 J0.6110
G02 X33.033 Y30.533 I0.1800 J0.6169
G02 X32.865 Y30.737 I0.4220 J0.5207
G02 X32.785 Y31.000 I0.6148 J0.3302
G02 X32.814 Y31.284 I0.7221 J0.0698
G02 X32.956 Y31.544 I0.7195 J-0.2225
G02 X33.195 Y31.737 I0.5992 J-0.5005
G02 X33.500 Y31.825 I0.3727 J-0.7173
G02 X33.826 Y31.788 I0.0698 J-0.8330
G02 X34.122 Y31.622 I-0.2649 J-0.8219
G02 X34.338 Y31.347 I-0.5788 J-0.6775
G02 X34.435 Y31.000 I-0.8196 J-0.4150
G02 X34.389 Y30.632 I-0.9436 J-0.0698
G02 X34.200 Y30.300 I-0.9240 J0.3073
G02 X33.889 Y30.060 I-0.7557 J0.6570
G02 X33.500 Y29.955 I-0.4573 J0.9217
G02 X33.090 Y30.009 I-0.0697 J1.0542
G02 X32.740 Y30.240 I0.4051 J0.9944
G02 X32.507 Y30.589 I0.7601 J0.7601
G02 X32.425 Y31.000 I0.9932 J0.4114
G02 X32.507 Y31.411 I1.0750 J0.0000
G02 X32.740 Y31.760 I0.9932 J-0.4114
G02 X33.089 Y31.993 I0.7601 J-0.7601
G02 X33.500 Y32.075 I0.4114 J-0.9932
G02 X33.911 Y31.993 I0.0000 J-1.0750
G02 X34.260 Y31.760 I-0.4114 J-0.9932
G02 X34.493 Y31.411 I-0.7601 J-0.7601
G02 X34.575 Y31.000 I-0.9932 J-0.4114
G02 X32.962 Y30.069 I-1.0750 J0.0000
G02 Y31.931 I0.5375 J0.9310
G02 X34.575 Y31.000 I0.5375 J-0.9310
G02 X34.025 Y30.450 Z-3.000 I-0.5500 J0.0000 F120
G00 Z20.000


(No. 10 Helical drill: Helical drill 5)
G00 X33.995 Y4.000 Z20.000
G00 Z0.500
G02 X33.253 Y3.571 Z0.367 I-0.4950 J0.0000 F120
G02 Y4.429 Z0.233 I0.2475 J0.4287
G02 X33.995 Y4.000 Z0.100 I0.2475 J-0.4287
G02 X33.253 Y3.571 Z0.067 I-0.4950 J0.0000
G02 Y4.429 Z0.033 I0.2475 J0.4287
G02 X33.995 Y4.000 Z0.000 I0.2475 J-0.4287
G02 X33.253 Y3.571 I-0.4950 J0.0000
G02 Y4.429 I0.2475 J0.4287
G02 X33.995 Y4.000 I0.2475 J-0.4287
G02 X33.253 Y3.571 Z-0.133 I-0.4950 J0.0000
G02 Y4.429 Z-0.267 I0.2475 J0.4287
G02 X33.995 Y4.000 Z-0.400 I0.2475 J-0.4287
G02 X33.253 Y3.571 I-0.4950 J0.0000
G02 Y4.429 I0.2475 J0.4287
G02 X33.995 Y4.000 I0.2475 J-0.4287
G02 X33.983 Y3.800 I-0.4994 J-0.0697 F400
G02 X33.889 Y3.611 I-0.5139 J0.1374
G02 X33.721 Y3.466 I-0.4419 J0.3433
G02 X33.500 Y3.395 I-0.2876 J0.5120
G02 X33.258 Y3.416 I-0.0698 J0.6110
G02 X33.033 Y3.533 I0.1800 J0.6169
G02 X32.865 Y3.737 I0.4220 J0.5207
G02 X32.785 Y4.000 I0.6148 J0.3302
G02 X32.814 Y4.284 I0.7221 J0.0698
G02 X32.956 Y4.544 I0.7195 J-0.2225
G02 X33.195 Y4.737 I0.5992 J-0.5005
G02 X33.500 Y4.825 I0.3727 J-0.7173
G02 X33.826 Y4.788 I0.0698 J-0.8330
G02 X34.122 Y4.622 I-0.2649 J-0.8219
G02 X34.338 Y4.347 I-0.5788 J-0.6775
G02 X34.435 Y4.000 I-0.8196 J-0.4150
G02 X34.389 Y3.632 I-0.9436 J-0.0698
G02 X34.200 Y3.300 I-0.9240 J0.3073
G02 X33.889 Y3.060 I-0.7557 J0.6570
G02 X33.500 Y2.955 I-0.4573 J0.9217
G02 X33.090 Y3.009 I-0.0697 J1.0542
G02 X32.740 Y3.240 I0.4051 J0.9944
G02 X32.507 Y3.589 I0.7601 J0.7601
G02 X32.425 Y4.000 I0.9932 J0.4114
G02 X32.507 Y4.411 I1.0750 J0.0000
G02 X32.740 Y4.760 I0.9932 J-0.4114
G02 X33.089 Y4.993 I0.7601 J-0.7601
G02 X33.500 Y5.075 I0.4114 J-0.9932
G02 X33.911 Y4.993 I0.0000 J-1.0750
G02 X34.260 Y4.760 I-0.4114 J-0.9932
G02 X34.493 Y4.411 I-0.7601 J-0.7601
G02 X34.575 Y4.000 I-0.9932 J-0.4114
G02 X32.963 Y3.069 I-1.0750 J0.0000
G02 Y4.931 I0.5375 J0.9310
G02 X34.575 Y4.000 I0.5375 J-0.9310
G02 X33.005 I-0.7850 J0.0000
G02 X33.995 I0.4950 J0.0000
G02 X33.253 Y3.571 Z-0.533 I-0.4950 J0.0000 F120
G02 Y4.429 Z-0.667 I0.2475 J0.4287
G02 X33.995 Y4.000 Z-0.800 I0.2475 J-0.4287
G02 X33.253 Y3.571 I-0.4950 J0.0000
G02 Y4.429 I0.2475 J0.4287
G02 X33.995 Y4.000 I0.2475 J-0.4287
G02 X33.983 Y3.800 I-0.4994 J-0.0697 F400
G02 X33.889 Y3.611 I-0.5139 J0.1374
G02 X33.721 Y3.466 I-0.4419 J0.3433
G02 X33.500 Y3.395 I-0.2876 J0.5120
G02 X33.258 Y3.416 I-0.0698 J0.6110
G02 X33.033 Y3.533 I0.1800 J0.6169
G02 X32.865 Y3.737 I0.4220 J0.5207
G02 X32.785 Y4.000 I0.6148 J0.3302
G02 X32.814 Y4.284 I0.7221 J0.0698
G02 X32.956 Y4.544 I0.7195 J-0.2225
G02 X33.195 Y4.737 I0.5992 J-0.5005
G02 X33.500 Y4.825 I0.3727 J-0.7173
G02 X33.826 Y4.788 I0.0698 J-0.8330
G02 X34.122 Y4.622 I-0.2649 J-0.8219
G02 X34.338 Y4.347 I-0.5788 J-0.6775
G02 X34.435 Y4.000 I-0.8196 J-0.4150
G02 X34.389 Y3.632 I-0.9436 J-0.0698
G02 X34.200 Y3.300 I-0.9240 J0.3073
G02 X33.889 Y3.060 I-0.7557 J0.6570
G02 X33.500 Y2.955 I-0.4573 J0.9217
G02 X33.090 Y3.009 I-0.0697 J1.0542
G02 X32.740 Y3.240 I0.4051 J0.9944
G02 X32.507 Y3.589 I0.7601 J0.7601
G02 X32.425 Y4.000 I0.9932 J0.4114
G02 X32.507 Y4.411 I1.0750 J0.0000
G02 X32.740 Y4.760 I0.9932 J-0.4114
G02 X33.089 Y4.993 I0.7601 J-0.7601
G02 X33.500 Y5.075 I0.4114 J-0.9932
G02 X33.911 Y4.993 I0.0000 J-1.0750
G02 X34.260 Y4.760 I-0.4114 J-0.9932
G02 X34.493 Y4.411 I-0.7601 J-0.7601
G02 X34.575 Y4.000 I-0.9932 J-0.4114
G02 X32.963 Y3.069 I-1.0750 J0.0000
G02 Y4.931 I0.5375 J0.9310
G02 X34.575 Y4.000 I0.5375 J-0.9310
G02 X33.005 I-0.7850 J0.0000
G02 X33.995 I0.4950 J0.0000
G02 X33.253 Y3.571 Z-0.933 I-0.4950 J0.0000 F120
G02 Y4.429 Z-1.067 I0.2475 J0.4287
G02 X33.995 Y4.000 Z-1.200 I0.2475 J-0.4287
G02 X33.253 Y3.571 I-0.4950 J0.0000
G02 Y4.429 I0.2475 J0.4287
G02 X33.995 Y4.000 I0.2475 J-0.4287
G02 X33.983 Y3.800 I-0.4994 J-0.0697 F400
G02 X33.889 Y3.611 I-0.5139 J0.1374
G02 X33.721 Y3.466 I-0.4419 J0.3433
G02 X33.500 Y3.395 I-0.2876 J0.5120
G02 X33.258 Y3.416 I-0.0698 J0.6110
G02 X33.033 Y3.533 I0.1800 J0.6169
G02 X32.865 Y3.737 I0.4220 J0.5207
G02 X32.785 Y4.000 I0.6148 J0.3302
G02 X32.814 Y4.284 I0.7221 J0.0698
G02 X32.956 Y4.544 I0.7195 J-0.2225
G02 X33.195 Y4.737 I0.5992 J-0.5005
G02 X33.500 Y4.825 I0.3727 J-0.7173
