(Project nrf51822)
(Created by Estlcam version 11 build 11.118)
(Machining time about 00:39:29 hours)

(Required tools:)
(End 1.000mm)
G21
G90
G94
M03 S24000.0
G00 Z20.000


(No. 1 Parallel pocket: Hole 5)
G00 X12.466 Y22.472
G00 Z0.500
G01 Z-0.400 F120 S24000.0
G01 X12.382 Y22.598 F400
G01 X12.298 Y22.917
G02 X13.785 Y24.085 I3.1764 J-2.5143
G01 X14.121 Y23.967
G01 X14.524 Y23.866
G01 X14.541 Y23.841
G03 X12.516 Y22.430 I2.7132 J-6.0498
G01 X12.466 Y22.472
G00 Z20.000
G00 X19.707 Y24.118
G00 Z0.500
G01 Z-0.400 F120
G01 Y24.135 F400
G01 X20.009 Y24.236
G01 X20.589 Y24.522
G02 X24.024 Y21.800 I-2.2698 J-6.3946
G01 X23.755 Y20.926
G01 X23.747 Y20.607
G03 X19.707 Y24.118 I-6.3388 J-3.2139
G01 X19.566 Y23.711
G03 X12.483 Y21.758 I-2.0995 J-6.2075
G01 X12.457
G01 X12.306 Y21.985
G01 X12.004 Y22.363
G01 X11.928 Y22.623
G01 X11.911 Y22.690
G01 X11.777 Y22.942
G02 X13.751 Y24.564 I4.0189 J-2.8811
G03 X15.960 Y24.186 I1.8645 J4.2520
G01 X18.547 Y24.345
G03 X20.563 Y25.000 I-0.3051 J4.3678
G02 X24.511 Y21.842 I-2.3965 J-7.0423
G01 X24.394 Y21.540
G01 X24.175 Y20.809
G01 Y19.230
G02 X12.340 Y12.820 I-6.6887 J-1.7810
G01 X12.348 Y12.871
G01 X12.525 Y13.131
G01 X12.558 Y13.148
G03 X22.197 Y22.052 I4.9166 J4.3467
G03 X19.566 Y23.711 I-4.6681 J-4.4864
G01 X19.416 Y23.304
G01 X19.364 Y23.323
G03 X12.415 Y20.994 I-1.8924 J-5.8826
G03 X11.609 Y22.170 I-5.1215 J-2.6474
G01 X11.508 Y22.531
G01 X11.458 Y22.623
G01 X11.256 Y23.026
G02 X13.751 Y25.042 I5.6063 J-4.3862
G03 X15.893 Y24.614 I1.8736 J3.7990
G01 X18.329 Y24.765
G03 X20.547 Y25.496 I-0.1288 J4.1208
G02 X24.999 Y21.876 I-2.6361 J-7.7891
G01 Y21.834
G01 X24.839 Y21.506
G01 X24.604 Y20.733
G01 Y19.305
G02 X11.886 Y12.678 I-7.1196 J-1.8539
G01 X11.928 Y13.014
G01 X12.264 Y13.509
G01 X12.483 Y13.921
G03 X23.407 Y15.917 I4.9859 J3.6039
G03 X19.416 Y23.304 I-5.9330 J1.5662
G01 X19.273 Y22.903
G03 X12.382 Y20.078 I-1.8015 J-5.4235
G03 X11.223 Y21.960 I-6.2784 J-2.5700
G01 X11.105 Y22.371
G01 X10.979 Y22.623
G01 X10.735 Y23.060
G02 X13.776 Y25.530 I6.2576 J-4.5981
G03 X15.826 Y25.042 I1.8426 J3.1969
G01 X18.396 Y25.202
G03 X20.496 Y25.992 I-0.1705 J3.6407
G02 X25.494 Y21.884 I-2.7570 J-8.4492
G01 X25.242 Y21.346
G01 X25.032 Y20.658
G01 Y19.381
G02 X11.424 Y12.552 I-7.5507 J-1.9268
G01 X11.500 Y13.005
G01 X11.508 Y13.173
G03 X12.432 Y14.828 I-5.6963 J4.2660
G03 X23.163 Y16.963 I5.0427 J2.6906
G03 X19.273 Y22.903 I-5.6915 J0.5170
G01 X19.142 Y22.494
G03 X12.348 Y18.709 I-1.6590 J-5.0121
G03 X10.819 Y21.766 I-6.3420 J-1.2600
G03 X10.198 Y23.035 I-2.6514 J-0.5128
G02 X13.818 Y26.017 I6.7271 J-4.4785
G03 X15.759 Y25.471 I1.8227 J2.7566
G01 X18.463 Y25.639
G03 X20.412 Y26.479 I-0.2399 J3.2371
G02 X25.990 Y21.850 I-2.6247 J-8.8379
G03 X25.461 Y20.582 I3.2126 J-2.0849
G01 Y19.456
G02 X11.155 Y12.216 I-7.9677 J-2.0101
G01 X10.920 Y12.392
G03 X11.088 Y13.324 I-3.0556 J1.0319
G03 X12.390 Y16.172 I-5.5185 J4.2447
G03 X22.519 Y19.067 I5.1002 J1.3231
G03 X19.142 Y22.494 I-5.0361 J-1.5847
G01 X19.009 Y22.084
G03 X12.653 Y17.508 I-1.5232 J-4.5861
G01 X12.665 Y17.140
G03 X22.316 Y17.849 I4.8252 J0.3532
G03 X19.009 Y22.084 I-4.8089 J-0.3460
G01 X18.861 Y21.685
G03 X13.181 Y16.580 I-1.3665 J-4.1917
G03 X20.441 Y14.214 I4.3134 J0.9125
G03 X18.861 Y21.685 I-2.9469 J3.2793
G01 X18.724 Y21.277
G03 X13.522 Y17.565 I-1.2287 J-3.7793
G01 X13.531 Y17.218
G03 X21.429 Y18.117 I3.9686 J0.2768
G03 X18.724 Y21.277 I-3.9168 J-0.6153
G01 X18.609 Y20.868
G03 X13.964 Y17.751 I-1.1082 J-3.3676
G01 X13.956 Y17.381
G03 X21.019 Y17.957 I3.5457 J0.1170
G03 X18.609 Y20.868 I-3.5127 J-0.4560
G01 X18.469 Y20.461
G03 X14.393 Y17.678 I-0.9692 J-2.9562
G01 X14.391 Y17.353
G03 X20.606 Y17.789 I3.1132 J0.1361
G03 X18.469 Y20.461 I-3.0917 J-0.2825
G01 X18.340 Y20.051
G03 X14.809 Y17.558 I-0.8338 J-2.5662
G01 Y17.432
G01 X14.885 Y16.861
G03 X15.952 Y15.290 I2.7383 J0.7119
G03 X18.965 Y19.753 I1.5391 J2.2099
G03 X18.340 Y20.051 I-1.4160 J-2.1664
G00 Z20.000
G00 X17.995 Y25.610
G00 Z0.100
G01 Z-0.400 F120
G01 X17.968 Y26.041 F400
G01 X18.396 Y26.067
G03 X20.278 Y26.966 I-0.1724 J2.7798
G02 X26.494 Y21.842 I-2.5126 J-9.3805
G03 X25.889 Y20.506 I2.8091 J-2.0768
G01 Y19.532
G02 X10.895 Y11.871 I-8.3854 J-2.0917
G01 X10.567 Y12.123
G01 X10.383 Y12.224
G03 X10.668 Y13.484 I-2.7972 J1.2964
G03 X10.416 Y21.573 I-4.7995 J3.8990
G03 X9.635 Y23.010 I-2.4890 J-0.4230
G02 X13.885 Y26.512 I7.5031 J-4.7743
G03 X15.826 Y25.908 I1.7462 J2.1873
G01 X17.968 Y26.041
G01 X17.942 Y26.472
G01 X18.463 Y26.504
G03 X20.101 Y27.453 I-0.2336 J2.2911
G02 X27.015 Y21.750 I-2.2987 J-9.8276
G03 X26.317 Y20.431 I1.7797 J-1.7846
G01 Y19.608
G02 X10.979 Y11.132 I-8.8125 J-2.1687
G03 X9.761 Y12.031 I-1.9452 J-1.3614
G03 X10.240 Y13.635 I-2.1975 J1.5294
G03 X10.005 Y21.388 I-4.4109 J3.7464
G03 X9.064 Y22.951 I-2.2730 J-0.3042
G02 X13.953 Y27.025 I8.3733 J-5.0777
G03 X15.759 Y26.336 I1.6751 J1.6800
G01 X17.942 Y26.472
G01 X17.916 Y26.898
G01 X18.354 Y26.924
G03 X19.900 Y27.949 I-0.1503 J1.9046
G02 X27.544 Y21.657 I-2.1463 J-10.3971
G03 X26.746 Y20.355 I1.3554 J-1.7263
G01 Y19.683
G02 X10.685 Y10.813 I-9.2374 J-2.2499
G03 X8.812 Y11.745 I-1.7650 J-1.1981
G03 X9.795 Y13.778 I-1.1034 J1.7875
G03 X9.585 Y21.212 I-3.9904 J3.6072
G03 X8.980 Y22.455 I-1.8020 J-0.1079
G01 X8.493 Y22.867
G02 X14.062 Y27.537 I9.0505 J-5.1365
G03 X15.826 Y26.773 I1.5893 J1.2501
G01 X17.916 Y26.898
G01 X17.891 Y27.328
G01 X18.430 Y27.361
G03 X19.639 Y28.444 I-0.2678 J1.5159
G02 X28.023 Y21.624 I-1.9249 J-10.9280
G01 X28.065 Y21.464
G03 X27.174 Y20.280 I0.7465 J-1.4881
G01 Y19.759
G02 X10.357 Y10.527 I-9.6676 J-2.3219
G03 X8.467 Y11.266 I-1.4574 J-0.9406
G01 X8.165 Y11.720
G01 X8.073 Y11.888
G01 Y11.922
G03 X9.333 Y13.912 I-0.3340 J1.6055
G03 X9.156 Y21.036 I-3.5400 J3.4761
G03 X8.602 Y22.212 I-1.4424 J0.0387
G01 X7.938 Y22.774
G02 X14.238 Y28.050 I9.5918 J-5.0556
G03 X15.759 Y27.201 I1.4237 J0.7649
G01 X17.891 Y27.328
G01 X17.866 Y27.754
G01 X18.329 Y27.781
G03 X19.287 Y28.940 I-0.1925 J1.1342
G02 X28.636 Y21.195 I-1.5564 J-11.3942
G03 X27.603 Y20.196 I0.1556 J-1.1946
G01 Y19.834
G02 X10.030 Y10.242 I-10.0980 J-2.3938
G03 X8.308 Y10.737 I-1.1159 J-0.6377
G01 X7.846 Y11.418
G01 X7.459 Y12.098
G01 Y12.132
G01 X8.383 Y12.510
G03 X8.837 Y14.022 I-0.6571 J1.0212
G03 X8.719 Y20.842 I-3.0430 J3.3589
G03 X8.299 Y21.901 I-1.1282 J0.1648
G01 X7.527 Y22.564
G01 X7.384 Y22.657
G02 X14.499 Y28.587 I10.1933 J-4.9960
G03 X15.683 Y27.630 I1.1609 J0.2246
G01 X17.866 Y27.754
G01 X17.843 Y28.180
G01 X18.228 Y28.201
G03 X18.858 Y28.881 I-0.1094 J0.7332
G01 Y29.419
G02 X29.190 Y20.901 I-1.1137 J-11.8762
G01 X28.560 Y20.733
G03 X28.031 Y20.120 I0.2081 J-0.7145
G01 Y19.910
G02 X9.339 Y10.342 I-10.5335 J-2.4645
G03 X8.299 Y10.132 I-0.4116 J-0.6412
G01 X8.249 Y10.107
G02 X6.871 Y12.325 I7.9944 J6.5029
G01 X6.888 Y12.358
G01 X8.157 Y12.879
G03 X8.451 Y13.812 I-0.4076 J0.6411
G01 X8.291 Y14.122
G03 X8.232 Y20.691 I-2.5178 J3.2621
G03 X8.005 Y21.582 I-0.6793 J0.3010
G01 X7.233 Y22.245
G01 X7.048 Y22.346
G01 X6.796 Y22.438
G02 X14.843 Y29.125 I10.7715 J-4.7780
G01 X14.935 Y28.579
G03 X15.750 Y28.066 I0.7215 J0.2432
G01 X17.843 Y28.180
G00 Z20.000
G00 X17.500 Y20.184
G00 Z0.100
G01 Z-0.400 F120
G01 Y19.970 F400
G02 X16.861 Y15.114 I-0.0013 J-2.4703
G02 X15.030 Y17.500 I0.6394 J2.3863
G01 X15.114 Y18.139
G01 X15.118 Y18.149
G02 X17.500 Y19.970 I2.3813 J-0.6465
G00 Z20.000
G00 X9.806 Y18.221
G00 Z0.100
G01 Z-0.400 F120
G01 X9.593 Y18.169 F400
G01 X9.523 Y18.452
G01 X9.505 Y18.518
G01 X9.410 Y18.793
G01 X9.385 Y18.857
G01 X9.265 Y19.123
G01 X9.235 Y19.184
G01 X9.091 Y19.437
G01 X9.055 Y19.496
G01 X8.889 Y19.735
G01 X8.848 Y19.790
G01 X8.660 Y20.013
G01 X8.614 Y20.063
G01 X8.406 Y20.268
G01 X8.356 Y20.314
G01 X8.131 Y20.499
G01 X8.076 Y20.541
G01 X7.951 Y20.626
G01 X7.959 Y20.644
G03 X7.891 Y21.394 I-0.4255 J0.3396
G01 X7.141 Y22.034
G03 X6.500 Y22.332 I-1.1937 J-1.7290
G02 X15.023 Y29.400 I11.0831 J-4.6929
G01 X15.135 Y28.705
G03 X15.673 Y28.295 I0.5123 J0.1149
G01 X18.148 Y28.419
G03 X18.636 Y28.943 I-0.0371 J0.5237
G01 X18.640 Y29.658
G01 X18.767 Y29.651
G02 X29.463 Y20.750 I-1.0163 J-12.0996
G01 X28.630 Y20.526
G03 X28.245 Y20.020 I0.1397 J-0.5061
G01 X28.248 Y19.968
G01 X28.255 Y19.916
G02 X9.259 Y10.130 I-10.7413 J-2.4802
G03 X8.583 Y10.108 I-0.3252 J-0.4121
G01 X8.240 Y9.800
G01 X8.228 Y9.793
G02 X6.572 Y12.467 I7.9509 J6.7750
G01 X7.991 Y13.048
G03 X8.229 Y13.763 I-0.2283 J0.4728
G01 X8.016 Y14.172
G01 X8.023 Y14.196
G01 X8.130 Y14.272
G01 X8.185 Y14.313
G01 X8.406 Y14.503
G01 X8.456 Y14.549
G01 X8.660 Y14.759
G01 X8.705 Y14.809
G01 X8.888 Y15.036
G01 X8.929 Y15.091
G01 X9.091 Y15.334
G01 X9.127 Y15.392
G01 X9.265 Y15.649
G01 X9.295 Y15.710
G01 X9.410 Y15.978
G01 X9.434 Y16.042
G01 X9.523 Y16.319
G01 X9.542 Y16.385
G01 X9.605 Y16.670
G01 X9.618 Y16.737
G01 X9.655 Y17.026
G01 X9.661 Y17.094
G01 X9.671 Y17.386
G01 X9.672 Y17.454
G01 X9.655 Y17.745
G01 X9.649 Y17.813
G01 X9.605 Y18.101
G01 X9.593 Y18.169
G00 Z20.000
G00 X12.516 Y22.430
G00 Z0.100
G01 Z-0.800 F120
G01 X12.466 Y22.472 F400
G01 X12.382 Y22.598
G01 X12.298 Y22.917
G02 X13.785 Y24.085 I3.1764 J-2.5143
G01 X14.121 Y23.967
G01 X14.524 Y23.866
G01 X14.541 Y23.841
G03 X12.516 Y22.430 I2.7132 J-6.0498
G00 Z20.000
G00 X19.707 Y24.118
G00 Z0.100
G01 Z-0.800 F120
G01 Y24.135 F400
G01 X20.009 Y24.236
G01 X20.589 Y24.522
G02 X24.024 Y21.800 I-2.2698 J-6.3946
G01 X23.755 Y20.926
G01 X23.747 Y20.607
G03 X19.707 Y24.118 I-6.3388 J-3.2139
G01 X19.566 Y23.711
G03 X12.483 Y21.758 I-2.0995 J-6.2075
G01 X12.457
G01 X12.306 Y21.985
G01 X12.004 Y22.363
G01 X11.928 Y22.623
G01 X11.911 Y22.690
G01 X11.777 Y22.942
G02 X13.751 Y24.564 I4.0189 J-2.8811
G03 X15.960 Y24.186 I1.8645 J4.2520
G01 X18.547 Y24.345
G03 X20.563 Y25.000 I-0.3051 J4.3678
G02 X24.511 Y21.842 I-2.3965 J-7.0423
G01 X24.394 Y21.540
G01 X24.175 Y20.809
G01 Y19.230
G02 X12.340 Y12.820 I-6.6887 J-1.7810
G01 X12.348 Y12.871
G01 X12.525 Y13.131
G01 X12.558 Y13.148
G03 X22.197 Y22.052 I4.9166 J4.3467
G03 X19.566 Y23.711 I-4.6681 J-4.4864
G01 X19.416 Y23.304
G01 X19.364 Y23.323
G03 X12.415 Y20.994 I-1.8924 J-5.8826
G03 X11.609 Y22.170 I-5.1215 J-2.6474
G01 X11.508 Y22.531
G01 X11.458 Y22.623
G01 X11.256 Y23.026
G02 X13.751 Y25.042 I5.6063 J-4.3862
G03 X15.893 Y24.614 I1.8736 J3.7990
G01 X18.329 Y24.765
G03 X20.547 Y25.496 I-0.1288 J4.1208
G02 X24.999 Y21.876 I-2.6361 J-7.7891
G01 Y21.834
G01 X24.839 Y21.506
G01 X24.604 Y20.733
G01 Y19.305
G02 X11.886 Y12.678 I-7.1196 J-1.8539
G01 X11.928 Y13.014
G01 X12.264 Y13.509
G01 X12.483 Y13.921
G03 X23.407 Y15.917 I4.9859 J3.6039
G03 X19.416 Y23.304 I-5.9330 J1.5662
G01 X19.273 Y22.903
G03 X12.382 Y20.078 I-1.8015 J-5.4235
G03 X11.223 Y21.960 I-6.2784 J-2.5700
G01 X11.105 Y22.371
G01 X10.979 Y22.623
G01 X10.735 Y23.060
G02 X13.776 Y25.530 I6.2576 J-4.5981
G03 X15.826 Y25.042 I1.8426 J3.1969
G01 X18.396 Y25.202
G03 X20.496 Y25.992 I-0.1705 J3.6407
G02 X25.494 Y21.884 I-2.7570 J-8.4492
G01 X25.242 Y21.346
G01 X25.032 Y20.658
G01 Y19.381
G02 X11.424 Y12.552 I-7.5507 J-1.9268
G01 X11.500 Y13.005
G01 X11.508 Y13.173
G03 X12.432 Y14.828 I-5.6963 J4.2660
G03 X23.163 Y16.963 I5.0427 J2.6906
G03 X19.273 Y22.903 I-5.6915 J0.5170
G01 X19.142 Y22.494
G03 X12.348 Y18.709 I-1.6590 J-5.0121
G03 X10.819 Y21.766 I-6.3420 J-1.2600
G03 X10.198 Y23.035 I-2.6514 J-0.5128
G02 X13.818 Y26.017 I6.7271 J-4.4785
G03 X15.759 Y25.471 I1.8227 J2.7566
G01 X18.463 Y25.639
G03 X20.412 Y26.479 I-0.2399 J3.2371
G02 X25.990 Y21.850 I-2.6247 J-8.8379
G03 X25.461 Y20.582 I3.2126 J-2.0849
G01 Y19.456
G02 X11.155 Y12.216 I-7.9677 J-2.0101
G01 X10.920 Y12.392
G03 X11.088 Y13.324 I-3.0556 J1.0319
G03 X12.390 Y16.172 I-5.5185 J4.2447
G03 X22.519 Y19.067 I5.1002 J1.3231
G03 X19.142 Y22.494 I-5.0361 J-1.5847
G01 X19.009 Y22.084
G03 X12.653 Y17.508 I-1.5232 J-4.5861
G01 X12.665 Y17.140
G03 X22.316 Y17.849 I4.8252 J0.3532
G03 X19.009 Y22.084 I-4.8089 J-0.3460
G01 X18.861 Y21.685
G03 X13.181 Y16.580 I-1.3665 J-4.1917
G03 X20.441 Y14.214 I4.3134 J0.9125
G03 X18.861 Y21.685 I-2.9469 J3.2793
G01 X18.724 Y21.277
G03 X13.522 Y17.565 I-1.2287 J-3.7793
G01 X13.531 Y17.218
G03 X21.429 Y18.117 I3.9686 J0.2768
G03 X18.724 Y21.277 I-3.9168 J-0.6153
G01 X18.609 Y20.868
G03 X13.964 Y17.751 I-1.1082 J-3.3676
G01 X13.956 Y17.381
G03 X21.019 Y17.957 I3.5457 J0.1170
G03 X18.609 Y20.868 I-3.5127 J-0.4560
G01 X18.469 Y20.461
G03 X14.393 Y17.678 I-0.9692 J-2.9562
G01 X14.391 Y17.353
G03 X20.606 Y17.789 I3.1132 J0.1361
G03 X18.469 Y20.461 I-3.0917 J-0.2825
G01 X18.340 Y20.051
G03 X14.809 Y17.558 I-0.8338 J-2.5662
G01 Y17.432
G01 X14.885 Y16.861
G03 X15.952 Y15.290 I2.7383 J0.7119
G03 X18.965 Y19.753 I1.5391 J2.2099
G03 X18.340 Y20.051 I-1.4160 J-2.1664
G00 Z20.000
G00 X17.995 Y25.610
G00 Z-0.300
G01 Z-0.800 F120
G01 X17.968 Y26.041 F400
G01 X18.396 Y26.067
G03 X20.278 Y26.966 I-0.1724 J2.7798
G02 X26.494 Y21.842 I-2.5126 J-9.3805
G03 X25.889 Y20.506 I2.8091 J-2.0768
G01 Y19.532
G02 X10.895 Y11.871 I-8.3854 J-2.0917
G01 X10.567 Y12.123
G01 X10.383 Y12.224
G03 X10.668 Y13.484 I-2.7972 J1.2964
G03 X10.416 Y21.573 I-4.7995 J3.8990
G03 X9.635 Y23.010 I-2.4890 J-0.4230
G02 X13.885 Y26.512 I7.5031 J-4.7743
G03 X15.826 Y25.908 I1.7462 J2.1873
G01 X17.968 Y26.041
G01 X17.942 Y26.472
G01 X18.463 Y26.504
G03 X20.101 Y27.453 I-0.2336 J2.2911
G02 X27.015 Y21.750 I-2.2987 J-9.8276
G03 X26.317 Y20.431 I1.7797 J-1.7846
G01 Y19.608
G02 X10.979 Y11.132 I-8.8125 J-2.1687
G03 X9.761 Y12.031 I-1.9452 J-1.3614
G03 X10.240 Y13.635 I-2.1975 J1.5294
G03 X10.005 Y21.388 I-4.4109 J3.7464
G03 X9.064 Y22.951 I-2.2730 J-0.3042
G02 X13.953 Y27.025 I8.3733 J-5.0777
G03 X15.759 Y26.336 I1.6751 J1.6800
G01 X17.942 Y26.472
G01 X17.916 Y26.898
G01 X18.354 Y26.924
G03 X19.900 Y27.949 I-0.1503 J1.9046
G02 X27.544 Y21.657 I-2.1463 J-10.3971
G03 X26.746 Y20.355 I1.3554 J-1.7263
G01 Y19.683
G02 X10.685 Y10.813 I-9.2374 J-2.2499
G03 X8.812 Y11.745 I-1.7650 J-1.1981
G03 X9.795 Y13.778 I-1.1034 J1.7875
G03 X9.585 Y21.212 I-3.9904 J3.6072
G03 X8.980 Y22.455 I-1.8020 J-0.1079
G01 X8.493 Y22.867
G02 X14.062 Y27.537 I9.0505 J-5.1365
G03 X15.826 Y26.773 I1.5893 J1.2501
G01 X17.916 Y26.898
G01 X17.891 Y27.328
G01 X18.430 Y27.361
G03 X19.639 Y28.444 I-0.2678 J1.5159
G02 X28.023 Y21.624 I-1.9249 J-10.9280
G01 X28.065 Y21.464
G03 X27.174 Y20.280 I0.7465 J-1.4881
G01 Y19.759
G02 X10.357 Y10.527 I-9.6676 J-2.3219
G03 X8.467 Y11.266 I-1.4574 J-0.9406
G01 X8.165 Y11.720
G01 X8.073 Y11.888
G01 Y11.922
G03 X9.333 Y13.912 I-0.3340 J1.6055
G03 X9.156 Y21.036 I-3.5400 J3.4761
G03 X8.602 Y22.212 I-1.4424 J0.0387
G01 X7.938 Y22.774
G02 X14.238 Y28.050 I9.5918 J-5.0556
G03 X15.759 Y27.201 I1.4237 J0.7649
G01 X17.891 Y27.328
G01 X17.866 Y27.754
G01 X18.329 Y27.781
G03 X19.287 Y28.940 I-0.1925 J1.1342
G02 X28.636 Y21.195 I-1.5564 J-11.3942
G03 X27.603 Y20.196 I0.1556 J-1.1946
G01 Y19.834
G02 X10.030 Y10.242 I-10.0980 J-2.3938
G03 X8.308 Y10.737 I-1.1159 J-0.6377
G01 X7.846 Y11.418
G01 X7.459 Y12.098
G01 Y12.132
G01 X8.383 Y12.510
G03 X8.837 Y14.022 I-0.6571 J1.0212
G03 X8.719 Y20.842 I-3.0430 J3.3589
G03 X8.299 Y21.901 I-1.1282 J0.1648
G01 X7.527 Y22.564
G01 X7.384 Y22.657
G02 X14.499 Y28.587 I10.1933 J-4.9960
G03 X15.683 Y27.630 I1.1609 J0.2246
G01 X17.866 Y27.754
G01 X17.843 Y28.180
G01 X18.228 Y28.201
G03 X18.858 Y28.881 I-0.1094 J0.7332
G01 Y29.419
G02 X29.190 Y20.901 I-1.1137 J-11.8762
G01 X28.560 Y20.733
G03 X28.031 Y20.120 I0.2081 J-0.7145
G01 Y19.910
G02 X9.339 Y10.342 I-10.5335 J-2.4645
G03 X8.299 Y10.132 I-0.4116 J-0.6412
G01 X8.249 Y10.107
G02 X6.871 Y12.325 I7.9944 J6.5029
G01 X6.888 Y12.358
G01 X8.157 Y12.879
G03 X8.451 Y13.812 I-0.4076 J0.6411
G01 X8.291 Y14.122
G03 X8.232 Y20.691 I-2.5178 J3.2621
G03 X8.005 Y21.582 I-0.6793 J0.3010
G01 X7.233 Y22.245
G01 X7.048 Y22.346
G01 X6.796 Y22.438
G02 X14.843 Y29.125 I10.7715 J-4.7780
G01 X14.935 Y28.579
G03 X15.750 Y28.066 I0.7215 J0.2432
G01 X17.843 Y28.180
G00 Z20.000
G00 X17.500 Y20.184
G00 Z-0.300
G01 Z-0.800 F120
G01 Y19.970 F400
G02 X16.861 Y15.114 I-0.0013 J-2.4703
G02 X15.030 Y17.500 I0.6394 J2.3863
G01 X15.114 Y18.139
G01 X15.118 Y18.149
G02 X17.500 Y19.970 I2.3813 J-0.6465
G00 Z20.000
G00 X9.806 Y18.221
G00 Z-0.300
G01 Z-0.800 F120
G01 X9.593 Y18.169 F400
G01 X9.523 Y18.452
G01 X9.505 Y18.518
G01 X9.410 Y18.793
G01 X9.385 Y18.857
G01 X9.265 Y19.123
G01 X9.235 Y19.184
G01 X9.091 Y19.437
G01 X9.055 Y19.496
G01 X8.889 Y19.735
G01 X8.848 Y19.790
G01 X8.660 Y20.013
G01 X8.614 Y20.063
G01 X8.406 Y20.268
G01 X8.356 Y20.314
G01 X8.131 Y20.499
G01 X8.076 Y20.541
G01 X7.951 Y20.626
G01 X7.959 Y20.644
G03 X7.891 Y21.394 I-0.4255 J0.3396
G01 X7.141 Y22.034
G03 X6.500 Y22.332 I-1.1937 J-1.7290
G02 X15.023 Y29.400 I11.0831 J-4.6929
G01 X15.135 Y28.705
G03 X15.673 Y28.295 I0.5123 J0.1149
G01 X18.148 Y28.419
G03 X18.636 Y28.943 I-0.0371 J0.5237
G01 X18.640 Y29.658
G01 X18.767 Y29.651
G02 X29.463 Y20.750 I-1.0163 J-12.0996
G01 X28.630 Y20.526
G03 X28.245 Y20.020 I0.1397 J-0.5061
G01 X28.248 Y19.968
G01 X28.255 Y19.916
G02 X9.259 Y10.130 I-10.7413 J-2.4802
G03 X8.583 Y10.108 I-0.3252 J-0.4121
G01 X8.240 Y9.800
G01 X8.228 Y9.793
G02 X6.572 Y12.467 I7.9509 J6.7750
G01 X7.991 Y13.048
G03 X8.229 Y13.763 I-0.2283 J0.4728
G01 X8.016 Y14.172
G01 X8.023 Y14.196
G01 X8.130 Y14.272
G01 X8.185 Y14.313
G01 X8.406 Y14.503
G01 X8.456 Y14.549
G01 X8.660 Y14.759
G01 X8.705 Y14.809
G01 X8.888 Y15.036
G01 X8.929 Y15.091
G01 X9.091 Y15.334
G01 X9.127 Y15.392
G01 X9.265 Y15.649
G01 X9.295 Y15.710
G01 X9.410 Y15.978
G01 X9.434 Y16.042
G01 X9.523 Y16.319
G01 X9.542 Y16.385
G01 X9.605 Y16.670
G01 X9.618 Y16.737
G01 X9.655 Y17.026
G01 X9.661 Y17.094
G01 X9.671 Y17.386
G01 X9.672 Y17.454
G01 X9.655 Y17.745
G01 X9.649 Y17.813
G01 X9.605 Y18.101
G01 X9.593 Y18.169
G00 Z20.000
G00 X12.516 Y22.430
G00 Z-0.300
G01 Z-1.200 F120
G01 X12.466 Y22.472 F400
G01 X12.382 Y22.598
G01 X12.298 Y22.917
G02 X13.785 Y24.085 I3.1764 J-2.5143
G01 X14.121 Y23.967
G01 X14.524 Y23.866
G01 X14.541 Y23.841
G03 X12.516 Y22.430 I2.7132 J-6.0498
G00 Z20.000
G00 X19.707 Y24.118
G00 Z-0.300
G01 Z-1.200 F120
G01 Y24.135 F400
G01 X20.009 Y24.236
G01 X20.589 Y24.522
G02 X24.024 Y21.800 I-2.2698 J-6.3946
G01 X23.755 Y20.926
G01 X23.747 Y20.607
G03 X19.707 Y24.118 I-6.3388 J-3.2139
G01 X19.566 Y23.711
G03 X12.483 Y21.758 I-2.0995 J-6.2075
G01 X12.457
G01 X12.306 Y21.985
G01 X12.004 Y22.363
G01 X11.928 Y22.623
G01 X11.911 Y22.690
G01 X11.777 Y22.942
G02 X13.751 Y24.564 I4.0189 J-2.8811
G03 X15.960 Y24.186 I1.8645 J4.2520
G01 X18.547 Y24.345
G03 X20.563 Y25.000 I-0.3051 J4.3678
G02 X24.511 Y21.842 I-2.3965 J-7.0423
G01 X24.394 Y21.540
G01 X24.175 Y20.809
G01 Y19.230
G02 X12.340 Y12.820 I-6.6887 J-1.7810
G01 X12.348 Y12.871
G01 X12.525 Y13.131
G01 X12.558 Y13.148
G03 X22.197 Y22.052 I4.9166 J4.3467
G03 X19.566 Y23.711 I-4.6681 J-4.4864
G01 X19.416 Y23.304
G01 X19.364 Y23.323
G03 X12.415 Y20.994 I-1.8924 J-5.8826
G03 X11.609 Y22.170 I-5.1215 J-2.6474
G01 X11.508 Y22.531
G01 X11.458 Y22.623
G01 X11.256 Y23.026
G02 X13.751 Y25.042 I5.6063 J-4.3862
G03 X15.893 Y24.614 I1.8736 J3.7990
G01 X18.329 Y24.765
G03 X20.547 Y25.496 I-0.1288 J4.1208
G02 X24.999 Y21.876 I-2.6361 J-7.7891
G01 Y21.834
G01 X24.839 Y21.506
G01 X24.604 Y20.733
G01 Y19.305
G02 X11.886 Y12.678 I-7.1196 J-1.8539
G01 X11.928 Y13.014
G01 X12.264 Y13.509
G01 X12.483 Y13.921
G03 X23.407 Y15.917 I4.9859 J3.6039
G03 X19.416 Y23.304 I-5.9330 J1.5662
G01 X19.273 Y22.903
G03 X12.382 Y20.078 I-1.8015 J-5.4235
G03 X11.223 Y21.960 I-6.2784 J-2.5700
G01 X11.105 Y22.371
G01 X10.979 Y22.623
G01 X10.735 Y23.060
G02 X13.776 Y25.530 I6.2576 J-4.5981
G03 X15.826 Y25.042 I1.8426 J3.1969
G01 X18.396 Y25.202
G03 X20.496 Y25.992 I-0.1705 J3.6407
G02 X25.494 Y21.884 I-2.7570 J-8.4492
G01 X25.242 Y21.346
G01 X25.032 Y20.658
G01 Y19.381
G02 X11.424 Y12.552 I-7.5507 J-1.9268
G01 X11.500 Y13.005
G01 X11.508 Y13.173
G03 X12.432 Y14.828 I-5.6963 J4.2660
G03 X23.163 Y16.963 I5.0427 J2.6906
G03 X19.273 Y22.903 I-5.6915 J0.5170
G01 X19.142 Y22.494
G03 X12.348 Y18.709 I-1.6590 J-5.0121
G03 X10.819 Y21.766 I-6.3420 J-1.2600
G03 X10.198 Y23.035 I-2.6514 J-0.5128
G02 X13.818 Y26.017 I6.7271 J-4.4785
G03 X15.759 Y25.471 I1.8227 J2.7566
G01 X18.463 Y25.639
G03 X20.412 Y26.479 I-0.2399 J3.2371
G02 X25.990 Y21.850 I-2.6247 J-8.8379
G03 X25.461 Y20.582 I3.2126 J-2.0849
G01 Y19.456
G02 X11.155 Y12.216 I-7.9677 J-2.0101
G01 X10.920 Y12.392
G03 X11.088 Y13.324 I-3.0556 J1.0319
G03 X12.390 Y16.172 I-5.5185 J4.2447
G03 X22.519 Y19.067 I5.1002 J1.3231
G03 X19.142 Y22.494 I-5.0361 J-1.5847
G01 X19.009 Y22.084
G03 X12.653 Y17.508 I-1.5232 J-4.5861
G01 X12.665 Y17.140
G03 X22.316 Y17.849 I4.8252 J0.3532
G03 X19.009 Y22.084 I-4.8089 J-0.3460
G01 X18.861 Y21.685
G03 X13.181 Y16.580 I-1.3665 J-4.1917
G03 X20.441 Y14.214 I4.3134 J0.9125
G03 X18.861 Y21.685 I-2.9469 J3.2793
G01 X18.724 Y21.277
G03 X13.522 Y17.565 I-1.2287 J-3.7793
G01 X13.531 Y17.218
G03 X21.429 Y18.117 I3.9686 J0.2768
G03 X18.724 Y21.277 I-3.9168 J-0.6153
G01 X18.609 Y20.868
G03 X13.964 Y17.751 I-1.1082 J-3.3676
G01 X13.956 Y17.381
G03 X21.019 Y17.957 I3.5457 J0.1170
G03 X18.609 Y20.868 I-3.5127 J-0.4560
G01 X18.469 Y20.461
G03 X14.393 Y17.678 I-0.9692 J-2.9562
G01 X14.391 Y17.353
G03 X20.606 Y17.789 I3.1132 J0.1361
G03 X18.469 Y20.461 I-3.0917 J-0.2825
G01 X18.340 Y20.051
G03 X14.809 Y17.558 I-0.8338 J-2.5662
G01 Y17.432
G01 X14.885 Y16.861
G03 X15.952 Y15.290 I2.7383 J0.7119
G03 X18.965 Y19.753 I1.5391 J2.2099
G03 X18.340 Y20.051 I-1.4160 J-2.1664
G00 Z20.000
G00 X17.995 Y25.610
G00 Z-0.700
G01 Z-1.200 F120
G01 X17.968 Y26.041 F400
G01 X18.396 Y26.067
G03 X20.278 Y26.966 I-0.1724 J2.7798
G02 X26.494 Y21.842 I-2.5126 J-9.3805
G03 X25.889 Y20.506 I2.8091 J-2.0768
G01 Y19.532
G02 X10.895 Y11.871 I-8.3854 J-2.0917
G01 X10.567 Y12.123
G01 X10.383 Y12.224
G03 X10.668 Y13.484 I-2.7972 J1.2964
G03 X10.416 Y21.573 I-4.7995 J3.8990
G03 X9.635 Y23.010 I-2.4890 J-0.4230
G02 X13.885 Y26.512 I7.5031 J-4.7743
G03 X15.826 Y25.908 I1.7462 J2.1873
G01 X17.968 Y26.041
G01 X17.942 Y26.472
G01 X18.463 Y26.504
G03 X20.101 Y27.453 I-0.2336 J2.2911
G02 X27.015 Y21.750 I-2.2987 J-9.8276
G03 X26.317 Y20.431 I1.7797 J-1.7846
G01 Y19.608
G02 X10.979 Y11.132 I-8.8125 J-2.1687
G03 X9.761 Y12.031 I-1.9452 J-1.3614
G03 X10.240 Y13.635 I-2.1975 J1.5294
G03 X10.005 Y21.388 I-4.4109 J3.7464
G03 X9.064 Y22.951 I-2.2730 J-0.3042
G02 X13.953 Y27.025 I8.3733 J-5.0777
G03 X15.759 Y26.336 I1.6751 J1.6800
G01 X17.942 Y26.472
G01 X17.916 Y26.898
G01 X18.354 Y26.924
G03 X19.900 Y27.949 I-0.1503 J1.9046
G02 X27.544 Y21.657 I-2.1463 J-10.3971
G03 X26.746 Y20.355 I1.3554 J-1.7263
G01 Y19.683
G02 X10.685 Y10.813 I-9.2374 J-2.2499
G03 X8.812 Y11.745 I-1.7650 J-1.1981
G03 X9.795 Y13.778 I-1.1034 J1.7875
G03 X9.585 Y21.212 I-3.9904 J3.6072
G03 X8.980 Y22.455 I-1.8020 J-0.1079
G01 X8.493 Y22.867
G02 X14.062 Y27.537 I9.0505 J-5.1365
G03 X15.826 Y26.773 I1.5893 J1.2501
G01 X17.916 Y26.898
G01 X17.891 Y27.328
G01 X18.430 Y27.361
G03 X19.639 Y28.444 I-0.2678 J1.5159
G02 X28.023 Y21.624 I-1.9249 J-10.9280
G01 X28.065 Y21.464
G03 X27.174 Y20.280 I0.7465 J-1.4881
G01 Y19.759
G02 X10.357 Y10.527 I-9.6676 J-2.3219
G03 X8.467 Y11.266 I-1.4574 J-0.9406
G01 X8.165 Y11.720
G01 X8.073 Y11.888
G01 Y11.922
G03 X9.333 Y13.912 I-0.3340 J1.6055
G03 X9.156 Y21.036 I-3.5400 J3.4761
G03 X8.602 Y22.212 I-1.4424 J0.0387
G01 X7.938 Y22.774
G02 X14.238 Y28.050 I9.5918 J-5.0556
G03 X15.759 Y27.201 I1.4237 J0.7649
G01 X17.891 Y27.328
G01 X17.866 Y27.754
G01 X18.329 Y27.781
G03 X19.287 Y28.940 I-0.1925 J1.1342
G02 X28.636 Y21.195 I-1.5564 J-11.3942
G03 X27.603 Y20.196 I0.1556 J-1.1946
G01 Y19.834
G02 X10.030 Y10.242 I-10.0980 J-2.3938
G03 X8.308 Y10.737 I-1.1159 J-0.6377
G01 X7.846 Y11.418
G01 X7.459 Y12.098
G01 Y12.132
G01 X8.383 Y12.510
G03 X8.837 Y14.022 I-0.6571 J1.0212
G03 X8.719 Y20.842 I-3.0430 J3.3589
G03 X8.299 Y21.901 I-1.1282 J0.1648
G01 X7.527 Y22.564
G01 X7.384 Y22.657
G02 X14.499 Y28.587 I10.1933 J-4.9960
G03 X15.683 Y27.630 I1.1609 J0.2246
G01 X17.866 Y27.754
G01 X17.843 Y28.180
G01 X18.228 Y28.201
G03 X18.858 Y28.881 I-0.1094 J0.7332
G01 Y29.419
G02 X29.190 Y20.901 I-1.1137 J-11.8762
G01 X28.560 Y20.733
G03 X28.031 Y20.120 I0.2081 J-0.7145
G01 Y19.910
G02 X9.339 Y10.342 I-10.5335 J-2.4645
G03 X8.299 Y10.132 I-0.4116 J-0.6412
G01 X8.249 Y10.107
G02 X6.871 Y12.325 I7.9944 J6.5029
G01 X6.888 Y12.358
G01 X8.157 Y12.879
G03 X8.451 Y13.812 I-0.4076 J0.6411
G01 X8.291 Y14.122
G03 X8.232 Y20.691 I-2.5178 J3.2621
G03 X8.005 Y21.582 I-0.6793 J0.3010
G01 X7.233 Y22.245
G01 X7.048 Y22.346
G01 X6.796 Y22.438
G02 X14.843 Y29.125 I10.7715 J-4.7780
G01 X14.935 Y28.579
G03 X15.750 Y28.066 I0.7215 J0.2432
G01 X17.843 Y28.180
G00 Z20.000
G00 X17.500 Y20.184
G00 Z-0.700
G01 Z-1.200 F120
G01 Y19.970 F400
G02 X16.861 Y15.114 I-0.0013 J-2.4703
G02 X15.030 Y17.500 I0.6394 J2.3863
G01 X15.114 Y18.139
G01 X15.118 Y18.149
G02 X17.500 Y19.970 I2.3813 J-0.6465
G00 Z20.000
G00 X9.806 Y18.221
G00 Z-0.700
G01 Z-1.200 F120
G01 X9.593 Y18.169 F400
G01 X9.523 Y18.452
G01 X9.505 Y18.518
G01 X9.410 Y18.793
G01 X9.385 Y18.857
G01 X9.265 Y19.123
G01 X9.235 Y19.184
G01 X9.091 Y19.437
G01 X9.055 Y19.496
G01 X8.889 Y19.735
G01 X8.848 Y19.790
G01 X8.660 Y20.013
G01 X8.614 Y20.063
G01 X8.406 Y20.268
G01 X8.356 Y20.314
G01 X8.131 Y20.499
G01 X8.076 Y20.541
G01 X7.951 Y20.626
G01 X7.959 Y20.644
G03 X7.891 Y21.394 I-0.4255 J0.3396
G01 X7.141 Y22.034
G03 X6.500 Y22.332 I-1.1937 J-1.7290
G02 X15.023 Y29.400 I11.0831 J-4.6929
G01 X15.135 Y28.705
G03 X15.673 Y28.295 I0.5123 J0.1149
G01 X18.148 Y28.419
G03 X18.636 Y28.943 I-0.0371 J0.5237
G01 X18.640 Y29.658
G01 X18.767 Y29.651
G02 X29.463 Y20.750 I-1.0163 J-12.0996
G01 X28.630 Y20.526
G03 X28.245 Y20.020 I0.1397 J-0.5061
G01 X28.248 Y19.968
G01 X28.255 Y19.916
G02 X9.259 Y10.130 I-10.7413 J-2.4802
G03 X8.583 Y10.108 I-0.3252 J-0.4121
G01 X8.240 Y9.800
G01 X8.228 Y9.793
G02 X6.572 Y12.467 I7.9509 J6.7750
G01 X7.991 Y13.048
G03 X8.229 Y13.763 I-0.2283 J0.4728
G01 X8.016 Y14.172
G01 X8.023 Y14.196
G01 X8.130 Y14.272
G01 X8.185 Y14.313
G01 X8.406 Y14.503
G01 X8.456 Y14.549
G01 X8.660 Y14.759
G01 X8.705 Y14.809
G01 X8.888 Y15.036
G01 X8.929 Y15.091
G01 X9.091 Y15.334
G01 X9.127 Y15.392
G01 X9.265 Y15.649
G01 X9.295 Y15.710
G01 X9.410 Y15.978
G01 X9.434 Y16.042
G01 X9.523 Y16.319
G01 X9.542 Y16.385
G01 X9.605 Y16.670
G01 X9.618 Y16.737
G01 X9.655 Y17.026
G01 X9.661 Y17.094
G01 X9.671 Y17.386
G01 X9.672 Y17.454
G01 X9.655 Y17.745
G01 X9.649 Y17.813
G01 X9.605 Y18.101
G01 X9.593 Y18.169
G00 Z20.000
G00 X12.516 Y22.430
G00 Z-0.700
G01 Z-1.600 F120
G01 X12.466 Y22.472 F400
G01 X12.382 Y22.598
G01 X12.298 Y22.917
G02 X13.785 Y24.085 I3.1764 J-2.5143
G01 X14.121 Y23.967
G01 X14.524 Y23.866
G01 X14.541 Y23.841
G03 X12.516 Y22.430 I2.7132 J-6.0498
G00 Z20.000
G00 X19.707 Y24.118
G00 Z-0.700
G01 Z-1.600 F120
G01 Y24.135 F400
G01 X20.009 Y24.236
G01 X20.589 Y24.522
G02 X24.024 Y21.800 I-2.2698 J-6.3946
G01 X23.755 Y20.926
G01 X23.747 Y20.607
G03 X19.707 Y24.118 I-6.3388 J-3.2139
G01 X19.566 Y23.711
G03 X12.483 Y21.758 I-2.0995 J-6.2075
G01 X12.457
G01 X12.306 Y21.985
G01 X12.004 Y22.363
G01 X11.928 Y22.623
G01 X11.911 Y22.690
G01 X11.777 Y22.942
G02 X13.751 Y24.564 I4.0189 J-2.8811
G03 X15.960 Y24.186 I1.8645 J4.2520
G01 X18.547 Y24.345
G03 X20.563 Y25.000 I-0.3051 J4.3678
G02 X24.511 Y21.842 I-2.3965 J-7.0423
G01 X24.394 Y21.540
G01 X24.175 Y20.809
G01 Y19.230
G02 X12.340 Y12.820 I-6.6887 J-1.7810
G01 X12.348 Y12.871
G01 X12.525 Y13.131
G01 X12.558 Y13.148
G03 X22.197 Y22.052 I4.9166 J4.3467
G03 X19.566 Y23.711 I-4.6681 J-4.4864
G01 X19.416 Y23.304
G01 X19.364 Y23.323
G03 X12.415 Y20.994 I-1.8924 J-5.8826
G03 X11.609 Y22.170 I-5.1215 J-2.6474
G01 X11.508 Y22.531
G01 X11.458 Y22.623
G01 X11.256 Y23.026
G02 X13.751 Y25.042 I5.6063 J-4.3862
G03 X15.893 Y24.614 I1.8736 J3.7990
G01 X18.329 Y24.765
G03 X20.547 Y25.496 I-0.1288 J4.1208
G02 X24.999 Y21.876 I-2.6361 J-7.7891
G01 Y21.834
G01 X24.839 Y21.506
G01 X24.604 Y20.733
G01 Y19.305
G02 X11.886 Y12.678 I-7.1196 J-1.8539
G01 X11.928 Y13.014
G01 X12.264 Y13.509
G01 X12.483 Y13.921
G03 X23.407 Y15.917 I4.9859 J3.6039
G03 X19.416 Y23.304 I-5.9330 J1.5662
G01 X19.273 Y22.903
G03 X12.382 Y20.078 I-1.8015 J-5.4235
G03 X11.223 Y21.960 I-6.2784 J-2.5700
G01 X11.105 Y22.371
G01 X10.979 Y22.623
G01 X10.735 Y23.060
G02 X13.776 Y25.530 I6.2576 J-4.5981
G03 X15.826 Y25.042 I1.8426 J3.1969
G01 X18.396 Y25.202
G03 X20.496 Y25.992 I-0.1705 J3.6407
G02 X25.494 Y21.884 I-2.7570 J-8.4492
G01 X25.242 Y21.346
G01 X25.032 Y20.658
G01 Y19.381
G02 X11.424 Y12.552 I-7.5507 J-1.9268
G01 X11.500 Y13.005
G01 X11.508 Y13.173
G03 X12.432 Y14.828 I-5.6963 J4.2660
G03 X23.163 Y16.963 I5.0427 J2.6906
G03 X19.273 Y22.903 I-5.6915 J0.5170
G01 X19.142 Y22.494
G03 X12.348 Y18.709 I-1.6590 J-5.0121
G03 X10.819 Y21.766 I-6.3420 J-1.2600
G03 X10.198 Y23.035 I-2.6514 J-0.5128
G02 X13.818 Y26.017 I6.7271 J-4.4785
G03 X15.759 Y25.471 I1.8227 J2.7566
G01 X18.463 Y25.639
G03 X20.412 Y26.479 I-0.2399 J3.2371
G02 X25.990 Y21.850 I-2.6247 J-8.8379
G03 X25.461 Y20.582 I3.2126 J-2.0849
G01 Y19.456
G02 X11.155 Y12.216 I-7.9677 J-2.0101
G01 X10.920 Y12.392
G03 X11.088 Y13.324 I-3.0556 J1.0319
G03 X12.390 Y16.172 I-5.5185 J4.2447
G03 X22.519 Y19.067 I5.1002 J1.3231
G03 X19.142 Y22.494 I-5.0361 J-1.5847
G01 X19.009 Y22.084
G03 X12.653 Y17.508 I-1.5232 J-4.5861
G01 X12.665 Y17.140
G03 X22.316 Y17.849 I4.8252 J0.3532
G03 X19.009 Y22.084 I-4.8089 J-0.3460
G01 X18.861 Y21.685
G03 X13.181 Y16.580 I-1.3665 J-4.1917
G03 X20.441 Y14.214 I4.3134 J0.9125
G03 X18.861 Y21.685 I-2.9469 J3.2793
G01 X18.724 Y21.277
G03 X13.522 Y17.565 I-1.2287 J-3.7793
G01 X13.531 Y17.218
G03 X21.429 Y18.117 I3.9686 J0.2768
G03 X18.724 Y21.277 I-3.9168 J-0.6153
G01 X18.609 Y20.868
G03 X13.964 Y17.751 I-1.1082 J-3.3676
G01 X13.956 Y17.381
G03 X21.019 Y17.957 I3.5457 J0.1170
G03 X18.609 Y20.868 I-3.5127 J-0.4560
G01 X18.469 Y20.461
G03 X14.393 Y17.678 I-0.9692 J-2.9562
G01 X14.391 Y17.353
G03 X20.606 Y17.789 I3.1132 J0.1361
G03 X18.469 Y20.461 I-3.0917 J-0.2825
G01 X18.340 Y20.051
G03 X14.809 Y17.558 I-0.8338 J-2.5662
G01 Y17.432
G01 X14.885 Y16.861
G03 X15.952 Y15.290 I2.7383 J0.7119
G03 X18.965 Y19.753 I1.5391 J2.2099
G03 X18.340 Y20.051 I-1.4160 J-2.1664
G00 Z20.000
G00 X17.995 Y25.610
G00 Z-1.100
G01 Z-1.600 F120
G01 X17.968 Y26.041 F400
G01 X18.396 Y26.067
G03 X20.278 Y26.966 I-0.1724 J2.7798
G02 X26.494 Y21.842 I-2.5126 J-9.3805
G03 X25.889 Y20.506 I2.8091 J-2.0768
G01 Y19.532
G02 X10.895 Y11.871 I-8.3854 J-2.0917
G01 X10.567 Y12.123
G01 X10.383 Y12.224
G03 X10.668 Y13.484 I-2.7972 J1.2964
G03 X10.416 Y21.573 I-4.7995 J3.8990
G03 X9.635 Y23.010 I-2.4890 J-0.4230
G02 X13.885 Y26.512 I7.5031 J-4.7743
G03 X15.826 Y25.908 I1.7462 J2.1873
G01 X17.968 Y26.041
G01 X17.942 Y26.472
G01 X18.463 Y26.504
G03 X20.101 Y27.453 I-0.2336 J2.2911
G02 X27.015 Y21.750 I-2.2987 J-9.8276
G03 X26.317 Y20.431 I1.7797 J-1.7846
G01 Y19.608
G02 X10.979 Y11.132 I-8.8125 J-2.1687
G03 X9.761 Y12.031 I-1.9452 J-1.3614
G03 X10.240 Y13.635 I-2.1975 J1.5294
G03 X10.005 Y21.388 I-4.4109 J3.7464
G03 X9.064 Y22.951 I-2.2730 J-0.3042
G02 X13.953 Y27.025 I8.3733 J-5.0777
G03 X15.759 Y26.336 I1.6751 J1.6800
G01 X17.942 Y26.472
G01 X17.916 Y26.898
G01 X18.354 Y26.924
G03 X19.900 Y27.949 I-0.1503 J1.9046
G02 X27.544 Y21.657 I-2.1463 J-10.3971
G03 X26.746 Y20.355 I1.3554 J-1.7263
G01 Y19.683
G02 X10.685 Y10.813 I-9.2374 J-2.2499
G03 X8.812 Y11.745 I-1.7650 J-1.1981
G03 X9.795 Y13.778 I-1.1034 J1.7875
G03 X9.585 Y21.212 I-3.9904 J3.6072
G03 X8.980 Y22.455 I-1.8020 J-0.1079
G01 X8.493 Y22.867
G02 X14.062 Y27.537 I9.0505 J-5.1365
G03 X15.826 Y26.773 I1.5893 J1.2501
G01 X17.916 Y26.898
G01 X17.891 Y27.328
G01 X18.430 Y27.361
G03 X19.639 Y28.444 I-0.2678 J1.5159
G02 X28.023 Y21.624 I-1.9249 J-10.9280
G01 X28.065 Y21.464
G03 X27.174 Y20.280 I0.7465 J-1.4881
G01 Y19.759
G02 X10.357 Y10.527 I-9.6676 J-2.3219
G03 X8.467 Y11.266 I-1.4574 J-0.9406
G01 X8.165 Y11.720
G01 X8.073 Y11.888
G01 Y11.922
G03 X9.333 Y13.912 I-0.3340 J1.6055
G03 X9.156 Y21.036 I-3.5400 J3.4761
G03 X8.602 Y22.212 I-1.4424 J0.0387
G01 X7.938 Y22.774
G02 X14.238 Y28.050 I9.5918 J-5.0556
G03 X15.759 Y27.201 I1.4237 J0.7649
G01 X17.891 Y27.328
G01 X17.866 Y27.754
G01 X18.329 Y27.781
G03 X19.287 Y28.940 I-0.1925 J1.1342
G02 X28.636 Y21.195 I-1.5564 J-11.3942
G03 X27.603 Y20.196 I0.1556 J-1.1946
G01 Y19.834
G02 X10.030 Y10.242 I-10.0980 J-2.3938
G03 X8.308 Y10.737 I-1.1159 J-0.6377
G01 X7.846 Y11.418
G01 X7.459 Y12.098
G01 Y12.132
G01 X8.383 Y12.510
G03 X8.837 Y14.022 I-0.6571 J1.0212
G03 X8.719 Y20.842 I-3.0430 J3.3589
G03 X8.299 Y21.901 I-1.1282 J0.1648
G01 X7.527 Y22.564
G01 X7.384 Y22.657
G02 X14.499 Y28.587 I10.1933 J-4.9960
G03 X15.683 Y27.630 I1.1609 J0.2246
G01 X17.866 Y27.754
G01 X17.843 Y28.180
G01 X18.228 Y28.201
G03 X18.858 Y28.881 I-0.1094 J0.7332
G01 Y29.419
G02 X29.190 Y20.901 I-1.1137 J-11.8762
G01 X28.560 Y20.733
G03 X28.031 Y20.120 I0.2081 J-0.7145
G01 Y19.910
G02 X9.339 Y10.342 I-10.5335 J-2.4645
G03 X8.299 Y10.132 I-0.4116 J-0.6412
G01 X8.249 Y10.107
G02 X6.871 Y12.325 I7.9944 J6.5029
G01 X6.888 Y12.358
G01 X8.157 Y12.879
G03 X8.451 Y13.812 I-0.4076 J0.6411
G01 X8.291 Y14.122
G03 X8.232 Y20.691 I-2.5178 J3.2621
G03 X8.005 Y21.582 I-0.6793 J0.3010
G01 X7.233 Y22.245
G01 X7.048 Y22.346
G01 X6.796 Y22.438
G02 X14.843 Y29.125 I10.7715 J-4.7780
G01 X14.935 Y28.579
G03 X15.750 Y28.066 I0.7215 J0.2432
G01 X17.843 Y28.180
G00 Z20.000
G00 X17.500 Y20.184
G00 Z-1.100
G01 Z-1.600 F120
G01 Y19.970 F400
G02 X16.861 Y15.114 I-0.0013 J-2.4703
G02 X15.030 Y17.500 I0.6394 J2.3863
G01 X15.114 Y18.139
G01 X15.118 Y18.149
G02 X17.500 Y19.970 I2.3813 J-0.6465
G00 Z20.000
G00 X9.806 Y18.221
G00 Z-1.100
G01 Z-1.600 F120
G01 X9.593 Y18.169 F400
G01 X9.523 Y18.452
G01 X9.505 Y18.518
G01 X9.410 Y18.793
G01 X9.385 Y18.857
G01 X9.265 Y19.123
G01 X9.235 Y19.184
G01 X9.091 Y19.437
G01 X9.055 Y19.496
G01 X8.889 Y19.735
G01 X8.848 Y19.790
G01 X8.660 Y20.013
G01 X8.614 Y20.063
G01 X8.406 Y20.268
G01 X8.356 Y20.314
G01 X8.131 Y20.499
G01 X8.076 Y20.541
G01 X7.951 Y20.626
G01 X7.959 Y20.644
G03 X7.891 Y21.394 I-0.4255 J0.3396
G01 X7.141 Y22.034
G03 X6.500 Y22.332 I-1.1937 J-1.7290
G02 X15.023 Y29.400 I11.0831 J-4.6929
G01 X15.135 Y28.705
G03 X15.673 Y28.295 I0.5123 J0.1149
G01 X18.148 Y28.419
G03 X18.636 Y28.943 I-0.0371 J0.5237
G01 X18.640 Y29.658
G01 X18.767 Y29.651
G02 X29.463 Y20.750 I-1.0163 J-12.0996
G01 X28.630 Y20.526
G03 X28.245 Y20.020 I0.1397 J-0.5061
G01 X28.248 Y19.968
G01 X28.255 Y19.916
G02 X9.259 Y10.130 I-10.7413 J-2.4802
G03 X8.583 Y10.108 I-0.3252 J-0.4121
G01 X8.240 Y9.800
G01 X8.228 Y9.793
G02 X6.572 Y12.467 I7.9509 J6.7750
G01 X7.991 Y13.048
G03 X8.229 Y13.763 I-0.2283 J0.4728
G01 X8.016 Y14.172
G01 X8.023 Y14.196
G01 X8.130 Y14.272
G01 X8.185 Y14.313
G01 X8.406 Y14.503
G01 X8.456 Y14.549
G01 X8.660 Y14.759
G01 X8.705 Y14.809
G01 X8.888 Y15.036
G01 X8.929 Y15.091
G01 X9.091 Y15.334
G01 X9.127 Y15.392
G01 X9.265 Y15.649
G01 X9.295 Y15.710
G01 X9.410 Y15.978
G01 X9.434 Y16.042
G01 X9.523 Y16.319
G01 X9.542 Y16.385
G01 X9.605 Y16.670
G01 X9.618 Y16.737
G01 X9.655 Y17.026
G01 X9.661 Y17.094
G01 X9.671 Y17.386
G01 X9.672 Y17.454
G01 X9.655 Y17.745
G01 X9.649 Y17.813
G01 X9.605 Y18.101
G01 X9.593 Y18.169
G00 Z20.000
G00 X12.516 Y22.430
G00 Z-1.100
G01 Z-2.000 F120
G01 X12.466 Y22.472 F400
G01 X12.382 Y22.598
G01 X12.298 Y22.917
G02 X13.785 Y24.085 I3.1764 J-2.5143
G01 X14.121 Y23.967
G01 X14.524 Y23.866
G01 X14.541 Y23.841
G03 X12.516 Y22.430 I2.7132 J-6.0498
G00 Z20.000
G00 X19.707 Y24.118
G00 Z-1.100
G01 Z-2.000 F120
G01 Y24.135 F400
G01 X20.009 Y24.236
G01 X20.589 Y24.522
G02 X24.024 Y21.800 I-2.2698 J-6.3946
G01 X23.755 Y20.926
G01 X23.747 Y20.607
G03 X19.707 Y24.118 I-6.3388 J-3.2139
G01 X19.566 Y23.711
G03 X12.483 Y21.758 I-2.0995 J-6.2075
G01 X12.457
G01 X12.306 Y21.985
G01 X12.004 Y22.363
G01 X11.928 Y22.623
G01 X11.911 Y22.690
G01 X11.777 Y22.942
G02 X13.751 Y24.564 I4.0189 J-2.8811
G03 X15.960 Y24.186 I1.8645 J4.2520
G01 X18.547 Y24.345
G03 X20.563 Y25.000 I-0.3051 J4.3678
G02 X24.511 Y21.842 I-2.3965 J-7.0423
G01 X24.394 Y21.540
G01 X24.175 Y20.809
G01 Y19.230
G02 X12.340 Y12.820 I-6.6887 J-1.7810
G01 X12.348 Y12.871
G01 X12.525 Y13.131
G01 X12.558 Y13.148
G03 X22.197 Y22.052 I4.9166 J4.3467
G03 X19.566 Y23.711 I-4.6681 J-4.4864
G01 X19.416 Y23.304
G01 X19.364 Y23.323
G03 X12.415 Y20.994 I-1.8924 J-5.8826
G03 X11.609 Y22.170 I-5.1215 J-2.6474
G01 X11.508 Y22.531
G01 X11.458 Y22.623
G01 X11.256 Y23.026
G02 X13.751 Y25.042 I5.6063 J-4.3862
G03 X15.893 Y24.614 I1.8736 J3.7990
G01 X18.329 Y24.765
G03 X20.547 Y25.496 I-0.1288 J4.1208
G02 X24.999 Y21.876 I-2.6361 J-7.7891
G01 Y21.834
G01 X24.839 Y21.506
G01 X24.604 Y20.733
G01 Y19.305
G02 X11.886 Y12.678 I-7.1196 J-1.8539
G01 X11.928 Y13.014
G01 X12.264 Y13.509
G01 X12.483 Y13.921
G03 X23.407 Y15.917 I4.9859 J3.6039
G03 X19.416 Y23.304 I-5.9330 J1.5662
G01 X19.273 Y22.903
G03 X12.382 Y20.078 I-1.8015 J-5.4235
G03 X11.223 Y21.960 I-6.2784 J-2.5700
G01 X11.105 Y22.371
G01 X10.979 Y22.623
G01 X10.735 Y23.060
G02 X13.776 Y25.530 I6.2576 J-4.5981
G03 X15.826 Y25.042 I1.8426 J3.1969
G01 X18.396 Y25.202
G03 X20.496 Y25.992 I-0.1705 J3.6407
G02 X25.494 Y21.884 I-2.7570 J-8.4492
G01 X25.242 Y21.346
G01 X25.032 Y20.658
G01 Y19.381
G02 X11.424 Y12.552 I-7.5507 J-1.9268
G01 X11.500 Y13.005
G01 X11.508 Y13.173
G03 X12.432 Y14.828 I-5.6963 J4.2660
G03 X23.163 Y16.963 I5.0427 J2.6906
G03 X19.273 Y22.903 I-5.6915 J0.5170
G01 X19.142 Y22.494
G03 X12.348 Y18.709 I-1.6590 J-5.0121
G03 X10.819 Y21.766 I-6.3420 J-1.2600
G03 X10.198 Y23.035 I-2.6514 J-0.5128
G02 X13.818 Y26.017 I6.7271 J-4.4785
G03 X15.759 Y25.471 I1.8227 J2.7566
G01 X18.463 Y25.639
G03 X20.412 Y26.479 I-0.2399 J3.2371
G02 X25.990 Y21.850 I-2.6247 J-8.8379
G03 X25.461 Y20.582 I3.2126 J-2.0849
G01 Y19.456
G02 X11.155 Y12.216 I-7.9677 J-2.0101
G01 X10.920 Y12.392
G03 X11.088 Y13.324 I-3.0556 J1.0319
G03 X12.390 Y16.172 I-5.5185 J4.2447
G03 X22.519 Y19.067 I5.1002 J1.3231
G03 X19.142 Y22.494 I-5.0361 J-1.5847
G01 X19.009 Y22.084
G03 X12.653 Y17.508 I-1.5232 J-4.5861
G01 X12.665 Y17.140
G03 X22.316 Y17.849 I4.8252 J0.3532
G03 X19.009 Y22.084 I-4.8089 J-0.3460
G01 X18.861 Y21.685
G03 X13.181 Y16.580 I-1.3665 J-4.1917
G03 X20.441 Y14.214 I4.3134 J0.9125
G03 X18.861 Y21.685 I-2.9469 J3.2793
G01 X18.724 Y21.277
G03 X13.522 Y17.565 I-1.2287 J-3.7793
G01 X13.531 Y17.218
G03 X21.429 Y18.117 I3.9686 J0.2768
G03 X18.724 Y21.277 I-3.9168 J-0.6153
G01 X18.609 Y20.868
G03 X13.964 Y17.751 I-1.1082 J-3.3676
G01 X13.956 Y17.381
G03 X21.019 Y17.957 I3.5457 J0.1170
G03 X18.609 Y20.868 I-3.5127 J-0.4560
G01 X18.469 Y20.461
G03 X14.393 Y17.678 I-0.9692 J-2.9562
G01 X14.391 Y17.353
G03 X20.606 Y17.789 I3.1132 J0.1361
G03 X18.469 Y20.461 I-3.0917 J-0.2825
G01 X18.340 Y20.051
G03 X14.809 Y17.558 I-0.8338 J-2.5662
G01 Y17.432
G01 X14.885 Y16.861
G03 X15.952 Y15.290 I2.7383 J0.7119
G03 X18.965 Y19.753 I1.5391 J2.2099
G03 X18.340 Y20.051 I-1.4160 J-2.1664
G00 Z20.000
G00 X17.995 Y25.610
G00 Z-1.500
G01 Z-2.000 F120
G01 X17.968 Y26.041 F400
G01 X18.396 Y26.067
G03 X20.278 Y26.966 I-0.1724 J2.7798
G02 X26.494 Y21.842 I-2.5126 J-9.3805
G03 X25.889 Y20.506 I2.8091 J-2.0768
G01 Y19.532
G02 X10.895 Y11.871 I-8.3854 J-2.0917
G01 X10.567 Y12.123
G01 X10.383 Y12.224
G03 X10.668 Y13.484 I-2.7972 J1.2964
G03 X10.416 Y21.573 I-4.7995 J3.8990
G03 X9.635 Y23.010 I-2.4890 J-0.4230
G02 X13.885 Y26.512 I7.5031 J-4.7743
G03 X15.826 Y25.908 I1.7462 J2.1873
G01 X17.968 Y26.041
G01 X17.942 Y26.472
G01 X18.463 Y26.504
G03 X20.101 Y27.453 I-0.2336 J2.2911
G02 X27.015 Y21.750 I-2.2987 J-9.8276
G03 X26.317 Y20.431 I1.7797 J-1.7846
G01 Y19.608
G02 X10.979 Y11.132 I-8.8125 J-2.1687
G03 X9.761 Y12.031 I-1.9452 J-1.3614
G03 X10.240 Y13.635 I-2.1975 J1.5294
G03 X10.005 Y21.388 I-4.4109 J3.7464
G03 X9.064 Y22.951 I-2.2730 J-0.3042
G02 X13.953 Y27.025 I8.3733 J-5.0777
G03 X15.759 Y26.336 I1.6751 J1.6800
G01 X17.942 Y26.472
G01 X17.916 Y26.898
G01 X18.354 Y26.924
G03 X19.900 Y27.949 I-0.1503 J1.9046
G02 X27.544 Y21.657 I-2.1463 J-10.3971
G03 X26.746 Y20.355 I1.3554 J-1.7263
G01 Y19.683
G02 X10.685 Y10.813 I-9.2374 J-2.2499
G03 X8.812 Y11.745 I-1.7650 J-1.1981
G03 X9.795 Y13.778 I-1.1034 J1.7875
G03 X9.585 Y21.212 I-3.9904 J3.6072
G03 X8.980 Y22.455 I-1.8020 J-0.1079
G01 X8.493 Y22.867
G02 X14.062 Y27.537 I9.0505 J-5.1365
G03 X15.826 Y26.773 I1.5893 J1.2501
G01 X17.916 Y26.898
G01 X17.891 Y27.328
G01 X18.430 Y27.361
G03 X19.639 Y28.444 I-0.2678 J1.5159
G02 X28.023 Y21.624 I-1.9249 J-10.9280
G01 X28.065 Y21.464
G03 X27.174 Y20.280 I0.7465 J-1.4881
G01 Y19.759
G02 X10.357 Y10.527 I-9.6676 J-2.3219
G03 X8.467 Y11.266 I-1.4574 J-0.9406
G01 X8.165 Y11.720
G01 X8.073 Y11.888
G01 Y11.922
G03 X9.333 Y13.912 I-0.3340 J1.6055
G03 X9.156 Y21.036 I-3.5400 J3.4761
G03 X8.602 Y22.212 I-1.4424 J0.0387
G01 X7.938 Y22.774
G02 X14.238 Y28.050 I9.5918 J-5.0556
G03 X15.759 Y27.201 I1.4237 J0.7649
G01 X17.891 Y27.328
G01 X17.866 Y27.754
G01 X18.329 Y27.781
G03 X19.287 Y28.940 I-0.1925 J1.1342
G02 X28.636 Y21.195 I-1.5564 J-11.3942
G03 X27.603 Y20.196 I0.1556 J-1.1946
G01 Y19.834
G02 X10.030 Y10.242 I-10.0980 J-2.3938
G03 X8.308 Y10.737 I-1.1159 J-0.6377
G01 X7.846 Y11.418
G01 X7.459 Y12.098
G01 Y12.132
G01 X8.383 Y12.510
G03 X8.837 Y14.022 I-0.6571 J1.0212
G03 X8.719 Y20.842 I-3.0430 J3.3589
G03 X8.299 Y21.901 I-1.1282 J0.1648
G01 X7.527 Y22.564
G01 X7.384 Y22.657
G02 X14.499 Y28.587 I10.1933 J-4.9960
G03 X15.683 Y27.630 I1.1609 J0.2246
G01 X17.866 Y27.754
G01 X17.843 Y28.180
G01 X18.228 Y28.201
G03 X18.858 Y28.881 I-0.1094 J0.7332
G01 Y29.419
G02 X29.190 Y20.901 I-1.1137 J-11.8762
G01 X28.560 Y20.733
G03 X28.031 Y20.120 I0.2081 J-0.7145
G01 Y19.910
G02 X9.339 Y10.342 I-10.5335 J-2.4645
G03 X8.299 Y10.132 I-0.4116 J-0.6412
G01 X8.249 Y10.107
G02 X6.871 Y12.325 I7.9944 J6.5029
G01 X6.888 Y12.358
G01 X8.157 Y12.879
G03 X8.451 Y13.812 I-0.4076 J0.6411
G01 X8.291 Y14.122
G03 X8.232 Y20.691 I-2.5178 J3.2621
G03 X8.005 Y21.582 I-0.6793 J0.3010
G01 X7.233 Y22.245
G01 X7.048 Y22.346
G01 X6.796 Y22.438
G02 X14.843 Y29.125 I10.7715 J-4.7780
G01 X14.935 Y28.579
G03 X15.750 Y28.066 I0.7215 J0.2432
G01 X17.843 Y28.180
G00 Z20.000
G00 X17.500 Y20.184
G00 Z-1.500
G01 Z-2.000 F120
G01 Y19.970 F400
G02 X16.861 Y15.114 I-0.0013 J-2.4703
G02 X15.030 Y17.500 I0.6394 J2.3863
G01 X15.114 Y18.139
G01 X15.118 Y18.149
G02 X17.500 Y19.970 I2.3813 J-0.6465
G00 Z20.000
G00 X9.806 Y18.221
G00 Z-1.500
G01 Z-2.000 F120
G01 X9.593 Y18.169 F400
G01 X9.523 Y18.452
G01 X9.505 Y18.518
G01 X9.410 Y18.793
G01 X9.385 Y18.857
G01 X9.265 Y19.123
G01 X9.235 Y19.184
G01 X9.091 Y19.437
G01 X9.055 Y19.496
G01 X8.889 Y19.735
G01 X8.848 Y19.790
G01 X8.660 Y20.013
G01 X8.614 Y20.063
G01 X8.406 Y20.268
G01 X8.356 Y20.314
G01 X8.131 Y20.499
G01 X8.076 Y20.541
G01 X7.951 Y20.626
G01 X7.959 Y20.644
G03 X7.891 Y21.394 I-0.4255 J0.3396
G01 X7.141 Y22.034
G03 X6.500 Y22.332 I-1.1937 J-1.7290
G02 X15.023 Y29.400 I11.0831 J-4.6929
G01 X15.135 Y28.705
G03 X15.673 Y28.295 I0.5123 J0.1149
G01 X18.148 Y28.419
G03 X18.636 Y28.943 I-0.0371 J0.5237
G01 X18.640 Y29.658
G01 X18.767 Y29.651
G02 X29.463 Y20.750 I-1.0163 J-12.0996
G01 X28.630 Y20.526
G03 X28.245 Y20.020 I0.1397 J-0.5061
G01 X28.248 Y19.968
G01 X28.255 Y19.916
G02 X9.259 Y10.130 I-10.7413 J-2.4802
G03 X8.583 Y10.108 I-0.3252 J-0.4121
G01 X8.240 Y9.800
G01 X8.228 Y9.793
G02 X6.572 Y12.467 I7.9509 J6.7750
G01 X7.991 Y13.048
G03 X8.229 Y13.763 I-0.2283 J0.4728
G01 X8.016 Y14.172
G01 X8.023 Y14.196
G01 X8.130 Y14.272
G01 X8.185 Y14.313
G01 X8.406 Y14.503
G01 X8.456 Y14.549
G01 X8.660 Y14.759
G01 X8.705 Y14.809
G01 X8.888 Y15.036
G01 X8.929 Y15.091
G01 X9.091 Y15.334
G01 X9.127 Y15.392
G01 X9.265 Y15.649
G01 X9.295 Y15.710
G01 X9.410 Y15.978
G01 X9.434 Y16.042
G01 X9.523 Y16.319
G01 X9.542 Y16.385
G01 X9.605 Y16.670
G01 X9.618 Y16.737
G01 X9.655 Y17.026
G01 X9.661 Y17.094
G01 X9.671 Y17.386
G01 X9.672 Y17.454
G01 X9.655 Y17.745
G01 X9.649 Y17.813
G01 X9.605 Y18.101
G01 X9.593 Y18.169
G00 Z20.000


(No. 2 Parallel pocket: Hole 6)
G00 X19.756 Y17.903 Z20.000
G00 Z0.500
G01 Z-0.400 F120
G01 X19.773 F400
G01 X19.807 Y17.449
G01 X19.790 Y17.265
G01 X19.773
G01 X19.765 Y17.365
G01 X19.756 Y17.903
G01 X19.326 Y17.885
G01 X19.320 Y18.050
G03 X19.160 Y19.533 I-15.1710 J-0.8830
G01 Y19.583
G02 X19.261 Y15.568 I-1.4036 J-2.0441
G03 X19.326 Y17.885 I-14.6910 J1.5757
G01 X18.892 Y17.864
G03 X18.580 Y20.347 I-16.7788 J-0.8475
G02 X18.715 Y14.770 I-0.8538 J-2.8110
G03 X18.892 Y17.864 I-14.1163 J2.3628
G01 X18.474 Y17.852
G03 X18.001 Y20.902 I-14.4906 J-0.6891
G02 X18.152 Y14.190 I-0.2777 J-3.3638
G03 X18.474 Y17.852 I-13.5944 J3.0422
G01 X18.046 Y17.832
G03 X17.421 Y21.322 I-13.1096 J-0.5456
G02 X18.726 Y13.862 I0.3020 J-3.7913
G02 X17.589 Y13.728 I-1.0078 J3.6722
G03 X18.046 Y17.832 I-12.6119 J3.4802
G01 X17.616 Y17.812
G03 X16.850 Y21.641 I-12.5157 J-0.5135
G02 X20.039 Y21.079 I0.9582 J-3.8937
G02 X17.018 Y13.350 I-2.3225 J-3.5473
G03 X17.616 Y17.812 I-11.8727 J3.8631
G01 X17.189 Y17.793
G03 X16.270 Y21.901 I-11.9529 J-0.5160
G02 X21.447 Y20.344 I1.5583 J-4.2024
G02 X16.447 Y13.031 I-3.7276 J-2.8174
G03 X17.189 Y17.793 I-11.2255 J4.1885
G01 X16.760 Y17.774
G03 X15.699 Y22.120 I-11.4492 J-0.4925
G02 X21.608 Y20.840 I2.1399 J-4.3992
G02 X15.876 Y12.771 I-3.8821 J-3.3129
G03 X16.760 Y17.774 I-10.5761 J4.4494
G01 X16.331 Y17.754
G03 X15.128 Y22.296 I-10.9449 J-0.4683
G02 X21.773 Y21.293 I2.7092 J-4.5635
G02 X15.296 Y12.544 I-4.0521 J-3.7721
G03 X16.331 Y17.754 I-9.9195 J4.6780
G01 X15.902 Y17.737
G03 X14.557 Y22.439 I-10.5033 J-0.4606
G02 X21.552 Y22.090 I3.2748 J-4.6423
G02 X14.716 Y12.367 I-3.8210 J-4.5779
G03 X15.902 Y17.737 I-9.3145 J4.8715
G01 X15.476 Y17.722
G03 X13.977 Y22.582 I-9.9798 J-0.4172
G02 X22.131 Y22.149 I3.8294 J-4.8816
G02 X14.128 Y12.225 I-4.4011 J-4.6399
G03 X15.476 Y17.722 I-8.6614 J5.0378
G01 X15.048 Y17.703
G03 X13.398 Y22.691 I-9.5483 J-0.3929
G02 X22.868 Y22.003 I4.3932 J-5.0477
G02 X13.549 Y12.115 I-5.1302 J-4.4999
G03 X15.048 Y17.703 I-8.0423 J5.1534
G01 X14.620 Y17.684
G03 X12.818 Y22.741 I-9.0361 J-0.3696
G02 X22.952 Y22.541 I4.9681 J-5.0794
G02 X12.961 Y12.040 I-5.2141 J-5.0423
G03 X14.620 Y17.684 I-7.3702 J5.2324
G01 X14.188 Y17.664
G03 X12.238 Y22.767 I-8.5767 J-0.3532
G02 X23.668 Y22.376 I5.5468 J-5.1209
G02 X12.381 Y11.989 I-5.9293 J-4.8830
G03 X14.188 Y17.664 I-6.7624 J5.2786
G01 X13.753 Y17.645
G03 X11.659 Y22.758 I-8.1053 J-0.3342
G02 X24.230 Y22.347 I6.1248 J-5.1131
G02 X11.793 Y11.981 I-6.4891 J-4.8579
G03 X13.753 Y17.645 I-6.1470 J5.2979
G01 X13.323 Y17.626
G03 X11.071 Y22.750 I-7.6542 J-0.3076
G02 X25.057 Y21.881 I6.7000 J-5.1512
G02 X11.205 Y11.989 I-7.3207 J-4.3927
G03 X13.323 Y17.626 I-5.5366 J5.2968
G01 X12.888 Y17.606
G03 X10.491 Y22.708 I-7.2186 J-0.2773
G02 X25.620 Y21.749 I7.2703 J-5.1195
G02 X10.617 Y12.031 I-7.8845 J-4.2673
G03 X12.888 Y17.606 I-4.9472 J5.2656
G01 X12.465 Y17.586
G03 X9.937 Y22.615 I-6.7567 J-0.2465
G01 X9.920 Y22.657
G02 X26.246 Y21.438 I7.8286 J-5.0899
G02 X10.029 Y12.107 I-8.5106 J-3.9670
G03 X12.465 Y17.586 I-4.3207 J5.2017
G01 X12.037 Y17.566
G03 X9.366 Y22.515 I-6.3203 J-0.2167
G01 X9.349 Y22.557
G02 X26.816 Y21.202 I8.3987 J-4.9946
G02 X9.441 Y12.208 I-9.0838 J-3.7312
G03 X12.037 Y17.566 I-3.7240 J5.1119
G01 X11.614 Y17.547
G03 X8.761 Y22.397 I-5.8818 J-0.1957
G02 X27.380 Y20.917 I8.9833 J-4.8413
G02 X8.853 Y12.342 I-9.6509 J-3.4496
G03 X11.614 Y17.547 I-3.1187 J4.9888
G01 X11.183 Y17.526
G03 X8.173 Y22.229 I-5.4364 J-0.1650
G02 X27.823 Y20.953 I9.5624 J-4.6842
G02 X8.257 Y12.519 I-10.0995 J-3.4834
G03 X11.183 Y17.526 I-2.5079 J4.8244
G01 X10.756 Y17.504
G03 X7.585 Y22.019 I-4.9812 J-0.1279
G02 X28.696 Y19.242 I10.1465 J-4.4993
G02 X7.669 Y12.754 I-10.9676 J-1.7732
G03 X10.756 Y17.504 I-1.8917 J4.6082
G01 X10.328 Y17.480
G03 X6.997 Y21.767 I-4.5589 J-0.1051
G02 X28.834 Y14.335 I10.7308 J-4.2671
G02 X7.081 Y12.997 I-11.1106 J3.1393
G03 X10.328 Y17.480 I-1.3102 J4.3666
G01 X9.893 Y17.458
G03 X6.434 Y21.456 I-4.1384 J-0.0851
G02 X11.021 Y27.447 I10.7731 J-3.4976
G02 X24.361 Y7.515 I6.6752 J-9.9626
G02 X6.493 Y13.291 I-6.6461 J9.9662
G03 X9.893 Y17.458 I-0.7381 J4.0727
G00 Z20.000
G00 Y17.457
G00 Z0.100
G01 Z-0.400 F120
G01 X9.671 Y17.446 F400
G01 X9.652 Y17.780
G01 X9.646 Y17.832
G01 X9.590 Y18.181
G01 X9.579 Y18.232
G01 X9.487 Y18.574
G01 X9.470 Y18.623
G01 X9.343 Y18.953
G01 X9.322 Y19.001
G01 X9.162 Y19.316
G01 X9.135 Y19.362
G01 X8.943 Y19.658
G01 X8.912 Y19.701
G01 X8.691 Y19.976
G01 X8.655 Y20.015
G01 X8.406 Y20.265
G01 X8.367 Y20.301
G01 X8.094 Y20.524
G01 X8.051 Y20.555
G01 X7.756 Y20.749
G01 X7.711 Y20.776
G01 X7.397 Y20.938
G01 X7.349 Y20.960
G01 X7.020 Y21.089
G01 X6.970 Y21.105
G01 X6.629 Y21.199
G01 X6.578 Y21.211
G01 X6.230 Y21.269
G01 X6.135 Y21.278
G01 X5.863 Y21.074
G01 X6.135 Y21.278
G02 X19.337 Y29.587 I11.4617 J-3.5698
G02 X15.837 Y5.416 I-1.6320 J-12.1025
G02 X6.191 Y13.494 I1.8254 J11.9778
G01 X6.175 Y13.491
G01 X5.896 Y13.695
G01 X6.175 Y13.491
G01 X6.191 Y13.494
G01 X6.265 Y13.502
G01 X6.613 Y13.563
G01 X6.664 Y13.575
G01 X7.004 Y13.672
G01 X7.054 Y13.689
G01 X7.382 Y13.821
G01 X7.429 Y13.843
G01 X7.742 Y14.009
G01 X7.787 Y14.036
G01 X8.080 Y14.232
G01 X8.122 Y14.264
G01 X8.394 Y14.489
G01 X8.433 Y14.525
G01 X8.679 Y14.778
G01 X8.714 Y14.817
G01 X8.933 Y15.094
G01 X8.964 Y15.137
G01 X9.153 Y15.436
G01 X9.179 Y15.481
G01 X9.337 Y15.798
G01 X9.358 Y15.846
G01 X9.482 Y16.177
G01 X9.497 Y16.227
G01 X9.587 Y16.569
G01 X9.597 Y16.620
G01 X9.650 Y16.970
G01 X9.655 Y17.022
G01 X9.672 Y17.375
G01 Y17.427
G01 X9.671 Y17.446
G00 Z20.000
G00 X19.761 Y17.603
G00 Z0.100
G01 Z-0.800 F120
G01 X19.756 Y17.903 F400
G01 X19.773
G01 X19.807 Y17.449
G01 X19.790 Y17.265
G01 X19.773
G01 X19.765 Y17.365
G01 X19.761 Y17.603
G01 X19.339 Y17.586
G03 X19.160 Y19.583 I-19.3282 J-0.7251
G02 X19.261 Y15.568 I-1.4036 J-2.0441
G03 X19.339 Y17.586 I-14.9025 J1.5876
G01 X18.907 Y17.565
G03 X18.580 Y20.347 I-16.9720 J-0.5803
G02 X18.715 Y14.770 I-0.8538 J-2.8110
G03 X18.907 Y17.565 I-14.5564 J2.4037
G01 X18.482 Y17.554
G03 X18.001 Y20.902 I-14.1093 J-0.3201
G02 X18.152 Y14.190 I-0.2777 J-3.3638
G03 X18.482 Y17.554 I-13.3809 J3.0111
G01 X18.059 Y17.537
G03 X17.421 Y21.322 I-13.2845 J-0.2939
G02 X18.726 Y13.862 I0.3020 J-3.7913
G02 X17.589 Y13.728 I-1.0078 J3.6722
G03 X18.059 Y17.537 I-12.8143 J3.5152
G01 X17.631 Y17.517
G03 X16.850 Y21.641 I-12.6733 J-0.2623
G02 X20.039 Y21.079 I0.9582 J-3.8937
G02 X17.018 Y13.350 I-2.3225 J-3.5473
G03 X17.631 Y17.510 I-12.0657 J3.9026
G01 X17.202 Y17.491
G03 X16.270 Y21.901 I-12.0716 J-0.2467
G02 X21.447 Y20.344 I1.5583 J-4.2024
G02 X16.447 Y13.031 I-3.7276 J-2.8174
G03 X17.202 Y17.483 I-11.3214 J4.2118
G01 X16.774 Y17.464
G03 X15.699 Y22.120 I-11.5677 J-0.2183
G02 X21.608 Y20.840 I2.1399 J-4.3992
G02 X15.876 Y12.771 I-3.8821 J-3.3129
G03 X16.774 Y17.464 I-10.6693 J4.4750
G01 X16.345 Y17.444
G03 X15.128 Y22.296 I-11.0553 J-0.1942
G02 X21.773 Y21.293 I2.7092 J-4.5635
G02 X15.296 Y12.544 I-4.0521 J-3.7721
G03 X16.345 Y17.439 I-10.0087 J4.7052
G01 X15.914 Y17.423
G03 X14.557 Y22.439 I-10.5622 J-0.1674
G02 X21.552 Y22.090 I3.2748 J-4.6423
G02 X14.716 Y12.367 I-3.8210 J-4.5779
G03 X15.914 Y17.423 I-9.3643 J4.8887
G01 X15.488 Y17.408
G03 X13.977 Y22.582 I-10.0231 J-0.1190
G02 X22.131 Y22.149 I3.8294 J-4.8816
G02 X14.128 Y12.225 I-4.4011 J-4.6399
G03 X15.488 Y17.408 I-8.6894 J5.0486
G01 X15.060 Y17.415
G01 Y17.426
G03 X13.398 Y22.691 I-9.6016 J-0.1373
G02 X22.868 Y22.003 I4.3932 J-5.0477
G02 X13.549 Y12.115 I-5.1302 J-4.4999
G03 X15.060 Y17.415 I-8.0854 J5.1713
G01 X14.632 Y17.414
G03 X12.818 Y22.741 I-9.0862 J-0.1212
G02 X22.952 Y22.541 I4.9681 J-5.0794
G02 X12.961 Y12.040 I-5.2141 J-5.0423
G03 X14.632 Y17.414 I-7.4150 J5.2528
G01 X14.201 Y17.403
G03 X12.238 Y22.767 I-8.6238 J-0.1143
G02 X23.668 Y22.376 I5.5468 J-5.1209
G02 X12.381 Y11.989 I-5.9293 J-4.8830
G03 X14.201 Y17.403 I-6.8043 J5.2994
G01 X13.764 Y17.395
G03 X11.659 Y22.758 I-8.1440 J-0.1016
G02 X24.230 Y22.347 I6.1248 J-5.1131
G02 X11.793 Y11.981 I-6.4891 J-4.8579
G03 X13.764 Y17.395 I-6.1735 J5.3124
G01 X13.334 Y17.397
G03 X11.071 Y22.750 I-7.6898 J-0.0960
G02 X25.057 Y21.881 I6.7000 J-5.1512
G02 X11.205 Y11.989 I-7.3207 J-4.3927
G03 X13.334 Y17.397 I-5.5614 J5.3116
G01 X12.898
G03 X10.491 Y22.708 I-7.2509 J-0.0856
G02 X25.620 Y21.749 I7.2703 J-5.1195
G02 X10.617 Y12.031 I-7.8845 J-4.2673
G03 X12.898 Y17.397 I-4.9700 J5.2803
G01 X12.474 Y17.383
G03 X9.937 Y22.615 I-6.7864 J-0.0597
G01 X9.920 Y22.657
G02 X26.246 Y21.438 I7.8286 J-5.0899
G02 X10.029 Y12.107 I-8.5106 J-3.9670
G03 X12.474 Y17.383 I-4.3414 J5.2164
G01 X12.046 Y17.381
G03 X9.366 Y22.515 I-6.3467 J-0.0466
G01 X9.349 Y22.557
G02 X26.816 Y21.202 I8.3987 J-4.9946
G02 X9.441 Y12.208 I-9.0838 J-3.7312
G03 X12.046 Y17.381 I-3.7423 J5.1262
G01 X11.621 Y17.392
G03 X8.761 Y22.397 I-5.8977 J-0.0506
G02 X27.380 Y20.917 I8.9833 J-4.8413
G02 X8.853 Y12.342 I-9.6509 J-3.4496
G03 X11.621 Y17.392 I-3.1299 J4.9987
G01 X11.189 Y17.400
G03 X8.173 Y22.229 I-5.4498 J-0.0471
G02 X27.823 Y20.953 I9.5624 J-4.6842
G02 X8.257 Y12.519 I-10.0995 J-3.4834
G03 X11.189 Y17.400 I-2.5174 J4.8338
G01 X10.761 Y17.414
G03 X7.585 Y22.019 I-4.9906 J-0.0442
G02 X28.696 Y19.242 I10.1465 J-4.4993
G02 X7.669 Y12.754 I-10.9676 J-1.7732
G03 X10.761 Y17.414 I-1.8983 J4.6157
G01 X10.332
G03 X6.997 Y21.767 I-4.5658 J-0.0437
G02 X28.834 Y14.335 I10.7308 J-4.2671
G02 X7.081 Y12.997 I-11.1106 J3.1393
G03 X10.332 Y17.414 I-1.3148 J4.3726
G01 X9.896 Y17.398
G03 X6.434 Y21.456 I-4.1440 J-0.0298
G02 X11.021 Y27.447 I10.7731 J-3.4976
G02 X24.361 Y7.515 I6.6752 J-9.9626
G02 X6.493 Y13.291 I-6.6461 J9.9662
G03 X9.896 Y17.398 I-0.7411 J4.0773
G00 Z20.000
G00 X9.895 Y17.408
G00 Z-0.300
G01 Z-0.800 F120
G01 X9.672 Y17.397 F400
G01 Y17.427
G01 X9.652 Y17.780
G01 X9.646 Y17.832
G01 X9.590 Y18.181
G01 X9.579 Y18.232
G01 X9.487 Y18.574
G01 X9.470 Y18.623
G01 X9.343 Y18.953
G01 X9.322 Y19.001
G01 X9.162 Y19.316
G01 X9.135 Y19.362
G01 X8.943 Y19.658
G01 X8.912 Y19.701
G01 X8.691 Y19.976
G01 X8.655 Y20.015
G01 X8.406 Y20.265
G01 X8.367 Y20.301
G01 X8.094 Y20.524
G01 X8.051 Y20.555
G01 X7.756 Y20.749
G01 X7.711 Y20.776
G01 X7.397 Y20.938
G01 X7.349 Y20.960
G01 X7.020 Y21.089
G01 X6.970 Y21.105
G01 X6.629 Y21.199
G01 X6.578 Y21.211
G01 X6.230 Y21.269
G01 X6.135 Y21.278
G01 X5.863 Y21.074
G01 X6.135 Y21.278
G02 X19.337 Y29.587 I11.4617 J-3.5698
G02 X15.837 Y5.416 I-1.6320 J-12.1025
G02 X6.191 Y13.494 I1.8254 J11.9778
G01 X6.175 Y13.491
G01 X5.896 Y13.695
G01 X6.175 Y13.491
G01 X6.191 Y13.494
G01 X6.265 Y13.502
G01 X6.613 Y13.563
G01 X6.664 Y13.575
G01 X7.004 Y13.672
G01 X7.054 Y13.689
G01 X7.382 Y13.821
G01 X7.429 Y13.843
G01 X7.742 Y14.009
G01 X7.787 Y14.036
G01 X8.080 Y14.232
G01 X8.122 Y14.264
G01 X8.394 Y14.489
G01 X8.433 Y14.525
G01 X8.679 Y14.778
G01 X8.714 Y14.817
G01 X8.933 Y15.094
G01 X8.964 Y15.137
G01 X9.153 Y15.436
G01 X9.179 Y15.481
G01 X9.337 Y15.798
G01 X9.358 Y15.846
G01 X9.482 Y16.177
G01 X9.497 Y16.227
G01 X9.587 Y16.569
G01 X9.597 Y16.620
G01 X9.650 Y16.970
G01 X9.655 Y17.022
G01 X9.672 Y17.375
G01 Y17.397
G00 Z20.000
G00 X19.762 Y17.555
G00 Z-0.300
G01 Z-1.000 F120
G01 X19.756 Y17.903 F400
G01 X19.773
G01 X19.807 Y17.449
G01 X19.790 Y17.265
G01 X19.773
G01 X19.765 Y17.365
G01 X19.762 Y17.555
G01 X19.340 Y17.551
G03 X19.160 Y19.583 I-19.3533 J-0.6934
G02 X19.261 Y15.568 I-1.4036 J-2.0441
G03 X19.340 Y17.551 I-15.1026 J1.5988
G01 X18.908 Y17.544
G03 X18.580 Y20.347 I-17.0019 J-0.5644
G02 X18.715 Y14.770 I-0.8538 J-2.8110
G03 X18.908 Y17.544 I-14.6609 J2.4135
G01 X18.483 Y17.533
G03 X18.001 Y20.902 I-14.1145 J-0.2999
G02 X18.152 Y14.190 I-0.2777 J-3.3638
G03 X18.483 Y17.533 I-13.3821 J3.0113
G01 X18.059 Y17.534
G03 X17.421 Y21.322 I-13.2817 J-0.2898
G02 X18.726 Y13.862 I0.3020 J-3.7913
G02 X17.589 Y13.728 I-1.0078 J3.6722
G03 X18.059 Y17.534 I-12.8086 J3.5142
G01 X17.631 Y17.513
G03 X16.850 Y21.641 I-12.6758 J-0.2597
G02 X20.039 Y21.079 I0.9582 J-3.8937
G02 X17.018 Y13.350 I-2.3225 J-3.5473
G03 X17.631 Y17.510 I-12.0657 J3.9026
G01 X17.202 Y17.491
G03 X16.270 Y21.901 I-12.0716 J-0.2467
G02 X21.447 Y20.344 I1.5583 J-4.2024
G02 X16.447 Y13.031 I-3.7276 J-2.8174
G03 X17.202 Y17.483 I-11.3214 J4.2118
G01 X16.774 Y17.464
G03 X15.699 Y22.120 I-11.5677 J-0.2183
G02 X21.608 Y20.840 I2.1399 J-4.3992
G02 X15.876 Y12.771 I-3.8821 J-3.3129
G03 X16.774 Y17.464 I-10.6693 J4.4750
G01 X16.345 Y17.444
G03 X15.128 Y22.296 I-11.0553 J-0.1942
G02 X21.773 Y21.293 I2.7092 J-4.5635
G02 X15.296 Y12.544 I-4.0521 J-3.7721
G03 X16.345 Y17.439 I-10.0087 J4.7052
G01 X15.914 Y17.423
G03 X14.557 Y22.439 I-10.5622 J-0.1674
G02 X21.552 Y22.090 I3.2748 J-4.6423
G02 X14.716 Y12.367 I-3.8210 J-4.5779
G03 X15.914 Y17.423 I-9.3643 J4.8887
G01 X15.488 Y17.408
G03 X13.977 Y22.582 I-10.0231 J-0.1190
G02 X22.131 Y22.149 I3.8294 J-4.8816
G02 X14.128 Y12.225 I-4.4011 J-4.6399
G03 X15.488 Y17.408 I-8.6894 J5.0486
G01 X15.060 Y17.415
G01 Y17.426
G03 X13.398 Y22.691 I-9.6016 J-0.1373
G02 X22.868 Y22.003 I4.3932 J-5.0477
G02 X13.549 Y12.115 I-5.1302 J-4.4999
G03 X15.060 Y17.415 I-8.0854 J5.1713
G01 X14.632 Y17.414
G03 X12.818 Y22.741 I-9.0862 J-0.1212
G02 X22.952 Y22.541 I4.9681 J-5.0794
G02 X12.961 Y12.040 I-5.2141 J-5.0423
G03 X14.632 Y17.414 I-7.4150 J5.2528
G01 X14.201 Y17.403
G03 X12.238 Y22.767 I-8.6238 J-0.1143
G02 X23.668 Y22.376 I5.5468 J-5.1209
G02 X12.381 Y11.989 I-5.9293 J-4.8830
G03 X14.201 Y17.403 I-6.8043 J5.2994
G01 X13.764 Y17.395
G03 X11.659 Y22.758 I-8.1440 J-0.1016
G02 X24.230 Y22.347 I6.1248 J-5.1131
G02 X11.793 Y11.981 I-6.4891 J-4.8579
G03 X13.764 Y17.395 I-6.1735 J5.3124
G01 X13.334 Y17.397
G03 X11.071 Y22.750 I-7.6898 J-0.0960
G02 X25.057 Y21.881 I6.7000 J-5.1512
G02 X11.205 Y11.989 I-7.3207 J-4.3927
G03 X13.334 Y17.397 I-5.5614 J5.3116
G01 X12.898
G03 X10.491 Y22.708 I-7.2509 J-0.0856
G02 X25.620 Y21.749 I7.2703 J-5.1195
G02 X10.617 Y12.031 I-7.8845 J-4.2673
G03 X12.898 Y17.397 I-4.9700 J5.2803
G01 X12.474 Y17.383
G03 X9.937 Y22.615 I-6.7864 J-0.0597
G01 X9.920 Y22.657
G02 X26.246 Y21.438 I7.8286 J-5.0899
G02 X10.029 Y12.107 I-8.5106 J-3.9670
G03 X12.474 Y17.383 I-4.3414 J5.2164
G01 X12.046 Y17.381
G03 X9.366 Y22.515 I-6.3467 J-0.0466
G01 X9.349 Y22.557
G02 X26.816 Y21.202 I8.3987 J-4.9946
G02 X9.441 Y12.208 I-9.0838 J-3.7312
G03 X12.046 Y17.381 I-3.7423 J5.1262
G01 X11.621 Y17.392
G03 X8.761 Y22.397 I-5.8977 J-0.0506
G02 X27.380 Y20.917 I8.9833 J-4.8413
G02 X8.853 Y12.342 I-9.6509 J-3.4496
G03 X11.621 Y17.392 I-3.1299 J4.9987
G01 X11.189 Y17.400
G03 X8.173 Y22.229 I-5.4498 J-0.0471
G02 X27.823 Y20.953 I9.5624 J-4.6842
G02 X8.257 Y12.519 I-10.0995 J-3.4834
G03 X11.189 Y17.400 I-2.5174 J4.8338
G01 X10.761 Y17.414
G03 X7.585 Y22.019 I-4.9906 J-0.0442
G02 X28.696 Y19.242 I10.1465 J-4.4993
G02 X7.669 Y12.754 I-10.9676 J-1.7732
G03 X10.761 Y17.414 I-1.8983 J4.6157
G01 X10.332
G03 X6.997 Y21.767 I-4.5658 J-0.0437
G02 X28.834 Y14.335 I10.7308 J-4.2671
G02 X7.081 Y12.997 I-11.1106 J3.1393
G03 X10.332 Y17.414 I-1.3148 J4.3726
G01 X9.896 Y17.398
G03 X6.434 Y21.456 I-4.1440 J-0.0298
G02 X11.021 Y27.447 I10.7731 J-3.4976
G02 X24.361 Y7.515 I6.6752 J-9.9626
G02 X6.493 Y13.291 I-6.6461 J9.9662
G03 X9.896 Y17.398 I-0.7411 J4.0773
G00 Z20.000
G00 X9.895 Y17.408
G00 Z-0.500
G01 Z-1.000 F120
G01 X9.672 Y17.397 F400
G01 Y17.427
G01 X9.652 Y17.780
G01 X9.646 Y17.832
G01 X9.590 Y18.181
G01 X9.579 Y18.232
G01 X9.487 Y18.574
G01 X9.470 Y18.623
G01 X9.343 Y18.953
G01 X9.322 Y19.001
G01 X9.162 Y19.316
G01 X9.135 Y19.362
G01 X8.943 Y19.658
G01 X8.912 Y19.701
G01 X8.691 Y19.976
G01 X8.655 Y20.015
G01 X8.406 Y20.265
G01 X8.367 Y20.301
G01 X8.094 Y20.524
G01 X8.051 Y20.555
G01 X7.756 Y20.749
G01 X7.711 Y20.776
G01 X7.397 Y20.938
G01 X7.349 Y20.960
G01 X7.020 Y21.089
G01 X6.970 Y21.105
G01 X6.629 Y21.199
G01 X6.578 Y21.211
G01 X6.230 Y21.269
G01 X6.135 Y21.278
G01 X5.863 Y21.074
G01 X6.135 Y21.278
G02 X19.337 Y29.587 I11.4617 J-3.5698
G02 X15.837 Y5.416 I-1.6320 J-12.1025
G02 X6.191 Y13.494 I1.8254 J11.9778
G01 X6.175 Y13.491
G01 X5.896 Y13.695
G01 X6.175 Y13.491
G01 X6.191 Y13.494
G01 X6.265 Y13.502
G01 X6.613 Y13.563
G01 X6.664 Y13.575
G01 X7.004 Y13.672
G01 X7.054 Y13.689
G01 X7.382 Y13.821
G01 X7.429 Y13.843
G01 X7.742 Y14.009
G01 X7.787 Y14.036
G01 X8.080 Y14.232
G01 X8.122 Y14.264
G01 X8.394 Y14.489
G01 X8.433 Y14.525
G01 X8.679 Y14.778
G01 X8.714 Y14.817
G01 X8.933 Y15.094
G01 X8.964 Y15.137
G01 X9.153 Y15.436
G01 X9.179 Y15.481
G01 X9.337 Y15.798
G01 X9.358 Y15.846
G01 X9.482 Y16.177
G01 X9.497 Y16.227
G01 X9.587 Y16.569
G01 X9.597 Y16.620
G01 X9.650 Y16.970
G01 X9.655 Y17.022
G01 X9.672 Y17.375
G01 Y17.397
G00 Z20.000


(No. 3 Drill: Drill 1)
G00 X8.034 Y11.606 Z20.000
G00 Z0.500
G01 Z-0.400 F120
G00 Z0.500
G00 Z0.100
G01 Z-0.800
G00 Z0.500
G00 Z-0.300
G01 Z-1.200
G00 Z0.500
G00 Z-0.700
G01 Z-1.600
G00 Z0.500
G00 Z-1.100
G01 Z-2.000
G00 Z0.500
G00 Z-1.500
G01 Z-2.400
G00 Z0.500
G00 Z-1.900
G01 Z-2.800
G00 Z0.500
G00 Z-2.300
G01 Z-3.200
G00 Z0.500
G00 Z-2.700
G01 Z-3.500
G00 Z20.000


(No. 4 Drill: Drill 2)
G00 X9.779 Y18.921 Z20.000
G00 Z0.500
G01 Z-0.400 F120
G00 Z0.500
G00 Z0.100
G01 Z-0.800
G00 Z0.500
G00 Z-0.300
G01 Z-1.200
G00 Z0.500
G00 Z-0.700
G01 Z-1.600
G00 Z0.500
G00 Z-1.100
G01 Z-2.000
G00 Z0.500
G00 Z-1.500
G01 Z-2.400
G00 Z0.500
G00 Z-1.900
G01 Z-2.800
G00 Z0.500
G00 Z-2.300
G01 Z-3.200
G00 Z0.500
G00 Z-2.700
G01 Z-3.500
G00 Z20.000


(No. 5 Drill: Drill 3)
G00 X19.119 Y28.871 Z20.000
G00 Z0.500
G01 Z-0.400 F120
G00 Z0.500
G00 Z0.100
G01 Z-0.800
G00 Z0.500
G00 Z-0.300
G01 Z-1.200
G00 Z0.500
G00 Z-0.700
G01 Z-1.600
G00 Z0.500
G00 Z-1.100
G01 Z-2.000
G00 Z0.500
G00 Z-1.500
G01 Z-2.400
G00 Z0.500
G00 Z-1.900
G01 Z-2.800
G00 Z0.500
G00 Z-2.300
G01 Z-3.200
G00 Z0.500
G00 Z-2.700
G01 Z-3.500
G00 Z20.000


(No. 6 Drill: Drill 4)
G00 X23.138 Y27.541 Z20.000
G00 Z0.500
G01 Z-0.400 F120
G00 Z0.500
G00 Z0.100
G01 Z-0.800
G00 Z0.500
G00 Z-0.300
G01 Z-1.200
G00 Z0.500
G00 Z-0.700
G01 Z-1.600
G00 Z0.500
G00 Z-1.100
G01 Z-2.000
G00 Z0.500
G00 Z-1.500
G01 Z-2.400
G00 Z0.500
G00 Z-1.900
G01 Z-2.800
G00 Z0.500
G00 Z-2.300
G01 Z-3.200
G00 Z0.500
G00 Z-2.700
G01 Z-3.500
G00 Z20.000


(No. 7 Helical drill: Helical drill 2)
G00 X4.473 Y4.000 Z20.000
G00 Z0.500
G02 X3.764 Y3.591 Z0.367 I-0.4725 J0.0000 F120
G02 Y4.409 Z0.233 I0.2363 J0.4092
G02 X4.473 Y4.000 Z0.100 I0.2363 J-0.4092
G02 X3.764 Y3.591 Z0.067 I-0.4725 J0.0000
G02 Y4.409 Z0.033 I0.2363 J0.4092
G02 X4.473 Y4.000 Z0.000 I0.2363 J-0.4092
G02 X3.764 Y3.591 I-0.4725 J0.0000
G02 Y4.409 I0.2363 J0.4092
G02 X4.473 Y4.000 I0.2363 J-0.4092
G02 X3.764 Y3.591 Z-0.133 I-0.4725 J0.0000
G02 Y4.409 Z-0.267 I0.2363 J0.4092
G02 X4.473 Y4.000 Z-0.400 I0.2363 J-0.4092
G02 X3.764 Y3.591 I-0.4725 J0.0000
G02 Y4.409 I0.2363 J0.4092
G02 X4.473 Y4.000 I0.2363 J-0.4092
G02 X4.461 Y3.809 I-0.4767 J-0.0665 F400
G02 X4.371 Y3.629 I-0.4905 J0.1311
G02 X4.211 Y3.491 I-0.4219 J0.3277
G02 X4.000 Y3.423 I-0.2745 J0.4888
G02 X3.769 Y3.442 I-0.0666 J0.5832
G02 X3.555 Y3.555 I0.1718 J0.5888
G02 X3.394 Y3.749 I0.4028 J0.4970
G02 X3.318 Y4.000 I0.5869 J0.3152
G02 X3.345 Y4.271 I0.6893 J0.0666
G02 X3.480 Y4.520 I0.6868 J-0.2124
G02 X3.709 Y4.703 I0.5720 J-0.4777
G02 X4.000 Y4.788 I0.3557 J-0.6847
G02 X4.311 Y4.752 I0.0666 J-0.7951
G02 X4.594 Y4.594 I-0.2529 J-0.7845
G02 X4.800 Y4.331 I-0.5525 J-0.6467
G02 X4.893 Y4.000 I-0.7823 J-0.3961
G02 X4.849 Y3.648 I-0.9008 J-0.0666
G02 X4.668 Y3.332 I-0.8820 J0.2933
G02 X4.372 Y3.103 I-0.7213 J0.6272
G02 X4.000 Y3.003 I-0.4365 J0.8798
G02 X3.608 Y3.054 I-0.0666 J1.0063
G02 X3.258 Y3.258 I0.3337 J0.9795
G02 X3.006 Y3.588 I0.7018 J0.7959
G02 X2.900 Y4.000 I0.9792 J0.4707
G02 X2.984 Y4.421 I1.1000 J0.0000
G02 X3.222 Y4.778 I1.0163 J-0.4210
G02 X3.579 Y5.016 I0.7778 J-0.7778
G02 X4.000 Y5.100 I0.4210 J-1.0163
G02 X4.421 Y5.016 I0.0000 J-1.1000
G02 X4.778 Y4.778 I-0.4210 J-1.0163
G02 X5.016 Y4.421 I-0.7778 J-0.7778
G02 X5.100 Y4.000 I-1.0163 J-0.4210
G02 X3.450 Y3.047 I-1.1000 J0.0000
G02 Y4.953 I0.5500 J0.9526
G02 X5.100 Y4.000 I0.5500 J-0.9526
G02 X3.528 I-0.7863 J0.0000
G02 X4.473 I0.4725 J0.0000
G02 X3.764 Y3.591 Z-0.533 I-0.4725 J0.0000 F120
G02 Y4.409 Z-0.667 I0.2363 J0.4092
G02 X4.473 Y4.000 Z-0.800 I0.2363 J-0.4092
G02 X3.764 Y3.591 I-0.4725 J0.0000
G02 Y4.409 I0.2363 J0.4092
G02 X4.473 Y4.000 I0.2363 J-0.4092
G02 X4.461 Y3.809 I-0.4767 J-0.0665 F400
G02 X4.371 Y3.629 I-0.4905 J0.1311
G02 X4.211 Y3.491 I-0.4219 J0.3277
G02 X4.000 Y3.423 I-0.2745 J0.4888
G02 X3.769 Y3.442 I-0.0666 J0.5832
G02 X3.555 Y3.555 I0.1718 J0.5888
G02 X3.394 Y3.749 I0.4028 J0.4970
G02 X3.318 Y4.000 I0.5869 J0.3152
G02 X3.345 Y4.271 I0.6893 J0.0666
G02 X3.480 Y4.520 I0.6868 J-0.2124
G02 X3.709 Y4.703 I0.5720 J-0.4777
G02 X4.000 Y4.788 I0.3557 J-0.6847
G02 X4.311 Y4.752 I0.0666 J-0.7951
G02 X4.594 Y4.594 I-0.2529 J-0.7845
G02 X4.800 Y4.331 I-0.5525 J-0.6467
G02 X4.893 Y4.000 I-0.7823 J-0.3961
G02 X4.849 Y3.648 I-0.9008 J-0.0666
G02 X4.668 Y3.332 I-0.8820 J0.2933
G02 X4.372 Y3.103 I-0.7213 J0.6272
G02 X4.000 Y3.003 I-0.4365 J0.8798
G02 X3.608 Y3.054 I-0.0666 J1.0063
G02 X3.258 Y3.258 I0.3337 J0.9795
G02 X3.006 Y3.588 I0.7018 J0.7959
G02 X2.900 Y4.000 I0.9792 J0.4707
G02 X2.984 Y4.421 I1.1000 J0.0000
G02 X3.222 Y4.778 I1.0163 J-0.4210
G02 X3.579 Y5.016 I0.7778 J-0.7778
G02 X4.000 Y5.100 I0.4210 J-1.0163
G02 X4.421 Y5.016 I0.0000 J-1.1000
G02 X4.778 Y4.778 I-0.4210 J-1.0163
G02 X5.016 Y4.421 I-0.7778 J-0.7778
G02 X5.100 Y4.000 I-1.0163 J-0.4210
G02 X3.450 Y3.047 I-1.1000 J0.0000
G02 Y4.953 I0.5500 J0.9526
G02 X5.100 Y4.000 I0.5500 J-0.9526
G02 X3.528 I-0.7863 J0.0000
G02 X4.473 I0.4725 J0.0000
G02 X3.764 Y3.591 Z-0.933 I-0.4725 J0.0000 F120
G02 Y4.409 Z-1.067 I0.2363 J0.4092
G02 X4.473 Y4.000 Z-1.200 I0.2363 J-0.4092
G02 X3.764 Y3.591 I-0.4725 J0.0000
G02 Y4.409 I0.2363 J0.4092
G02 X4.473 Y4.000 I0.2363 J-0.4092
G02 X4.461 Y3.809 I-0.4767 J-0.0665 F400
G02 X4.371 Y3.629 I-0.4905 J0.1311
G02 X4.211 Y3.491 I-0.4219 J0.3277
G02 X4.000 Y3.423 I-0.2745 J0.4888
G02 X3.769 Y3.442 I-0.0666 J0.5832
G02 X3.555 Y3.555 I0.1718 J0.5888
G02 X3.394 Y3.749 I0.4028 J0.4970
G02 X3.318 Y4.000 I0.5869 J0.3152
G02 X3.345 Y4.271 I0.6893 J0.0666
G02 X3.480 Y4.520 I0.6868 J-0.2124
G02 X3.709 Y4.703 I0.5720 J-0.4777
G02 X4.000 Y4.788 I0.3557 J-0.6847
G02 X4.311 Y4.752 I0.0666 J-0.7951
G02 X4.594 Y4.594 I-0.2529 J-0.7845
G02 X4.800 Y4.331 I-0.5525 J-0.6467
G02 X4.893 Y4.000 I-0.7823 J-0.3961
G02 X4.849 Y3.648 I-0.9008 J-0.0666
G02 X4.668 Y3.332 I-0.8820 J0.2933
G02 X4.372 Y3.103 I-0.7213 J0.6272
G02 X4.000 Y3.003 I-0.4365 J0.8798
G02 X3.608 Y3.054 I-0.0666 J1.0063
G02 X3.258 Y3.258 I0.3337 J0.9795
G02 X3.006 Y3.588 I0.7018 J0.7959
G02 X2.900 Y4.000 I0.9792 J0.4707
G02 X2.984 Y4.421 I1.1000 J0.0000
G02 X3.222 Y4.778 I1.0163 J-0.4210
G02 X3.579 Y5.016 I0.7778 J-0.7778
G02 X4.000 Y5.100 I0.4210 J-1.0163
G02 X4.421 Y5.016 I0.0000 J-1.1000
G02 X4.778 Y4.778 I-0.4210 J-1.0163
G02 X5.016 Y4.421 I-0.7778 J-0.7778
G02 X5.100 Y4.000 I-1.0163 J-0.4210
G02 X3.450 Y3.047 I-1.1000 J0.0000
G02 Y4.953 I0.5500 J0.9526
G02 X5.100 Y4.000 I0.5500 J-0.9526
G02 X3.528 I-0.7863 J0.0000
G02 X4.473 I0.4725 J0.0000
G02 X3.764 Y3.591 Z-1.333 I-0.4725 J0.0000 F120
G02 Y4.409 Z-1.467 I0.2363 J0.4092
G02 X4.473 Y4.000 Z-1.600 I0.2363 J-0.4092
G02 X3.764 Y3.591 I-0.4725 J0.0000
G02 Y4.409 I0.2363 J0.4092
G02 X4.473 Y4.000 I0.2363 J-0.4092
G02 X4.461 Y3.809 I-0.4767 J-0.0665 F400
G02 X4.371 Y3.629 I-0.4905 J0.1311
G02 X4.211 Y3.491 I-0.4219 J0.3277
G02 X4.000 Y3.423 I-0.2745 J0.4888
G02 X3.769 Y3.442 I-0.0666 J0.5832
G02 X3.555 Y3.555 I0.1718 J0.5888
G02 X3.394 Y3.749 I0.4028 J0.4970
G02 X3.318 Y4.000 I0.5869 J0.3152
G02 X3.345 Y4.271 I0.6893 J0.0666
G02 X3.480 Y4.520 I0.6868 J-0.2124
G02 X3.709 Y4.703 I0.5720 J-0.4777
G02 X4.000 Y4.788 I0.3557 J-0.6847
G02 X4.311 Y4.752 I0.0666 J-0.7951
G02 X4.594 Y4.594 I-0.2529 J-0.7845
G02 X4.800 Y4.331 I-0.5525 J-0.6467
G02 X4.893 Y4.000 I-0.7823 J-0.3961
G02 X4.849 Y3.648 I-0.9008 J-0.0666
G02 X4.668 Y3.332 I-0.8820 J0.2933
G02 X4.372 Y3.103 I-0.7213 J0.6272
G02 X4.000 Y3.003 I-0.4365 J0.8798
G02 X3.608 Y3.054 I-0.0666 J1.0063
G02 X3.258 Y3.258 I0.3337 J0.9795
G02 X3.006 Y3.588 I0.7018 J0.7959
G02 X2.900 Y4.000 I0.9792 J0.4707
G02 X2.984 Y4.421 I1.1000 J0.0000
G02 X3.222 Y4.778 I1.0163 J-0.4210
G02 X3.579 Y5.016 I0.7778 J-0.7778
G02 X4.000 Y5.100 I0.4210 J-1.0163
G02 X4.421 Y5.016 I0.0000 J-1.1000
G02 X4.778 Y4.778 I-0.4210 J-1.0163
G02 X5.016 Y4.421 I-0.7778 J-0.7778
G02 X5.100 Y4.000 I-1.0163 J-0.4210
G02 X3.450 Y3.047 I-1.1000 J0.0000
G02 Y4.953 I0.5500 J0.9526
G02 X5.100 Y4.000 I0.5500 J-0.9526
G02 X3.528 I-0.7863 J0.0000
G02 X4.473 I0.4725 J0.0000
G02 X3.764 Y3.591 Z-1.733 I-0.4725 J0.0000 F120
G02 Y4.409 Z-1.867 I0.2363 J0.4092
G02 X4.473 Y4.000 Z-2.000 I0.2363 J-0.4092
G02 X3.764 Y3.591 I-0.4725 J0.0000
G02 Y4.409 I0.2363 J0.4092
G02 X4.473 Y4.000 I0.2363 J-0.4092
G02 X4.461 Y3.809 I-0.4767 J-0.0665 F400
G02 X4.371 Y3.629 I-0.4905 J0.1311
G02 X4.211 Y3.491 I-0.4219 J0.3277
G02 X4.000 Y3.423 I-0.2745 J0.4888
G02 X3.769 Y3.442 I-0.0666 J0.5832
G02 X3.555 Y3.555 I0.1718 J0.5888
G02 X3.394 Y3.749 I0.4028 J0.4970
G02 X3.318 Y4.000 I0.5869 J0.3152
G02 X3.345 Y4.271 I0.6893 J0.0666
G02 X3.480 Y4.520 I0.6868 J-0.2124
G02 X3.709 Y4.703 I0.5720 J-0.4777
G02 X4.000 Y4.788 I0.3557 J-0.6847
G02 X4.311 Y4.752 I0.0666 J-0.7951
G02 X4.594 Y4.594 I-0.2529 J-0.7845
G02 X4.800 Y4.331 I-0.5525 J-0.6467
G02 X4.893 Y4.000 I-0.7823 J-0.3961
G02 X4.849 Y3.648 I-0.9008 J-0.0666
G02 X4.668 Y3.332 I-0.8820 J0.2933
G02 X4.372 Y3.103 I-0.7213 J0.6272
G02 X4.000 Y3.003 I-0.4365 J0.8798
G02 X3.608 Y3.054 I-0.0666 J1.0063
G02 X3.258 Y3.258 I0.3337 J0.9795
G02 X3.006 Y3.588 I0.7018 J0.7959
G02 X2.900 Y4.000 I0.9792 J0.4707
G02 X2.984 Y4.421 I1.1000 J0.0000
G02 X3.222 Y4.778 I1.0163 J-0.4210
G02 X3.579 Y5.016 I0.7778 J-0.7778
G02 X4.000 Y5.100 I0.4210 J-1.0163
G02 X4.421 Y5.016 I0.0000 J-1.1000
G02 X4.778 Y4.778 I-0.4210 J-1.0163
G02 X5.016 Y4.421 I-0.7778 J-0.7778
G02 X5.100 Y4.000 I-1.0163 J-0.4210
G02 X3.450 Y3.047 I-1.1000 J0.0000
G02 Y4.953 I0.5500 J0.9526
G02 X5.100 Y4.000 I0.5500 J-0.9526
G02 X3.528 I-0.7863 J0.0000
G02 X4.473 I0.4725 J0.0000
G02 X3.764 Y3.591 Z-2.133 I-0.4725 J0.0000 F120
G02 Y4.409 Z-2.267 I0.2363 J0.4092
G02 X4.473 Y4.000 Z-2.400 I0.2363 J-0.4092
G02 X3.764 Y3.591 I-0.4725 J0.0000
G02 Y4.409 I0.2363 J0.4092
G02 X4.473 Y4.000 I0.2363 J-0.4092
G02 X4.461 Y3.809 I-0.4767 J-0.0665 F400
G02 X4.371 Y3.629 I-0.4905 J0.1311
G02 X4.211 Y3.491 I-0.4219 J0.3277
G02 X4.000 Y3.423 I-0.2745 J0.4888
G02 X3.769 Y3.442 I-0.0666 J0.5832
G02 X3.555 Y3.555 I0.1718 J0.5888
G02 X3.394 Y3.749 I0.4028 J0.4970
G02 X3.318 Y4.000 I0.5869 J0.3152
G02 X3.345 Y4.271 I0.6893 J0.0666
G02 X3.480 Y4.520 I0.6868 J-0.2124
G02 X3.709 Y4.703 I0.5720 J-0.4777
G02 X4.000 Y4.788 I0.3557 J-0.6847
G02 X4.311 Y4.752 I0.0666 J-0.7951
G02 X4.594 Y4.594 I-0.2529 J-0.7845
G02 X4.800 Y4.331 I-0.5525 J-0.6467
G02 X4.893 Y4.000 I-0.7823 J-0.3961
G02 X4.849 Y3.648 I-0.9008 J-0.0666
G02 X4.668 Y3.332 I-0.8820 J0.2933
G02 X4.372 Y3.103 I-0.7213 J0.6272
G02 X4.000 Y3.003 I-0.4365 J0.8798
G02 X3.608 Y3.054 I-0.0666 J1.0063
G02 X3.258 Y3.258 I0.3337 J0.9795
G02 X3.006 Y3.588 I0.7018 J0.7959
G02 X2.900 Y4.000 I0.9792 J0.4707
G02 X2.984 Y4.421 I1.1000 J0.0000
G02 X3.222 Y4.778 I1.0163 J-0.4210
G02 X3.579 Y5.016 I0.7778 J-0.7778
G02 X4.000 Y5.100 I0.4210 J-1.0163
G02 X4.421 Y5.016 I0.0000 J-1.1000
G02 X4.778 Y4.778 I-0.4210 J-1.0163
G02 X5.016 Y4.421 I-0.7778 J-0.7778
G02 X5.100 Y4.000 I-1.0163 J-0.4210
G02 X3.450 Y3.047 I-1.1000 J0.0000
G02 Y4.953 I0.5500 J0.9526
G02 X5.100 Y4.000 I0.5500 J-0.9526
G02 X3.528 I-0.7863 J0.0000
G02 X4.473 I0.4725 J0.0000
G02 X3.764 Y3.591 Z-2.533 I-0.4725 J0.0000 F120
G02 Y4.409 Z-2.667 I0.2363 J0.4092
G02 X4.473 Y4.000 Z-2.800 I0.2363 J-0.4092
G02 X3.764 Y3.591 I-0.4725 J0.0000
G02 Y4.409 I0.2363 J0.4092
G02 X4.473 Y4.000 I0.2363 J-0.4092
G02 X4.461 Y3.809 I-0.4767 J-0.0665 F400
G02 X4.371 Y3.629 I-0.4905 J0.1311
G02 X4.211 Y3.491 I-0.4219 J0.3277
G02 X4.000 Y3.423 I-0.2745 J0.4888
G02 X3.769 Y3.442 I-0.0666 J0.5832
G02 X3.555 Y3.555 I0.1718 J0.5888
G02 X3.394 Y3.749 I0.4028 J0.4970
G02 X3.318 Y4.000 I0.5869 J0.3152
G02 X3.345 Y4.271 I0.6893 J0.0666
G02 X3.480 Y4.520 I0.6868 J-0.2124
G02 X3.709 Y4.703 I0.5720 J-0.4777
G02 X4.000 Y4.788 I0.3557 J-0.6847
G02 X4.311 Y4.752 I0.0666 J-0.7951
G02 X4.594 Y4.594 I-0.2529 J-0.7845
G02 X4.800 Y4.331 I-0.5525 J-0.6467
G02 X4.893 Y4.000 I-0.7823 J-0.3961
G02 X4.849 Y3.648 I-0.9008 J-0.0666
G02 X4.668 Y3.332 I-0.8820 J0.2933
G02 X4.372 Y3.103 I-0.7213 J0.6272
G02 X4.000 Y3.003 I-0.4365 J0.8798
G02 X3.608 Y3.054 I-0.0666 J1.0063
G02 X3.258 Y3.258 I0.3337 J0.9795
G02 X3.006 Y3.588 I0.7018 J0.7959
G02 X2.900 Y4.000 I0.9792 J0.4707
G02 X2.984 Y4.421 I1.1000 J0.0000
G02 X3.222 Y4.778 I1.0163 J-0.4210
G02 X3.579 Y5.016 I0.7778 J-0.7778
G02 X4.000 Y5.100 I0.4210 J-1.0163
G02 X4.421 Y5.016 I0.0000 J-1.1000
G02 X4.778 Y4.778 I-0.4210 J-1.0163
G02 X5.016 Y4.421 I-0.7778 J-0.7778
G02 X5.100 Y4.000 I-1.0163 J-0.4210
G02 X3.450 Y3.047 I-1.1000 J0.0000
G02 Y4.953 I0.5500 J0.9526
G02 X5.100 Y4.000 I0.5500 J-0.9526
G02 X3.528 I-0.7863 J0.0000
G02 X4.473 I0.4725 J0.0000
G02 X3.764 Y3.591 Z-2.933 I-0.4725 J0.0000 F120
G02 Y4.409 Z-3.067 I0.2363 J0.4092
G02 X4.473 Y4.000 Z-3.200 I0.2363 J-0.4092
G02 X3.764 Y3.591 I-0.4725 J0.0000
G02 Y4.409 I0.2363 J0.4092
G02 X4.473 Y4.000 I0.2363 J-0.4092
G02 X4.461 Y3.809 I-0.4767 J-0.0665 F400
G02 X4.371 Y3.629 I-0.4905 J0.1311
G02 X4.211 Y3.491 I-0.4219 J0.3277
G02 X4.000 Y3.423 I-0.2745 J0.4888
G02 X3.769 Y3.442 I-0.0666 J0.5832
G02 X3.555 Y3.555 I0.1718 J0.5888
G02 X3.394 Y3.749 I0.4028 J0.4970
G02 X3.318 Y4.000 I0.5869 J0.3152
G02 X3.345 Y4.271 I0.6893 J0.0666
G02 X3.480 Y4.520 I0.6868 J-0.2124
G02 X3.709 Y4.703 I0.5720 J-0.4777
G02 X4.000 Y4.788 I0.3557 J-0.6847
G02 X4.311 Y4.752 I0.0666 J-0.7951
G02 X4.594 Y4.594 I-0.2529 J-0.7845
G02 X4.800 Y4.331 I-0.5525 J-0.6467
G02 X4.893 Y4.000 I-0.7823 J-0.3961
G02 X4.849 Y3.648 I-0.9008 J-0.0666
G02 X4.668 Y3.332 I-0.8820 J0.2933
G02 X4.372 Y3.103 I-0.7213 J0.6272
G02 X4.000 Y3.003 I-0.4365 J0.8798
G02 X3.608 Y3.054 I-0.0666 J1.0063
G02 X3.258 Y3.258 I0.3337 J0.9795
G02 X3.006 Y3.588 I0.7018 J0.7959
G02 X2.900 Y4.000 I0.9792 J0.4707
G02 X2.984 Y4.421 I1.1000 J0.0000
G02 X3.222 Y4.778 I1.0163 J-0.4210
G02 X3.579 Y5.016 I0.7778 J-0.7778
G02 X4.000 Y5.100 I0.4210 J-1.0163
G02 X4.421 Y5.016 I0.0000 J-1.1000
G02 X4.778 Y4.778 I-0.4210 J-1.0163
G02 X5.016 Y4.421 I-0.7778 J-0.7778
G02 X5.100 Y4.000 I-1.0163 J-0.4210
G02 X3.450 Y3.047 I-1.1000 J0.0000
G02 Y4.953 I0.5500 J0.9526
G02 X5.100 Y4.000 I0.5500 J-0.9526
G02 X3.528 I-0.7863 J0.0000
G02 X4.473 I0.4725 J0.0000
G02 X3.764 Y3.591 Z-3.300 I-0.4725 J0.0000 F120
G02 Y4.409 Z-3.400 I0.2363 J0.4092
G02 X4.473 Y4.000 Z-3.500 I0.2363 J-0.4092
G02 X3.764 Y3.591 I-0.4725 J0.0000
G02 Y4.409 I0.2363 J0.4092
G02 X4.473 Y4.000 I0.2363 J-0.4092
G02 X4.461 Y3.809 I-0.4767 J-0.0665 F400
G02 X4.371 Y3.629 I-0.4905 J0.1311
G02 X4.211 Y3.491 I-0.4219 J0.3277
G02 X4.000 Y3.423 I-0.2745 J0.4888
G02 X3.769 Y3.442 I-0.0666 J0.5832
G02 X3.555 Y3.555 I0.1718 J0.5888
G02 X3.394 Y3.749 I0.4028 J0.4970
G02 X3.318 Y4.000 I0.5869 J0.3152
G02 X3.345 Y4.271 I0.6893 J0.0666
G02 X3.480 Y4.520 I0.6868 J-0.2124
G02 X3.709 Y4.703 I0.5720 J-0.4777
G02 X4.000 Y4.788 I0.3557 J-0.6847
G02 X4.311 Y4.752 I0.0666 J-0.7951
G02 X4.594 Y4.594 I-0.2529 J-0.7845
G02 X4.800 Y4.331 I-0.5525 J-0.6467
G02 X4.893 Y4.000 I-0.7823 J-0.3961
G02 X4.849 Y3.648 I-0.9008 J-0.0666
G02 X4.668 Y3.332 I-0.8820 J0.2933
G02 X4.372 Y3.103 I-0.7213 J0.6272
G02 X4.000 Y3.003 I-0.4365 J0.8798
G02 X3.608 Y3.054 I-0.0666 J1.0063
G02 X3.258 Y3.258 I0.3337 J0.9795
G02 X3.006 Y3.588 I0.7018 J0.7959
G02 X2.900 Y4.000 I0.9792 J0.4707
G02 X2.984 Y4.421 I1.1000 J0.0000
G02 X3.222 Y4.778 I1.0163 J-0.4210
G02 X3.579 Y5.016 I0.7778 J-0.7778
G02 X4.000 Y5.100 I0.4210 J-1.0163
G02 X4.421 Y5.016 I0.0000 J-1.1000
G02 X4.778 Y4.778 I-0.4210 J-1.0163
G02 X5.016 Y4.421 I-0.7778 J-0.7778
G02 X5.100 Y4.000 I-1.0163 J-0.4210
G02 X3.450 Y3.047 I-1.1000 J0.0000
G02 Y4.953 I0.5500 J0.9526
G02 X5.100 Y4.000 I0.5500 J-0.9526
G02 X4.575 Y3.475 Z-3.000 I-0.5250 J0.0000 F120
G00 Z20.000


(No. 8 Helical drill: Helical drill 3)
G00 X4.473 Y31.000 Z20.000
G00 Z0.500
G02 X3.764 Y30.591 Z0.367 I-0.4725 J0.0000 F120
G02 Y31.409 Z0.233 I0.2363 J0.4092
G02 X4.473 Y31.000 Z0.100 I0.2363 J-0.4092
G02 X3.764 Y30.591 Z0.067 I-0.4725 J0.0000
G02 Y31.409 Z0.033 I0.2363 J0.4092
G02 X4.473 Y31.000 Z0.000 I0.2363 J-0.4092
G02 X3.764 Y30.591 I-0.4725 J0.0000
G02 Y31.409 I0.2363 J0.4092
G02 X4.473 Y31.000 I0.2363 J-0.4092
G02 X3.764 Y30.591 Z-0.133 I-0.4725 J0.0000
G02 Y31.409 Z-0.267 I0.2363 J0.4092
G02 X4.473 Y31.000 Z-0.400 I0.2363 J-0.4092
G02 X3.764 Y30.591 I-0.4725 J0.0000
G02 Y31.409 I0.2363 J0.4092
G02 X4.473 Y31.000 I0.2363 J-0.4092
G02 X4.461 Y30.809 I-0.4767 J-0.0665 F400
G02 X4.371 Y30.629 I-0.4905 J0.1311
G02 X4.211 Y30.491 I-0.4219 J0.3277
G02 X4.000 Y30.423 I-0.2745 J0.4888
G02 X3.769 Y30.442 I-0.0666 J0.5832
G02 X3.555 Y30.555 I0.1718 J0.5888
G02 X3.394 Y30.749 I0.4028 J0.4970
G02 X3.318 Y31.000 I0.5869 J0.3152
G02 X3.345 Y31.271 I0.6893 J0.0666
G02 X3.480 Y31.520 I0.6868 J-0.2124
G02 X3.709 Y31.703 I0.5720 J-0.4777
G02 X4.000 Y31.788 I0.3557 J-0.6847
G02 X4.311 Y31.752 I0.0666 J-0.7951
G02 X4.594 Y31.594 I-0.2529 J-0.7845
G02 X4.800 Y31.331 I-0.5525 J-0.6467
G02 X4.893 Y31.000 I-0.7823 J-0.3961
G02 X4.849 Y30.648 I-0.9008 J-0.0666
G02 X4.668 Y30.332 I-0.8820 J0.2933
G02 X4.372 Y30.103 I-0.7213 J0.6272
G02 X4.000 Y30.003 I-0.4365 J0.8798
G02 X3.608 Y30.054 I-0.0666 J1.0063
G02 X3.258 Y30.258 I0.3337 J0.9795
G02 X3.006 Y30.588 I0.7018 J0.7959
G02 X2.900 Y31.000 I0.9792 J0.4707
G02 X2.984 Y31.421 I1.1000 J0.0000
G02 X3.222 Y31.778 I1.0163 J-0.4210
G02 X3.579 Y32.016 I0.7778 J-0.7778
G02 X4.000 Y32.100 I0.4210 J-1.0163
G02 X4.421 Y32.016 I0.0000 J-1.1000
G02 X4.778 Y31.778 I-0.4210 J-1.0163
G02 X5.016 Y31.421 I-0.7778 J-0.7778
G02 X5.100 Y31.000 I-1.0163 J-0.4210
G02 X3.450 Y30.047 I-1.1000 J0.0000
G02 Y31.953 I0.5500 J0.9526
G02 X5.100 Y31.000 I0.5500 J-0.9526
G02 X3.528 I-0.7862 J0.0000
G02 X4.473 I0.4725 J0.0000
G02 X3.764 Y30.591 Z-0.533 I-0.4725 J0.0000 F120
G02 Y31.409 Z-0.667 I0.2363 J0.4092
G02 X4.473 Y31.000 Z-0.800 I0.2363 J-0.4092
G02 X3.764 Y30.591 I-0.4725 J0.0000
G02 Y31.409 I0.2363 J0.4092
G02 X4.473 Y31.000 I0.2363 J-0.4092
G02 X4.461 Y30.809 I-0.4767 J-0.0665 F400
G02 X4.371 Y30.629 I-0.4905 J0.1311
G02 X4.211 Y30.491 I-0.4219 J0.3277
G02 X4.000 Y30.423 I-0.2745 J0.4888
G02 X3.769 Y30.442 I-0.0666 J0.5832
G02 X3.555 Y30.555 I0.1718 J0.5888
G02 X3.394 Y30.749 I0.4028 J0.4970
G02 X3.318 Y31.000 I0.5869 J0.3152
G02 X3.345 Y31.271 I0.6893 J0.0666
G02 X3.480 Y31.520 I0.6868 J-0.2124
G02 X3.709 Y31.703 I0.5720 J-0.4777
G02 X4.000 Y31.788 I0.3557 J-0.6847
G02 X4.311 Y31.752 I0.0666 J-0.7951
G02 X4.594 Y31.594 I-0.2529 J-0.7845
G02 X4.800 Y31.331 I-0.5525 J-0.6467
G02 X4.893 Y31.000 I-0.7823 J-0.3961
G02 X4.849 Y30.648 I-0.9008 J-0.0666
G02 X4.668 Y30.332 I-0.8820 J0.2933
G02 X4.372 Y30.103 I-0.7213 J0.6272
G02 X4.000 Y30.003 I-0.4365 J0.8798
G02 X3.608 Y30.054 I-0.0666 J1.0063
G02 X3.258 Y30.258 I0.3337 J0.9795
G02 X3.006 Y30.588 I0.7018 J0.7959
G02 X2.900 Y31.000 I0.9792 J0.4707
G02 X2.984 Y31.421 I1.1000 J0.0000
G02 X3.222 Y31.778 I1.0163 J-0.4210
G02 X3.579 Y32.016 I0.7778 J-0.7778
G02 X4.000 Y32.100 I0.4210 J-1.0163
G02 X4.421 Y32.016 I0.0000 J-1.1000
G02 X4.778 Y31.778 I-0.4210 J-1.0163
G02 X5.016 Y31.421 I-0.7778 J-0.7778
G02 X5.100 Y31.000 I-1.0163 J-0.4210
G02 X3.450 Y30.047 I-1.1000 J0.0000
G02 Y31.953 I0.5500 J0.9526
G02 X5.100 Y31.000 I0.5500 J-0.9526
G02 X3.528 I-0.7862 J0.0000
G02 X4.473 I0.4725 J0.0000
G02 X3.764 Y30.591 Z-0.933 I-0.4725 J0.0000 F120
G02 Y31.409 Z-1.067 I0.2363 J0.4092
G02 X4.473 Y31.000 Z-1.200 I0.2363 J-0.4092
G02 X3.764 Y30.591 I-0.4725 J0.0000
G02 Y31.409 I0.2363 J0.4092
G02 X4.473 Y31.000 I0.2363 J-0.4092
G02 X4.461 Y30.809 I-0.4767 J-0.0665 F400
G02 X4.371 Y30.629 I-0.4905 J0.1311
G02 X4.211 Y30.491 I-0.4219 J0.3277
G02 X4.000 Y30.423 I-0.2745 J0.4888
G02 X3.769 Y30.442 I-0.0666 J0.5832
G02 X3.555 Y30.555 I0.1718 J0.5888
G02 X3.394 Y30.749 I0.4028 J0.4970
G02 X3.318 Y31.000 I0.5869 J0.3152
G02 X3.345 Y31.271 I0.6893 J0.0666
G02 X3.480 Y31.520 I0.6868 J-0.2124
G02 X3.709 Y31.703 I0.5720 J-0.4777
G02 X4.000 Y31.788 I0.3557 J-0.6847
G02 X4.311 Y31.752 I0.0666 J-0.7951
G02 X4.594 Y31.594 I-0.2529 J-0.7845
G02 X4.800 Y31.331 I-0.5525 J-0.6467
G02 X4.893 Y31.000 I-0.7823 J-0.3961
G02 X4.849 Y30.648 I-0.9008 J-0.0666
G02 X4.668 Y30.332 I-0.8820 J0.2933
G02 X4.372 Y30.103 I-0.7213 J0.6272
G02 X4.000 Y30.003 I-0.4365 J0.8798
G02 X3.608 Y30.054 I-0.0666 J1.0063
G02 X3.258 Y30.258 I0.3337 J0.9795
G02 X3.006 Y30.588 I0.7018 J0.7959
G02 X2.900 Y31.000 I0.9792 J0.4707
G02 X2.984 Y31.421 I1.1000 J0.0000
G02 X3.222 Y31.778 I1.0163 J-0.4210
G02 X3.579 Y32.016 I0.7778 J-0.7778
G02 X4.000 Y32.100 I0.4210 J-1.0163
G02 X4.421 Y32.016 I0.0000 J-1.1000
G02 X4.778 Y31.778 I-0.4210 J-1.0163
G02 X5.016 Y31.421 I-0.7778 J-0.7778
G02 X5.100 Y31.000 I-1.0163 J-0.4210
G02 X3.450 Y30.047 I-1.1000 J0.0000
G02 Y31.953 I0.5500 J0.9526
G02 X5.100 Y31.000 I0.5500 J-0.9526
G02 X3.528 I-0.7862 J0.0000
G02 X4.473 I0.4725 J0.0000
G02 X3.764 Y30.591 Z-1.333 I-0.4725 J0.0000 F120
G02 Y31.409 Z-1.467 I0.2363 J0.4092
G02 X4.473 Y31.000 Z-1.600 I0.2363 J-0.4092
G02 X3.764 Y30.591 I-0.4725 J0.0000
G02 Y31.409 I0.2363 J0.4092
G02 X4.473 Y31.000 I0.2363 J-0.4092
G02 X4.461 Y30.809 I-0.4767 J-0.0665 F400
G02 X4.371 Y30.629 I-0.4905 J0.1311
G02 X4.211 Y30.491 I-0.4219 J0.3277
G02 X4.000 Y30.423 I-0.2745 J0.4888
G02 X3.769 Y30.442 I-0.0666 J0.5832
G02 X3.555 Y30.555 I0.1718 J0.5888
G02 X3.394 Y30.749 I0.4028 J0.4970
G02 X3.318 Y31.000 I0.5869 J0.3152
G02 X3.345 Y31.271 I0.6893 J0.0666
G02 X3.480 Y31.520 I0.6868 J-0.2124
G02 X3.709 Y31.703 I0.5720 J-0.4777
G02 X4.000 Y31.788 I0.3557 J-0.6847
G02 X4.311 Y31.752 I0.0666 J-0.7951
G02 X4.594 Y31.594 I-0.2529 J-0.7845
G02 X4.800 Y31.331 I-0.5525 J-0.6467
G02 X4.893 Y31.000 I-0.7823 J-0.3961
G02 X4.849 Y30.648 I-0.9008 J-0.0666
G02 X4.668 Y30.332 I-0.8820 J0.2933
G02 X4.372 Y30.103 I-0.7213 J0.6272
G02 X4.000 Y30.003 I-0.4365 J0.8798
G02 X3.608 Y30.054 I-0.0666 J1.0063
G02 X3.258 Y30.258 I0.3337 J0.9795
G02 X3.006 Y30.588 I0.7018 J0.7959
G02 X2.900 Y31.000 I0.9792 J0.4707
G02 X2.984 Y31.421 I1.1000 J0.0000
G02 X3.222 Y31.778 I1.0163 J-0.4210
G02 X3.579 Y32.016 I0.7778 J-0.7778
G02 X4.000 Y32.100 I0.4210 J-1.0163
G02 X4.421 Y32.016 I0.0000 J-1.1000
G02 X4.778 Y31.778 I-0.4210 J-1.0163
G02 X5.016 Y31.421 I-0.7778 J-0.7778
G02 X5.100 Y31.000 I-1.0163 J-0.4210
G02 X3.450 Y30.047 I-1.1000 J0.0000
G02 Y31.953 I0.5500 J0.9526
G02 X5.100 Y31.000 I0.5500 J-0.9526
G02 X3.528 I-0.7862 J0.0000
G02 X4.473 I0.4725 J0.0000
G02 X3.764 Y30.591 Z-1.733 I-0.4725 J0.0000 F120
G02 Y31.409 Z-1.867 I0.2363 J0.4092
G02 X4.473 Y31.000 Z-2.000 I0.2363 J-0.4092
G02 X3.764 Y30.591 I-0.4725 J0.0000
G02 Y31.409 I0.2363 J0.4092
G02 X4.473 Y31.000 I0.2363 J-0.4092
G02 X4.461 Y30.809 I-0.4767 J-0.0665 F400
G02 X4.371 Y30.629 I-0.4905 J0.1311
G02 X4.211 Y30.491 I-0.4219 J0.3277
G02 X4.000 Y30.423 I-0.2745 J0.4888
G02 X3.769 Y30.442 I-0.0666 J0.5832
G02 X3.555 Y30.555 I0.1718 J0.5888
G02 X3.394 Y30.749 I0.4028 J0.4970
G02 X3.318 Y31.000 I0.5869 J0.3152
G02 X3.345 Y31.271 I0.6893 J0.0666
G02 X3.480 Y31.520 I0.6868 J-0.2124
G02 X3.709 Y31.703 I0.5720 J-0.4777
G02 X4.000 Y31.788 I0.3557 J-0.6847
G02 X4.311 Y31.752 I0.0666 J-0.7951
G02 X4.594 Y31.594 I-0.2529 J-0.7845
G02 X4.800 Y31.331 I-0.5525 J-0.6467
G02 X4.893 Y31.000 I-0.7823 J-0.3961
G02 X4.849 Y30.648 I-0.9008 J-0.0666
G02 X4.668 Y30.332 I-0.8820 J0.2933
G02 X4.372 Y30.103 I-0.7213 J0.6272
G02 X4.000 Y30.003 I-0.4365 J0.8798
G02 X3.608 Y30.054 I-0.0666 J1.0063
G02 X3.258 Y30.258 I0.3337 J0.9795
G02 X3.006 Y30.588 I0.7018 J0.7959
G02 X2.900 Y31.000 I0.9792 J0.4707
G02 X2.984 Y31.421 I1.1000 J0.0000
G02 X3.222 Y31.778 I1.0163 J-0.4210
G02 X3.579 Y32.016 I0.7778 J-0.7778
G02 X4.000 Y32.100 I0.4210 J-1.0163
G02 X4.421 Y32.016 I0.0000 J-1.1000
G02 X4.778 Y31.778 I-0.4210 J-1.0163
G02 X5.016 Y31.421 I-0.7778 J-0.7778
G02 X5.100 Y31.000 I-1.0163 J-0.4210
G02 X3.450 Y30.047 I-1.1000 J0.0000
G02 Y31.953 I0.5500 J0.9526
G02 X5.100 Y31.000 I0.5500 J-0.9526
G02 X3.528 I-0.7862 J0.0000
G02 X4.473 I0.4725 J0.0000
G02 X3.764 Y30.591 Z-2.133 I-0.4725 J0.0000 F120
G02 Y31.409 Z-2.267 I0.2363 J0.4092
G02 X4.473 Y31.000 Z-2.400 I0.2363 J-0.4092
G02 X3.764 Y30.591 I-0.4725 J0.0000
G02 Y31.409 I0.2363 J0.4092
G02 X4.473 Y31.000 I0.2363 J-0.4092
G02 X4.461 Y30.809 I-0.4767 J-0.0665 F400
G02 X4.371 Y30.629 I-0.4905 J0.1311
G02 X4.211 Y30.491 I-0.4219 J0.3277
G02 X4.000 Y30.423 I-0.2745 J0.4888
G02 X3.769 Y30.442 I-0.0666 J0.5832
G02 X3.555 Y30.555 I0.1718 J0.5888
G02 X3.394 Y30.749 I0.4028 J0.4970
G02 X3.318 Y31.000 I0.5869 J0.3152
G02 X3.345 Y31.271 I0.6893 J0.0666
G02 X3.480 Y31.520 I0.6868 J-0.2124
G02 X3.709 Y31.703 I0.5720 J-0.4777
G02 X4.000 Y31.788 I0.3557 J-0.6847
G02 X4.311 Y31.752 I0.0666 J-0.7951
G02 X4.594 Y31.594 I-0.2529 J-0.7845
G02 X4.800 Y31.331 I-0.5525 J-0.6467
G02 X4.893 Y31.000 I-0.7823 J-0.3961
G02 X4.849 Y30.648 I-0.9008 J-0.0666
G02 X4.668 Y30.332 I-0.8820 J0.2933
G02 X4.372 Y30.103 I-0.7213 J0.6272
G02 X4.000 Y30.003 I-0.4365 J0.8798
G02 X3.608 Y30.054 I-0.0666 J1.0063
G02 X3.258 Y30.258 I0.3337 J0.9795
G02 X3.006 Y30.588 I0.7018 J0.7959
G02 X2.900 Y31.000 I0.9792 J0.4707
G02 X2.984 Y31.421 I1.1000 J0.0000
G02 X3.222 Y31.778 I1.0163 J-0.4210
G02 X3.579 Y32.016 I0.7778 J-0.7778
G02 X4.000 Y32.100 I0.4210 J-1.0163
G02 X4.421 Y32.016 I0.0000 J-1.1000
G02 X4.778 Y31.778 I-0.4210 J-1.0163
G02 X5.016 Y31.421 I-0.7778 J-0.7778
G02 X5.100 Y31.000 I-1.0163 J-0.4210
G02 X3.450 Y30.047 I-1.1000 J0.0000
G02 Y31.953 I0.5500 J0.9526
G02 X5.100 Y31.000 I0.5500 J-0.9526
G02 X3.528 I-0.7862 J0.0000
G02 X4.473 I0.4725 J0.0000
G02 X3.764 Y30.591 Z-2.533 I-0.4725 J0.0000 F120
G02 Y31.409 Z-2.667 I0.2363 J0.4092
G02 X4.473 Y31.000 Z-2.800 I0.2363 J-0.4092
G02 X3.764 Y30.591 I-0.4725 J0.0000
G02 Y31.409 I0.2363 J0.4092
G02 X4.473 Y31.000 I0.2363 J-0.4092
G02 X4.461 Y30.809 I-0.4767 J-0.0665 F400
G02 X4.371 Y30.629 I-0.4905 J0.1311
G02 X4.211 Y30.491 I-0.4219 J0.3277
G02 X4.000 Y30.423 I-0.2745 J0.4888
G02 X3.769 Y30.442 I-0.0666 J0.5832
G02 X3.555 Y30.555 I0.1718 J0.5888
G02 X3.394 Y30.749 I0.4028 J0.4970
G02 X3.318 Y31.000 I0.5869 J0.3152
G02 X3.345 Y31.271 I0.6893 J0.0666
G02 X3.480 Y31.520 I0.6868 J-0.2124
G02 X3.709 Y31.703 I0.5720 J-0.4777
G02 X4.000 Y31.788 I0.3557 J-0.6847
G02 X4.311 Y31.752 I0.0666 J-0.7951
G02 X4.594 Y31.594 I-0.2529 J-0.7845
G02 X4.800 Y31.331 I-0.5525 J-0.6467
G02 X4.893 Y31.000 I-0.7823 J-0.3961
G02 X4.849 Y30.648 I-0.9008 J-0.0666
G02 X4.668 Y30.332 I-0.8820 J0.2933
G02 X4.372 Y30.103 I-0.7213 J0.6272
G02 X4.000 Y30.003 I-0.4365 J0.8798
G02 X3.608 Y30.054 I-0.0666 J1.0063
G02 X3.258 Y30.258 I0.3337 J0.9795
G02 X3.006 Y30.588 I0.7018 J0.7959
G02 X2.900 Y31.000 I0.9792 J0.4707
G02 X2.984 Y31.421 I1.1000 J0.0000
G02 X3.222 Y31.778 I1.0163 J-0.4210
G02 X3.579 Y32.016 I0.7778 J-0.7778
G02 X4.000 Y32.100 I0.4210 J-1.0163
G02 X4.421 Y32.016 I0.0000 J-1.1000
G02 X4.778 Y31.778 I-0.4210 J-1.0163
G02 X5.016 Y31.421 I-0.7778 J-0.7778
G02 X5.100 Y31.000 I-1.0163 J-0.4210
G02 X3.450 Y30.047 I-1.1000 J0.0000
G02 Y31.953 I0.5500 J0.9526
G02 X5.100 Y31.000 I0.5500 J-0.9526
G02 X3.528 I-0.7862 J0.0000
G02 X4.473 I0.4725 J0.0000
G02 X3.764 Y30.591 Z-2.933 I-0.4725 J0.0000 F120
G02 Y31.409 Z-3.067 I0.2363 J0.4092
G02 X4.473 Y31.000 Z-3.200 I0.2363 J-0.4092
G02 X3.764 Y30.591 I-0.4725 J0.0000
G02 Y31.409 I0.2363 J0.4092
G02 X4.473 Y31.000 I0.2363 J-0.4092
G02 X4.461 Y30.809 I-0.4767 J-0.0665 F400
G02 X4.371 Y30.629 I-0.4905 J0.1311
G02 X4.211 Y30.491 I-0.4219 J0.3277
G02 X4.000 Y30.423 I-0.2745 J0.4888
G02 X3.769 Y30.442 I-0.0666 J0.5832
G02 X3.555 Y30.555 I0.1718 J0.5888
G02 X3.394 Y30.749 I0.4028 J0.4970
G02 X3.318 Y31.000 I0.5869 J0.3152
G02 X3.345 Y31.271 I0.6893 J0.0666
G02 X3.480 Y31.520 I0.6868 J-0.2124
G02 X3.709 Y31.703 I0.5720 J-0.4777
G02 X4.000 Y31.788 I0.3557 J-0.6847
G02 X4.311 Y31.752 I0.0666 J-0.7951
G02 X4.594 Y31.594 I-0.2529 J-0.7845
G02 X4.800 Y31.331 I-0.5525 J-0.6467
G02 X4.893 Y31.000 I-0.7823 J-0.3961
G02 X4.849 Y30.648 I-0.9008 J-0.0666
G02 X4.668 Y30.332 I-0.8820 J0.2933
G02 X4.372 Y30.103 I-0.7213 J0.6272
G02 X4.000 Y30.003 I-0.4365 J0.8798
G02 X3.608 Y30.054 I-0.0666 J1.0063
G02 X3.258 Y30.258 I0.3337 J0.9795
G02 X3.006 Y30.588 I0.7018 J0.7959
G02 X2.900 Y31.000 I0.9792 J0.4707
G02 X2.984 Y31.421 I1.1000 J0.0000
G02 X3.222 Y31.778 I1.0163 J-0.4210
G02 X3.579 Y32.016 I0.7778 J-0.7778
G02 X4.000 Y32.100 I0.4210 J-1.0163
G02 X4.421 Y32.016 I0.0000 J-1.1000
G02 X4.778 Y31.778 I-0.4210 J-1.0163
G02 X5.016 Y31.421 I-0.7778 J-0.7778
G02 X5.100 Y31.000 I-1.0163 J-0.4210
G02 X3.450 Y30.047 I-1.1000 J0.0000
G02 Y31.953 I0.5500 J0.9526
G02 X5.100 Y31.000 I0.5500 J-0.9526
G02 X3.528 I-0.7862 J0.0000
G02 X4.473 I0.4725 J0.0000
G02 X3.764 Y30.591 Z-3.300 I-0.4725 J0.0000 F120
G02 Y31.409 Z-3.400 I0.2363 J0.4092
G02 X4.473 Y31.000 Z-3.500 I0.2363 J-0.4092
G02 X3.764 Y30.591 I-0.4725 J0.0000
G02 Y31.409 I0.2363 J0.4092
G02 X4.473 Y31.000 I0.2363 J-0.4092
G02 X4.461 Y30.809 I-0.4767 J-0.0665 F400
G02 X4.371 Y30.629 I-0.4905 J0.1311
G02 X4.211 Y30.491 I-0.4219 J0.3277
G02 X4.000 Y30.423 I-0.2745 J0.4888
G02 X3.769 Y30.442 I-0.0666 J0.5832
G02 X3.555 Y30.555 I0.1718 J0.5888
G02 X3.394 Y30.749 I0.4028 J0.4970
G02 X3.318 Y31.000 I0.5869 J0.3152
G02 X3.345 Y31.271 I0.6893 J0.0666
G02 X3.480 Y31.520 I0.6868 J-0.2124
G02 X3.709 Y31.703 I0.5720 J-0.4777
G02 X4.000 Y31.788 I0.3557 J-0.6847
G02 X4.311 Y31.752 I0.0666 J-0.7951
G02 X4.594 Y31.594 I-0.2529 J-0.7845
G02 X4.800 Y31.331 I-0.5525 J-0.6467
G02 X4.893 Y31.000 I-0.7823 J-0.3961
G02 X4.849 Y30.648 I-0.9008 J-0.0666
G02 X4.668 Y30.332 I-0.8820 J0.2933
G02 X4.372 Y30.103 I-0.7213 J0.6272
G02 X4.000 Y30.003 I-0.4365 J0.8798
G02 X3.608 Y30.054 I-0.0666 J1.0063
G02 X3.258 Y30.258 I0.3337 J0.9795
G02 X3.006 Y30.588 I0.7018 J0.7959
G02 X2.900 Y31.000 I0.9792 J0.4707
G02 X2.984 Y31.421 I1.1000 J0.0000
G02 X3.222 Y31.778 I1.0163 J-0.4210
G02 X3.579 Y32.016 I0.7778 J-0.7778
G02 X4.000 Y32.100 I0.4210 J-1.0163
G02 X4.421 Y32.016 I0.0000 J-1.1000
G02 X4.778 Y31.778 I-0.4210 J-1.0163
G02 X5.016 Y31.421 I-0.7778 J-0.7778
G02 X5.100 Y31.000 I-1.0163 J-0.4210
G02 X3.450 Y30.047 I-1.1000 J0.0000
G02 Y31.953 I0.5500 J0.9526
G02 X5.100 Y31.000 I0.5500 J-0.9526
G02 X4.575 Y30.475 Z-3.000 I-0.5250 J0.0000 F120
G00 Z20.000


(No. 9 Helical drill: Helical drill 4)
G00 X33.972 Y31.000 Z20.000
G00 Z0.500
G02 X33.264 Y30.591 Z0.367 I-0.4725 J0.0000 F120
G02 Y31.409 Z0.233 I0.2362 J0.4092
G02 X33.972 Y31.000 Z0.100 I0.2362 J-0.4092
G02 X33.264 Y30.591 Z0.067 I-0.4725 J0.0000
G02 Y31.409 Z0.033 I0.2362 J0.4092
G02 X33.972 Y31.000 Z0.000 I0.2362 J-0.4092
G02 X33.264 Y30.591 I-0.4725 J0.0000
G02 Y31.409 I0.2362 J0.4092
G02 X33.972 Y31.000 I0.2362 J-0.4092
G02 X33.264 Y30.591 Z-0.133 I-0.4725 J0.0000
G02 Y31.409 Z-0.267 I0.2362 J0.4092
G02 X33.972 Y31.000 Z-0.400 I0.2362 J-0.4092
G02 X33.264 Y30.591 I-0.4725 J0.0000
G02 Y31.409 I0.2362 J0.4092
G02 X33.972 Y31.000 I0.2362 J-0.4092
G02 X33.961 Y30.809 I-0.4767 J-0.0665 F400
G02 X33.871 Y30.629 I-0.4905 J0.1311
G02 X33.711 Y30.491 I-0.4219 J0.3277
G02 X33.500 Y30.423 I-0.2745 J0.4888
G02 X33.269 Y30.442 I-0.0666 J0.5832
G02 X33.055 Y30.555 I0.1718 J0.5888
G02 X32.894 Y30.749 I0.4028 J0.4970
G02 X32.817 Y31.000 I0.5869 J0.3152
G02 X32.845 Y31.271 I0.6893 J0.0666
G02 X32.980 Y31.520 I0.6868 J-0.2124
G02 X33.209 Y31.703 I0.5720 J-0.4777
G02 X33.500 Y31.788 I0.3557 J-0.6847
G02 X33.811 Y31.752 I0.0666 J-0.7951
G02 X34.094 Y31.594 I-0.2529 J-0.7845
G02 X34.300 Y31.331 I-0.5525 J-0.6467
G02 X34.392 Y31.000 I-0.7823 J-0.3961
G02 X34.349 Y30.648 I-0.9008 J-0.0666
G02 X34.168 Y30.332 I-0.8820 J0.2933
G02 X33.872 Y30.103 I-0.7213 J0.6272
G02 X33.500 Y30.003 I-0.4365 J0.8798
G02 X33.108 Y30.054 I-0.0666 J1.0063
G02 X32.758 Y30.258 I0.3337 J0.9795
G02 X32.506 Y30.588 I0.7018 J0.7959
G02 X32.400 Y31.000 I0.9792 J0.4707
G02 X32.484 Y31.421 I1.1000 J0.0000
G02 X32.722 Y31.778 I1.0163 J-0.4210
G02 X33.079 Y32.016 I0.7778 J-0.7778
G02 X33.500 Y32.100 I0.4210 J-1.0163
G02 X33.921 Y32.016 I0.0000 J-1.1000
G02 X34.278 Y31.778 I-0.4210 J-1.0163
G02 X34.516 Y31.421 I-0.7778 J-0.7778
G02 X34.600 Y31.000 I-1.0163 J-0.4210
G02 X32.950 Y30.047 I-1.1000 J0.0000
G02 Y31.953 I0.5500 J0.9526
G02 X34.600 Y31.000 I0.5500 J-0.9526
G02 X33.027 I-0.7863 J0.0000
G02 X33.972 I0.4725 J0.0000
G02 X33.264 Y30.591 Z-0.533 I-0.4725 J0.0000 F120
G02 Y31.409 Z-0.667 I0.2362 J0.4092
G02 X33.972 Y31.000 Z-0.800 I0.2362 J-0.4092
G02 X33.264 Y30.591 I-0.4725 J0.0000
G02 Y31.409 I0.2362 J0.4092
G02 X33.972 Y31.000 I0.2362 J-0.4092
G02 X33.961 Y30.809 I-0.4767 J-0.0665 F400
G02 X33.871 Y30.629 I-0.4905 J0.1311
G02 X33.711 Y30.491 I-0.4219 J0.3277
G02 X33.500 Y30.423 I-0.2745 J0.4888
G02 X33.269 Y30.442 I-0.0666 J0.5832
G02 X33.055 Y30.555 I0.1718 J0.5888
G02 X32.894 Y30.749 I0.4028 J0.4970
G02 X32.817 Y31.000 I0.5869 J0.3152
G02 X32.845 Y31.271 I0.6893 J0.0666
G02 X32.980 Y31.520 I0.6868 J-0.2124
G02 X33.209 Y31.703 I0.5720 J-0.4777
G02 X33.500 Y31.788 I0.3557 J-0.6847
G02 X33.811 Y31.752 I0.0666 J-0.7951
G02 X34.094 Y31.594 I-0.2529 J-0.7845
G02 X34.300 Y31.331 I-0.5525 J-0.6467
G02 X34.392 Y31.000 I-0.7823 J-0.3961
G02 X34.349 Y30.648 I-0.9008 J-0.0666
G02 X34.168 Y30.332 I-0.8820 J0.2933
G02 X33.872 Y30.103 I-0.7213 J0.6272
G02 X33.500 Y30.003 I-0.4365 J0.8798
G02 X33.108 Y30.054 I-0.0666 J1.0063
G02 X32.758 Y30.258 I0.3337 J0.9795
G02 X32.506 Y30.588 I0.7018 J0.7959
G02 X32.400 Y31.000 I0.9792 J0.4707
G02 X32.484 Y31.421 I1.1000 J0.0000
G02 X32.722 Y31.778 I1.0163 J-0.4210
G02 X33.079 Y32.016 I0.7778 J-0.7778
G02 X33.500 Y32.100 I0.4210 J-1.0163
G02 X33.921 Y32.016 I0.0000 J-1.1000
G02 X34.278 Y31.778 I-0.4210 J-1.0163
G02 X34.516 Y31.421 I-0.7778 J-0.7778
G02 X34.600 Y31.000 I-1.0163 J-0.4210
G02 X32.950 Y30.047 I-1.1000 J0.0000
G02 Y31.953 I0.5500 J0.9526
G02 X34.600 Y31.000 I0.5500 J-0.9526
G02 X33.027 I-0.7863 J0.0000
G02 X33.972 I0.4725 J0.0000
G02 X33.264 Y30.591 Z-0.933 I-0.4725 J0.0000 F120
G02 Y31.409 Z-1.067 I0.2362 J0.4092
G02 X33.972 Y31.000 Z-1.200 I0.2362 J-0.4092
G02 X33.264 Y30.591 I-0.4725 J0.0000
G02 Y31.409 I0.2362 J0.4092
G02 X33.972 Y31.000 I0.2362 J-0.4092
G02 X33.961 Y30.809 I-0.4767 J-0.0665 F400
G02 X33.871 Y30.629 I-0.4905 J0.1311
G02 X33.711 Y30.491 I-0.4219 J0.3277
G02 X33.500 Y30.423 I-0.2745 J0.4888
G02 X33.269 Y30.442 I-0.0666 J0.5832
G02 X33.055 Y30.555 I0.1718 J0.5888
G02 X32.894 Y30.749 I0.4028 J0.4970
G02 X32.817 Y31.000 I0.5869 J0.3152
G02 X32.845 Y31.271 I0.6893 J0.0666
G02 X32.980 Y31.520 I0.6868 J-0.2124
G02 X33.209 Y31.703 I0.5720 J-0.4777
G02 X33.500 Y31.788 I0.3557 J-0.6847
G02 X33.811 Y31.752 I0.0666 J-0.7951
G02 X34.094 Y31.594 I-0.2529 J-0.7845
G02 X34.300 Y31.331 I-0.5525 J-0.6467
G02 X34.392 Y31.000 I-0.7823 J-0.3961
G02 X34.349 Y30.648 I-0.9008 J-0.0666
G02 X34.168 Y30.332 I-0.8820 J0.2933
G02 X33.872 Y30.103 I-0.7213 J0.6272
G02 X33.500 Y30.003 I-0.4365 J0.8798
G02 X33.108 Y30.054 I-0.0666 J1.0063
G02 X32.758 Y30.258 I0.3337 J0.9795
G02 X32.506 Y30.588 I0.7018 J0.7959
G02 X32.400 Y31.000 I0.9792 J0.4707
G02 X32.484 Y31.421 I1.1000 J0.0000
G02 X32.722 Y31.778 I1.0163 J-0.4210
G02 X33.079 Y32.016 I0.7778 J-0.7778
G02 X33.500 Y32.100 I0.4210 J-1.0163
G02 X33.921 Y32.016 I0.0000 J-1.1000
G02 X34.278 Y31.778 I-0.4210 J-1.0163
G02 X34.516 Y31.421 I-0.7778 J-0.7778
G02 X34.600 Y31.000 I-1.0163 J-0.4210
G02 X32.950 Y30.047 I-1.1000 J0.0000
G02 Y31.953 I0.5500 J0.9526
G02 X34.600 Y31.000 I0.5500 J-0.9526
G02 X33.027 I-0.7863 J0.0000
G02 X33.972 I0.4725 J0.0000
G02 X33.264 Y30.591 Z-1.333 I-0.4725 J0.0000 F120
G02 Y31.409 Z-1.467 I0.2362 J0.4092
G02 X33.972 Y31.000 Z-1.600 I0.2362 J-0.4092
G02 X33.264 Y30.591 I-0.4725 J0.0000
G02 Y31.409 I0.2362 J0.4092
G02 X33.972 Y31.000 I0.2362 J-0.4092
G02 X33.961 Y30.809 I-0.4767 J-0.0665 F400
G02 X33.871 Y30.629 I-0.4905 J0.1311
G02 X33.711 Y30.491 I-0.4219 J0.3277
G02 X33.500 Y30.423 I-0.2745 J0.4888
G02 X33.269 Y30.442 I-0.0666 J0.5832
G02 X33.055 Y30.555 I0.1718 J0.5888
G02 X32.894 Y30.749 I0.4028 J0.4970
G02 X32.817 Y31.000 I0.5869 J0.3152
G02 X32.845 Y31.271 I0.6893 J0.0666
G02 X32.980 Y31.520 I0.6868 J-0.2124
G02 X33.209 Y31.703 I0.5720 J-0.4777
G02 X33.500 Y31.788 I0.3557 J-0.6847
G02 X33.811 Y31.752 I0.0666 J-0.7951
G02 X34.094 Y31.594 I-0.2529 J-0.7845
G02 X34.300 Y31.331 I-0.5525 J-0.6467
G02 X34.392 Y31.000 I-0.7823 J-0.3961
G02 X34.349 Y30.648 I-0.9008 J-0.0666
G02 X34.168 Y30.332 I-0.8820 J0.2933
G02 X33.872 Y30.103 I-0.7213 J0.6272
G02 X33.500 Y30.003 I-0.4365 J0.8798
G02 X33.108 Y30.054 I-0.0666 J1.0063
G02 X32.758 Y30.258 I0.3337 J0.9795
G02 X32.506 Y30.588 I0.7018 J0.7959
G02 X32.400 Y31.000 I0.9792 J0.4707
G02 X32.484 Y31.421 I1.1000 J0.0000
G02 X32.722 Y31.778 I1.0163 J-0.4210
G02 X33.079 Y32.016 I0.7778 J-0.7778
G02 X33.500 Y32.100 I0.4210 J-1.0163
G02 X33.921 Y32.016 I0.0000 J-1.1000
G02 X34.278 Y31.778 I-0.4210 J-1.0163
G02 X34.516 Y31.421 I-0.7778 J-0.7778
G02 X34.600 Y31.000 I-1.0163 J-0.4210
G02 X32.950 Y30.047 I-1.1000 J0.0000
G02 Y31.953 I0.5500 J0.9526
G02 X34.600 Y31.000 I0.5500 J-0.9526
G02 X33.027 I-0.7863 J0.0000
G02 X33.972 I0.4725 J0.0000
G02 X33.264 Y30.591 Z-1.733 I-0.4725 J0.0000 F120
G02 Y31.409 Z-1.867 I0.2362 J0.4092
G02 X33.972 Y31.000 Z-2.000 I0.2362 J-0.4092
G02 X33.264 Y30.591 I-0.4725 J0.0000
G02 Y31.409 I0.2362 J0.4092
G02 X33.972 Y31.000 I0.2362 J-0.4092
G02 X33.961 Y30.809 I-0.4767 J-0.0665 F400
G02 X33.871 Y30.629 I-0.4905 J0.1311
G02 X33.711 Y30.491 I-0.4219 J0.3277
G02 X33.500 Y30.423 I-0.2745 J0.4888
G02 X33.269 Y30.442 I-0.0666 J0.5832
G02 X33.055 Y30.555 I0.1718 J0.5888
G02 X32.894 Y30.749 I0.4028 J0.4970
G02 X32.817 Y31.000 I0.5869 J0.3152
G02 X32.845 Y31.271 I0.6893 J0.0666
G02 X32.980 Y31.520 I0.6868 J-0.2124
G02 X33.209 Y31.703 I0.5720 J-0.4777
G02 X33.500 Y31.788 I0.3557 J-0.6847
G02 X33.811 Y31.752 I0.0666 J-0.7951
G02 X34.094 Y31.594 I-0.2529 J-0.7845
G02 X34.300 Y31.331 I-0.5525 J-0.6467
G02 X34.392 Y31.000 I-0.7823 J-0.3961
G02 X34.349 Y30.648 I-0.9008 J-0.0666
G02 X34.168 Y30.332 I-0.8820 J0.2933
G02 X33.872 Y30.103 I-0.7213 J0.6272
G02 X33.500 Y30.003 I-0.4365 J0.8798
G02 X33.108 Y30.054 I-0.0666 J1.0063
G02 X32.758 Y30.258 I0.3337 J0.9795
G02 X32.506 Y30.588 I0.7018 J0.7959
G02 X32.400 Y31.000 I0.9792 J0.4707
G02 X32.484 Y31.421 I1.1000 J0.0000
G02 X32.722 Y31.778 I1.0163 J-0.4210
G02 X33.079 Y32.016 I0.7778 J-0.7778
G02 X33.500 Y32.100 I0.4210 J-1.0163
G02 X33.921 Y32.016 I0.0000 J-1.1000
G02 X34.278 Y31.778 I-0.4210 J-1.0163
G02 X34.516 Y31.421 I-0.7778 J-0.7778
G02 X34.600 Y31.000 I-1.0163 J-0.4210
G02 X32.950 Y30.047 I-1.1000 J0.0000
G02 Y31.953 I0.5500 J0.9526
G02 X34.600 Y31.000 I0.5500 J-0.9526
G02 X33.027 I-0.7863 J0.0000
G02 X33.972 I0.4725 J0.0000
G02 X33.264 Y30.591 Z-2.133 I-0.4725 J0.0000 F120
G02 Y31.409 Z-2.267 I0.2362 J0.4092
G02 X33.972 Y31.000 Z-2.400 I0.2362 J-0.4092
G02 X33.264 Y30.591 I-0.4725 J0.0000
G02 Y31.409 I0.2362 J0.4092
G02 X33.972 Y31.000 I0.2362 J-0.4092
G02 X33.961 Y30.809 I-0.4767 J-0.0665 F400
G02 X33.871 Y30.629 I-0.4905 J0.1311
G02 X33.711 Y30.491 I-0.4219 J0.3277
G02 X33.500 Y30.423 I-0.2745 J0.4888
G02 X33.269 Y30.442 I-0.0666 J0.5832
G02 X33.055 Y30.555 I0.1718 J0.5888
G02 X32.894 Y30.749 I0.4028 J0.4970
G02 X32.817 Y31.000 I0.5869 J0.3152
G02 X32.845 Y31.271 I0.6893 J0.0666
G02 X32.980 Y31.520 I0.6868 J-0.2124
G02 X33.209 Y31.703 I0.5720 J-0.4777
G02 X33.500 Y31.788 I0.3557 J-0.6847
G02 X33.811 Y31.752 I0.0666 J-0.7951
G02 X34.094 Y31.594 I-0.2529 J-0.7845
G02 X34.300 Y31.331 I-0.5525 J-0.6467
G02 X34.392 Y31.000 I-0.7823 J-0.3961
G02 X34.349 Y30.648 I-0.9008 J-0.0666
G02 X34.168 Y30.332 I-0.8820 J0.2933
G02 X33.872 Y30.103 I-0.7213 J0.6272
G02 X33.500 Y30.003 I-0.4365 J0.8798
G02 X33.108 Y30.054 I-0.0666 J1.0063
G02 X32.758 Y30.258 I0.3337 J0.9795
G02 X32.506 Y30.588 I0.7018 J0.7959
G02 X32.400 Y31.000 I0.9792 J0.4707
G02 X32.484 Y31.421 I1.1000 J0.0000
G02 X32.722 Y31.778 I1.0163 J-0.4210
G02 X33.079 Y32.016 I0.7778 J-0.7778
G02 X33.500 Y32.100 I0.4210 J-1.0163
G02 X33.921 Y32.016 I0.0000 J-1.1000
G02 X34.278 Y31.778 I-0.4210 J-1.0163
G02 X34.516 Y31.421 I-0.7778 J-0.7778
G02 X34.600 Y31.000 I-1.0163 J-0.4210
G02 X32.950 Y30.047 I-1.1000 J0.0000
G02 Y31.953 I0.5500 J0.9526
G02 X34.600 Y31.000 I0.5500 J-0.9526
G02 X33.027 I-0.7863 J0.0000
G02 X33.972 I0.4725 J0.0000
G02 X33.264 Y30.591 Z-2.533 I-0.4725 J0.0000 F120
G02 Y31.409 Z-2.667 I0.2362 J0.4092
G02 X33.972 Y31.000 Z-2.800 I0.2362 J-0.4092
G02 X33.264 Y30.591 I-0.4725 J0.0000
G02 Y31.409 I0.2362 J0.4092
G02 X33.972 Y31.000 I0.2362 J-0.4092
G02 X33.961 Y30.809 I-0.4767 J-0.0665 F400
G02 X33.871 Y30.629 I-0.4905 J0.1311
G02 X33.711 Y30.491 I-0.4219 J0.3277
G02 X33.500 Y30.423 I-0.2745 J0.4888
G02 X33.269 Y30.442 I-0.0666 J0.5832
