(Project nrf51822-holes-just-pogo)
(Created by Estlcam version 11 build 11.118)
(Machining time about 00:03:08 hours)

(Required tools:)
(End 1.000mm)
G21
G90
G94
M03 S24000.0
G00 Z20.000


(No. 1 Drill: Drill 1)
G00 X8.034 Y11.606
G00 Z0.500
G01 Z-0.400 F120 S24000.0
G00 Z0.500
G00 Z0.100
G01 Z-0.800
G00 Z0.500
G00 Z-0.300
G01 Z-1.200
G00 Z0.500
G00 Z-0.700
G01 Z-1.600
G00 Z0.500
G00 Z-1.100
G01 Z-2.000
G00 Z0.500
G00 Z-1.500
G01 Z-2.400
G00 Z0.500
G00 Z-1.900
G01 Z-2.800
G00 Z0.500
G00 Z-2.300
G01 Z-3.200
G00 Z0.500
G00 Z-2.700
G01 Z-3.500
G00 Z20.000


(No. 2 Drill: Drill 2)
G00 X9.779 Y18.921 Z20.000
G00 Z0.500
G01 Z-0.400 F120
G00 Z0.500
G00 Z0.100
G01 Z-0.800
G00 Z0.500
G00 Z-0.300
G01 Z-1.200
G00 Z0.500
G00 Z-0.700
G01 Z-1.600
G00 Z0.500
G00 Z-1.100
G01 Z-2.000
G00 Z0.500
G00 Z-1.500
G01 Z-2.400
G00 Z0.500
G00 Z-1.900
G01 Z-2.800
G00 Z0.500
G00 Z-2.300
G01 Z-3.200
G00 Z0.500
G00 Z-2.700
G01 Z-3.500
G00 Z20.000


(No. 3 Drill: Drill 3)
G00 X19.119 Y28.871 Z20.000
G00 Z0.500
G01 Z-0.400 F120
G00 Z0.500
G00 Z0.100
G01 Z-0.800
G00 Z0.500
G00 Z-0.300
G01 Z-1.200
G00 Z0.500
G00 Z-0.700
G01 Z-1.600
G00 Z0.500
G00 Z-1.100
G01 Z-2.000
G00 Z0.500
G00 Z-1.500
G01 Z-2.400
G00 Z0.500
G00 Z-1.900
G01 Z-2.800
G00 Z0.500
G00 Z-2.300
G01 Z-3.200
G00 Z0.500
G00 Z-2.700
G01 Z-3.500
G00 Z20.000


(No. 4 Drill: Drill 4)
G00 X23.138 Y27.541 Z20.000
G00 Z0.500
G01 Z-0.400 F120
G00 Z0.500
G00 Z0.100
G01 Z-0.800
G00 Z0.500
G00 Z-0.300
G01 Z-1.200
G00 Z0.500
G00 Z-0.700
G01 Z-1.600
G00 Z0.500
G00 Z-1.100
G01 Z-2.000
G00 Z0.500
G00 Z-1.500
G01 Z-2.400
G00 Z0.500
G00 Z-1.900
G01 Z-2.800
G00 Z0.500
G00 Z-2.300
G01 Z-3.200
G00 Z0.500
G00 Z-2.700
G01 Z-3.500
G00 Z20.000
G00 X0.000 Y0.000

M05
M30
